;FLAVOR:Marlin
;TIME:6028
;Filament used: 3.38634m
;Layer height: 0.4
;MINX:47.489
;MINY:35.839
;MINZ:0.52
;MAXX:142.511
;MAXY:134.161
;MAXZ:21.72
;Generated with Cura_SteamEngine 4.1.0
M82 ;absolute extrusion mode
M98 P0:/sys/startprint.g

G92 E0
G92 E0
G10
;LAYER_COUNT:54
;LAYER:0
M107
G0 F3600 X48.62 Y37.719 Z0.52
;TYPE:SKIRT
M220 S50
G11
G1 F1800 X48.968 Y37.33 E0.02978
G1 X49.342 Y36.973 E0.05928
G1 X49.78 Y36.668 E0.08974
G1 X50.208 Y36.419 E0.11799
G1 X50.674 Y36.195 E0.14749
G1 X51.073 Y36.067 E0.1714
G1 X51.275 Y36.016 E0.18329
G1 X51.41 Y35.985 E0.19119
G1 X51.707 Y35.923 E0.2085
G1 X52.284 Y35.854 E0.24166
G1 X52.501 Y35.847 E0.25405
G1 X52.581 Y35.845 E0.25862
G1 X52.822 Y35.843 E0.27237
G1 X52.849 Y35.843 E0.27391
G1 X65.276 Y35.839 E0.98298
G1 X94.841 Y35.839 E2.66992
G1 X95.539 Y35.849 E2.70975
G1 X95.908 Y35.875 E2.73085
G1 X96.139 Y35.904 E2.74414
G1 X96.247 Y35.919 E2.75036
G1 X96.455 Y35.952 E2.76238
G1 X96.958 Y36.073 E2.7919
G1 X97.281 Y36.196 E2.81162
G1 X97.746 Y36.401 E2.84061
G1 X98.202 Y36.645 E2.87012
G1 X98.63 Y36.97 E2.90079
G1 X99.022 Y37.321 E2.93081
G1 X99.379 Y37.695 E2.96031
G1 X99.697 Y38.157 E2.99231
G1 X100.265 Y39.153 E3.05773
G1 X100.299 Y39.214 E3.06172
G1 X100.983 Y40.473 E3.14347
G1 X102.359 Y42.84 E3.29969
G1 X103.78 Y45.133 E3.45362
G1 X105.308 Y47.452 E3.61208
G1 X106.864 Y49.672 E3.76676
G1 X108.495 Y51.867 E3.9228
G1 X110.188 Y54.014 E4.07881
G1 X111.944 Y56.115 E4.23505
G1 X113.758 Y58.166 E4.39128
G1 X115.631 Y60.166 E4.54762
G1 X117.515 Y62.066 E4.7003
G1 X119.543 Y64.002 E4.86027
G1 X121.557 Y65.817 E5.01497
G1 X123.645 Y67.594 E5.17141
G1 X125.757 Y69.291 E5.326
G1 X127.944 Y70.949 E5.4826
G1 X130.172 Y72.539 E5.63878
G1 X132.428 Y74.057 E5.79393
G1 X134.767 Y75.535 E5.9518
G1 X137.077 Y76.906 E6.10507
G1 X139.522 Y78.264 E6.26465
G1 X139.695 Y78.355 E6.27581
G1 X139.757 Y78.389 E6.27984
G1 X140.032 Y78.542 E6.2978
G1 X140.653 Y78.987 E6.34139
G1 X141.037 Y79.335 E6.37096
G1 X141.392 Y79.711 E6.40047
G1 X141.683 Y80.133 E6.42971
G1 X141.929 Y80.556 E6.45763
G1 X142.154 Y81.022 E6.48716
G1 X142.276 Y81.401 E6.50988
G1 X142.329 Y81.606 E6.52196
G1 X142.368 Y81.771 E6.53163
G1 X142.429 Y82.068 E6.54893
G1 X142.495 Y82.619 E6.5806
G1 X142.503 Y82.836 E6.59299
G1 X142.505 Y82.931 E6.59841
G1 X142.507 Y83.171 E6.61211
G1 X142.507 Y83.198 E6.61365
G1 X142.511 Y96.191 E7.35501
G1 X142.511 Y128.491 E9.19801
G1 X142.501 Y129.189 E9.23784
G1 X142.475 Y129.558 E9.25894
G1 X142.446 Y129.789 E9.27223
G1 X142.43 Y129.899 E9.27857
G1 X142.397 Y130.106 E9.29053
G1 X142.277 Y130.609 E9.32004
G1 X142.156 Y130.928 E9.3395
G1 X141.955 Y131.385 E9.36799
G1 X141.71 Y131.841 E9.39753
G1 X141.396 Y132.257 E9.42727
G1 X141.041 Y132.658 E9.45782
G1 X140.67 Y133.017 E9.48728
G1 X140.218 Y133.332 E9.51872
G1 X139.792 Y133.58 E9.54684
G1 X139.327 Y133.805 E9.57632
G1 X138.927 Y133.933 E9.60028
G1 X138.725 Y133.984 E9.61217
G1 X138.59 Y134.015 E9.62007
G1 X138.293 Y134.077 E9.63738
G1 X137.717 Y134.146 E9.67048
G1 X137.501 Y134.153 E9.68282
G1 X137.42 Y134.155 E9.68744
G1 X137.181 Y134.157 E9.70108
G1 X137.154 Y134.157 E9.70262
G1 X114.099 Y134.161 E11.0181
G1 X53.16 Y134.161 E14.4952
G1 X52.523 Y134.152 E14.53155
G1 X52.13 Y134.123 E14.55404
G1 X51.624 Y134.056 E14.58316
G1 X51.118 Y133.949 E14.61267
G1 X50.864 Y133.863 E14.62797
G1 X50.632 Y133.774 E14.64215
G1 X50.397 Y133.673 E14.65675
G1 X50.186 Y133.573 E14.67007
G1 X49.737 Y133.316 E14.69959
G1 X49.446 Y133.094 E14.72047
G1 X49.145 Y132.837 E14.74306
G1 X48.716 Y132.396 E14.77816
G1 X48.538 Y132.176 E14.79431
G1 X48.261 Y131.779 E14.82193
G1 X48.112 Y131.528 E14.83859
G1 X47.883 Y131.064 E14.86811
G1 X47.762 Y130.704 E14.88978
G1 X47.629 Y130.219 E14.91847
G1 X47.531 Y129.711 E14.94799
G1 X47.511 Y129.396 E14.966
G1 X47.499 Y128.754 E15.00264
G1 X47.498 Y128.696 E15.00595
G1 X47.489 Y123.079 E15.32645
G1 X47.489 Y123.074 E15.32674
G1 X47.49 Y62.185 E18.80098
G1 X47.489 Y41.56 E19.97782
G1 X47.489 Y41.512 E19.98056
G1 X47.499 Y40.809 E20.02067
G1 X47.526 Y40.435 E20.04207
G1 X47.557 Y40.191 E20.0561
G1 X47.572 Y40.082 E20.06238
G1 X47.603 Y39.889 E20.07354
G1 X47.725 Y39.386 E20.10307
G1 X47.846 Y39.068 E20.12248
G1 X48.052 Y38.601 E20.15161
G1 X48.297 Y38.145 E20.18114
G1 X48.62 Y37.719 E20.21165
G10
;MESH:acpwrpanel_2mmthick.stl
G0 F3600 X51.488 Y38.517
G0 X52.505 Y40.262
G0 X85.288 Y45.691
G0 X85.345 Y45.772
;TYPE:WALL-INNER
G11
G1 F1800 X84.729 Y46.313 E20.25842
G1 X84.248 Y46.972 E20.30498
G1 X83.917 Y47.72 E20.35165
G1 X83.758 Y48.523 E20.39836
G1 X83.776 Y49.341 E20.44504
G1 X83.971 Y50.135 E20.49169
G1 X84.332 Y50.868 E20.53831
G1 X84.844 Y51.506 E20.58499
G1 X85.482 Y52.018 E20.63167
G1 X86.215 Y52.379 E20.67829
G1 X87.009 Y52.574 E20.72494
G1 X87.827 Y52.592 E20.77162
G1 X88.63 Y52.433 E20.81833
G1 X89.378 Y52.102 E20.865
G1 X90.037 Y51.621 E20.91156
G1 X90.578 Y51.005 E20.95833
G1 X90.97 Y50.287 E21.00501
G1 X91.199 Y49.502 E21.05167
G1 X91.252 Y48.686 E21.09833
G1 X91.129 Y47.878 E21.14496
G1 X90.832 Y47.115 E21.19168
G1 X90.377 Y46.434 E21.23841
G1 X89.787 Y45.87 E21.28498
G1 X89.087 Y45.445 E21.33171
G1 X88.321 Y45.185 E21.37787
G1 X87.627 Y45.097 E21.41778
G1 X86.845 Y45.151 E21.46251
G1 X86.063 Y45.38 E21.509
G1 X85.345 Y45.772 E21.55568
G0 F3600 X85.72 Y46.308
;TYPE:WALL-OUTER
G1 F1800 X85.212 Y46.754 E21.59425
G1 X84.814 Y47.299 E21.63276
G1 X84.541 Y47.917 E21.67131
G1 X84.409 Y48.58 E21.70988
G1 X84.424 Y49.255 E21.7484
G1 X84.585 Y49.911 E21.78694
G1 X84.884 Y50.517 E21.8255
G1 X85.306 Y51.044 E21.86402
G1 X85.833 Y51.466 E21.90255
G1 X86.439 Y51.765 E21.9411
G1 X87.095 Y51.926 E21.97964
G1 X87.77 Y51.941 E22.01817
G1 X88.433 Y51.809 E22.05674
G1 X89.051 Y51.536 E22.09529
G1 X89.596 Y51.138 E22.1338
G1 X90.042 Y50.63 E22.17237
G1 X90.366 Y50.037 E22.21093
G1 X90.555 Y49.389 E22.24944
G1 X90.599 Y48.714 E22.28804
G1 X90.497 Y48.047 E22.32654
G1 X90.252 Y47.417 E22.36511
G1 X89.876 Y46.855 E22.40369
G1 X89.389 Y46.389 E22.44215
G1 X88.811 Y46.038 E22.48073
G1 X88.174 Y45.822 E22.51911
G1 X87.608 Y45.75 E22.55167
G1 X86.96 Y45.795 E22.58873
G1 X86.313 Y45.984 E22.62719
G1 X85.72 Y46.308 E22.66575
G0 F3600 X85.42 Y46.571
G0 X84.913 Y45.992
G0 X60.628 Y45.058
G0 X59.391 Y45.242
G0 X58.288 Y45.691
G0 X58.345 Y45.772
;TYPE:WALL-INNER
G1 F1800 X57.729 Y46.313 E22.71253
G1 X57.248 Y46.972 E22.75908
G1 X56.917 Y47.72 E22.80575
G1 X56.758 Y48.523 E22.85246
G1 X56.776 Y49.341 E22.89914
G1 X56.971 Y50.135 E22.94579
G1 X57.332 Y50.868 E22.99242
G1 X57.844 Y51.506 E23.03909
G1 X58.482 Y52.018 E23.08577
G1 X59.215 Y52.379 E23.13239
G1 X60.009 Y52.574 E23.17904
G1 X60.827 Y52.592 E23.22573
G1 X61.63 Y52.433 E23.27243
G1 X62.378 Y52.102 E23.3191
G1 X63.037 Y51.621 E23.36566
G1 X63.578 Y51.005 E23.41244
G1 X63.97 Y50.287 E23.45911
G1 X64.199 Y49.502 E23.50577
G1 X64.252 Y48.686 E23.55243
G1 X64.129 Y47.878 E23.59906
G1 X63.832 Y47.115 E23.64578
G1 X63.377 Y46.434 E23.69251
G1 X62.787 Y45.87 E23.73908
G1 X62.087 Y45.445 E23.78581
G1 X61.321 Y45.185 E23.83197
G1 X60.627 Y45.097 E23.87188
G1 X59.845 Y45.151 E23.91661
G1 X59.063 Y45.38 E23.9631
G1 X58.345 Y45.772 E24.00978
G0 F3600 X58.72 Y46.308
;TYPE:WALL-OUTER
G1 F1800 X58.212 Y46.754 E24.04835
G1 X57.814 Y47.299 E24.08686
G1 X57.541 Y47.917 E24.12541
G1 X57.409 Y48.58 E24.16398
G1 X57.424 Y49.255 E24.2025
G1 X57.585 Y49.911 E24.24104
G1 X57.884 Y50.517 E24.2796
G1 X58.306 Y51.044 E24.31812
G1 X58.833 Y51.466 E24.35665
G1 X59.439 Y51.765 E24.3952
G1 X60.095 Y51.926 E24.43375
G1 X60.77 Y51.941 E24.47227
G1 X61.433 Y51.809 E24.51084
G1 X62.051 Y51.536 E24.54939
G1 X62.596 Y51.138 E24.5879
G1 X63.042 Y50.63 E24.62647
G1 X63.366 Y50.037 E24.66503
G1 X63.555 Y49.389 E24.70354
G1 X63.599 Y48.714 E24.74214
G1 X63.497 Y48.047 E24.78064
G1 X63.252 Y47.417 E24.81921
G1 X62.876 Y46.855 E24.85779
G1 X62.389 Y46.389 E24.89625
G1 X61.811 Y46.038 E24.93483
G1 X61.174 Y45.822 E24.97321
G1 X60.608 Y45.75 E25.00577
G1 X59.96 Y45.795 E25.04283
G1 X59.313 Y45.984 E25.08129
G1 X58.72 Y46.308 E25.11985
G0 F3600 X58.42 Y46.571
G0 X57.913 Y45.992
G0 X57.214 Y46.953
G0 X56.719 Y48.52
G0 X60.036 Y90.496
G0 X60.029 Y90.595
;TYPE:WALL-INNER
G1 F1800 X59.106 Y90.676 E25.17272
G1 X58.398 Y90.972 E25.2165
G1 X57.77 Y91.479 E25.26256
G1 X57.339 Y92.099 E25.30564
G1 X57.083 Y92.863 E25.35161
G1 X57.052 Y93.616 E25.39462
G1 X57.247 Y94.4 E25.44071
G1 X57.626 Y95.051 E25.48369
G1 X58.211 Y95.609 E25.52982
G1 X58.872 Y95.947 E25.57218
G1 X59.585 Y96.103 E25.61383
G1 X60.391 Y96.047 E25.65993
G1 X61.087 Y95.79 E25.70226
G1 X61.686 Y95.367 E25.7441
G1 X62.186 Y94.737 E25.79
G1 X62.474 Y94.04 E25.83303
G1 X62.558 Y93.237 E25.8791
G1 X62.425 Y92.496 E25.92205
G1 X62.067 Y91.774 E25.96804
G1 X61.555 Y91.219 E26.01112
G1 X60.856 Y90.797 E26.05771
G1 X60.029 Y90.595 E26.10628
G0 F3600 X59.979 Y91.252
;TYPE:WALL-OUTER
G1 F1800 X59.263 Y91.315 E26.1473
G1 X58.734 Y91.536 E26.18001
G1 X58.251 Y91.926 E26.21543
G1 X57.926 Y92.394 E26.24794
G1 X57.729 Y92.982 E26.28332
G1 X57.705 Y93.55 E26.31576
G1 X57.855 Y94.153 E26.35122
G1 X58.141 Y94.644 E26.38364
G1 X58.591 Y95.073 E26.41911
G1 X59.093 Y95.33 E26.45129
G1 X59.633 Y95.448 E26.48283
G1 X60.253 Y95.405 E26.51829
G1 X60.782 Y95.21 E26.55046
G1 X61.235 Y94.89 E26.58211
G1 X61.62 Y94.405 E26.61744
G1 X61.837 Y93.879 E26.64991
G1 X61.902 Y93.261 E26.68536
G1 X61.802 Y92.702 E26.71777
G1 X61.526 Y92.146 E26.75318
G1 X61.14 Y91.728 E26.78565
G1 X60.605 Y91.405 E26.82131
G1 X59.979 Y91.252 E26.85808
G0 F3600 X59.581 Y91.287
G0 X59.515 Y90.52
G0 X60.871 Y90.761
G0 X62.099 Y91.752
G0 X62.57 Y93.092
G0 X64.18 Y118.97
G0 X64.25 Y118.9
;TYPE:WALL-INNER
G1 F1800 X95.35 Y118.9 E28.6326
G1 X95.35 Y67.8 E31.5483
G1 X64.25 Y67.8 E33.32283
G1 X64.25 Y118.9 E36.23853
G0 F3600 X64.9 Y118.25
;TYPE:WALL-OUTER
G1 F1800 X94.7 Y118.25 E37.93888
G1 X94.7 Y68.45 E40.7804
G1 X64.9 Y68.45 E42.48075
G1 X64.9 Y118.25 E45.32227
G0 F3600 X65.3 Y118.25
G0 X65.3 Y119.02
G0 X95.378 Y118.928
G0 X127.288 Y117.991
G0 X127.345 Y118.072
;TYPE:WALL-INNER
G1 F1800 X126.729 Y118.613 E45.36905
G1 X126.248 Y119.272 E45.4156
G1 X125.917 Y120.02 E45.46227
G1 X125.758 Y120.823 E45.50898
G1 X125.776 Y121.641 E45.55567
G1 X125.971 Y122.435 E45.60232
G1 X126.332 Y123.168 E45.64894
G1 X126.844 Y123.806 E45.69561
G1 X127.482 Y124.318 E45.74229
G1 X128.215 Y124.679 E45.78891
G1 X129.009 Y124.874 E45.83556
G1 X129.827 Y124.892 E45.88225
G1 X130.63 Y124.733 E45.92896
G1 X131.378 Y124.402 E45.97563
G1 X132.037 Y123.921 E46.02218
G1 X132.578 Y123.305 E46.06896
G1 X132.97 Y122.587 E46.11563
G1 X133.199 Y121.802 E46.16229
G1 X133.252 Y120.986 E46.20895
G1 X133.129 Y120.178 E46.25559
G1 X132.832 Y119.415 E46.3023
G1 X132.377 Y118.734 E46.34903
G1 X131.787 Y118.17 E46.39561
G1 X131.087 Y117.745 E46.44233
G1 X130.321 Y117.485 E46.48849
G1 X129.627 Y117.397 E46.5284
G1 X128.845 Y117.451 E46.57313
G1 X128.063 Y117.68 E46.61962
G1 X127.345 Y118.072 E46.6663
G0 F3600 X127.72 Y118.608
;TYPE:WALL-OUTER
G1 F1800 X127.212 Y119.054 E46.70487
G1 X126.814 Y119.599 E46.74338
G1 X126.541 Y120.217 E46.78193
G1 X126.409 Y120.88 E46.8205
G1 X126.424 Y121.555 E46.85903
G1 X126.585 Y122.211 E46.89757
G1 X126.884 Y122.817 E46.93612
G1 X127.306 Y123.344 E46.97465
G1 X127.833 Y123.766 E47.01317
G1 X128.439 Y124.065 E47.05173
G1 X129.095 Y124.226 E47.09027
G1 X129.77 Y124.241 E47.12879
G1 X130.433 Y124.109 E47.16736
G1 X131.051 Y123.836 E47.20591
G1 X131.596 Y123.438 E47.24442
G1 X132.042 Y122.93 E47.28299
G1 X132.366 Y122.337 E47.32155
G1 X132.555 Y121.689 E47.36006
G1 X132.599 Y121.014 E47.39866
G1 X132.497 Y120.347 E47.43716
G1 X132.252 Y119.717 E47.47573
G1 X131.876 Y119.155 E47.51431
G1 X131.389 Y118.689 E47.55277
G1 X130.811 Y118.338 E47.59136
G1 X130.174 Y118.122 E47.62974
G1 X129.608 Y118.05 E47.66229
G1 X128.96 Y118.095 E47.69935
G1 X128.313 Y118.284 E47.73781
G1 X127.72 Y118.608 E47.77637
G0 F3600 X127.42 Y118.871
G0 X126.913 Y118.292
G0 X125.719 Y90.52
G0 X126.214 Y88.953
G0 X127.288 Y87.691
G0 X127.345 Y87.772
;TYPE:WALL-INNER
G1 F1800 X126.729 Y88.313 E47.82315
G1 X126.248 Y88.972 E47.8697
G1 X125.917 Y89.72 E47.91637
G1 X125.758 Y90.523 E47.96308
G1 X125.776 Y91.341 E48.00977
G1 X125.971 Y92.135 E48.05642
G1 X126.332 Y92.868 E48.10304
G1 X126.844 Y93.506 E48.14972
G1 X127.482 Y94.018 E48.19639
G1 X128.215 Y94.379 E48.24301
G1 X129.009 Y94.574 E48.28966
G1 X129.827 Y94.592 E48.33635
G1 X130.63 Y94.433 E48.38306
G1 X131.378 Y94.102 E48.42973
G1 X132.037 Y93.621 E48.47628
G1 X132.578 Y93.005 E48.52306
G1 X132.97 Y92.287 E48.56974
G1 X133.199 Y91.502 E48.61639
G1 X133.252 Y90.686 E48.66305
G1 X133.129 Y89.878 E48.70969
G1 X132.832 Y89.115 E48.7564
G1 X132.377 Y88.434 E48.80314
G1 X131.787 Y87.87 E48.84971
G1 X131.087 Y87.445 E48.89643
G1 X130.321 Y87.185 E48.94259
G1 X129.627 Y87.097 E48.98251
G1 X128.845 Y87.151 E49.02723
G1 X128.063 Y87.38 E49.07373
G1 X127.345 Y87.772 E49.1204
G0 F3600 X127.72 Y88.308
;TYPE:WALL-OUTER
G1 F1800 X127.212 Y88.754 E49.15897
G1 X126.814 Y89.299 E49.19748
G1 X126.541 Y89.917 E49.23603
G1 X126.409 Y90.58 E49.2746
G1 X126.424 Y91.255 E49.31313
G1 X126.585 Y91.911 E49.35167
G1 X126.884 Y92.517 E49.39023
G1 X127.306 Y93.044 E49.42875
G1 X127.833 Y93.466 E49.46727
G1 X128.439 Y93.765 E49.50583
G1 X129.095 Y93.926 E49.54437
G1 X129.77 Y93.941 E49.58289
G1 X130.433 Y93.809 E49.62147
G1 X131.051 Y93.536 E49.66002
G1 X131.596 Y93.138 E49.69852
G1 X132.042 Y92.63 E49.73709
G1 X132.366 Y92.037 E49.77565
G1 X132.555 Y91.389 E49.81416
G1 X132.599 Y90.714 E49.85276
G1 X132.497 Y90.047 E49.89126
G1 X132.252 Y89.417 E49.92983
G1 X131.876 Y88.855 E49.96841
G1 X131.389 Y88.389 E50.00687
G1 X130.811 Y88.038 E50.04546
G1 X130.174 Y87.822 E50.08384
G1 X129.608 Y87.75 E50.11639
G1 X128.96 Y87.795 E50.15346
G1 X128.313 Y87.984 E50.19192
G1 X127.72 Y88.308 E50.23047
G0 F3600 X127.42 Y88.571
G0 X126.913 Y87.992
G0 X100.036 Y90.496
G0 X100.029 Y90.595
;TYPE:WALL-INNER
G1 F1800 X99.106 Y90.676 E50.28334
G1 X98.398 Y90.972 E50.32713
G1 X97.77 Y91.479 E50.37318
G1 X97.339 Y92.099 E50.41626
G1 X97.083 Y92.863 E50.46224
G1 X97.052 Y93.616 E50.50524
G1 X97.247 Y94.4 E50.55134
G1 X97.626 Y95.051 E50.59432
G1 X98.211 Y95.609 E50.64045
G1 X98.872 Y95.947 E50.68281
G1 X99.585 Y96.103 E50.72445
G1 X100.391 Y96.047 E50.77055
G1 X101.087 Y95.79 E50.81289
G1 X101.686 Y95.367 E50.85473
G1 X102.186 Y94.737 E50.90062
G1 X102.474 Y94.04 E50.94365
G1 X102.558 Y93.237 E50.98972
G1 X102.425 Y92.496 E51.03268
G1 X102.067 Y91.774 E51.07866
G1 X101.555 Y91.219 E51.12174
G1 X100.856 Y90.797 E51.16833
G1 X100.029 Y90.595 E51.21691
G0 F3600 X99.979 Y91.252
;TYPE:WALL-OUTER
G1 F1800 X99.263 Y91.315 E51.25792
G1 X98.734 Y91.536 E51.29063
G1 X98.251 Y91.926 E51.32605
G1 X97.926 Y92.394 E51.35856
G1 X97.729 Y92.982 E51.39395
G1 X97.705 Y93.55 E51.42639
G1 X97.855 Y94.153 E51.46184
G1 X98.141 Y94.644 E51.49426
G1 X98.591 Y95.073 E51.52974
G1 X99.093 Y95.33 E51.56192
G1 X99.633 Y95.448 E51.59345
G1 X100.253 Y95.405 E51.62892
G1 X100.782 Y95.21 E51.66109
G1 X101.235 Y94.89 E51.69273
G1 X101.62 Y94.405 E51.72806
G1 X101.837 Y93.879 E51.76053
G1 X101.902 Y93.261 E51.79599
G1 X101.802 Y92.702 E51.82839
G1 X101.526 Y92.146 E51.86381
G1 X101.14 Y91.728 E51.89627
G1 X100.605 Y91.405 E51.93193
G1 X99.979 Y91.252 E51.9687
G0 F3600 X99.581 Y91.287
G0 X99.515 Y90.52
G0 X99.497 Y71.165
G0 X99.582 Y71.113
;TYPE:WALL-INNER
G1 F1800 X100.123 Y71.946 E52.02538
G1 X100.695 Y72.757 E52.082
G1 X101.302 Y73.543 E52.13867
G1 X101.943 Y74.303 E52.1954
G1 X102.615 Y75.034 E52.25205
G1 X103.316 Y75.735 E52.30862
G1 X104.047 Y76.407 E52.36527
G1 X104.807 Y77.048 E52.422
G1 X105.593 Y77.655 E52.47867
G1 X106.404 Y78.227 E52.53529
G1 X107.237 Y78.768 E52.59197
G1 X108.094 Y79.269 E52.64861
G1 X108.97 Y79.734 E52.7052
G1 X109.866 Y80.163 E52.76188
G1 X110.78 Y80.552 E52.81856
G1 X111.709 Y80.903 E52.87523
G1 X112.652 Y81.215 E52.9319
G1 X113.606 Y81.484 E52.98846
G1 X114.574 Y81.715 E53.04524
G1 X115.548 Y81.903 E53.10184
G1 X116.529 Y82.05 E53.15844
G1 X117.517 Y82.156 E53.21514
G1 X118.509 Y82.219 E53.27186
G1 X119.489 Y82.239 E53.32778
G1 X137.423 Y82.239 E54.35107
