;FLAVOR:Marlin
;TIME:3848
;Filament used: 2.37737m
;Layer height: 0.4
;MINX:63.963
;MINY:53.25
;MINZ:0.52
;MAXX:126.036
;MAXY:116.749
;MAXZ:34.92
;Generated with Cura_SteamEngine 4.1.0
M82 ;absolute extrusion mode
M98 P0:/sys/startprint.g

G92 E0
G92 E0
G10
;LAYER_COUNT:87
;LAYER:0
M107
G0 F3600 X73.99 Y60.246 Z0.52
;TYPE:SKIRT
M220 S50
G11
G1 F1800 X74.493 Y59.652 E0.04441
G1 X75.36 Y58.807 E0.11349
G1 X75.422 Y58.748 E0.11837
G1 X75.701 Y58.487 E0.14017
G1 X77.658 Y56.551 E0.29725
G1 X79.503 Y54.623 E0.44951
G1 X79.597 Y54.524 E0.4573
G1 X80.016 Y54.139 E0.48977
G1 X80.485 Y53.817 E0.52223
G1 X80.995 Y53.564 E0.55471
G1 X81.535 Y53.385 E0.58717
G1 X82.094 Y53.283 E0.61959
G1 X82.423 Y53.261 E0.63841
G1 X82.744 Y53.252 E0.65673
G1 X82.858 Y53.25 E0.66324
G1 X110.051 Y53.25 E2.21483
G1 X110.749 Y53.26 E2.25467
G1 X111.205 Y53.293 E2.28075
G1 X111.69 Y53.355 E2.30865
G1 X112.247 Y53.466 E2.34106
G1 X112.65 Y53.6 E2.36529
G1 X113.098 Y53.775 E2.39273
G1 X113.612 Y54.018 E2.42517
G1 X113.938 Y54.223 E2.44715
G1 X114.313 Y54.484 E2.47322
G1 X114.756 Y54.841 E2.50568
G1 X115.031 Y55.123 E2.52815
G1 X115.371 Y55.507 E2.55742
G1 X115.717 Y55.959 E2.5899
G1 X115.981 Y56.42 E2.62021
G1 X116.235 Y56.942 E2.65333
G1 X116.504 Y57.662 E2.69719
G1 X116.624 Y58.108 E2.72354
G1 X116.635 Y58.15 E2.72602
G1 X117.321 Y60.815 E2.88304
G1 X118.08 Y63.448 E3.03939
G1 X118.907 Y66.045 E3.19491
G1 X119.796 Y68.582 E3.34829
G1 X120.766 Y71.12 E3.50332
G1 X121.809 Y73.63 E3.65841
G1 X122.914 Y76.094 E3.8125
G1 X124.618 Y79.569 E4.03333
G1 X124.897 Y80.111 E4.06811
G1 X124.994 Y80.314 E4.08095
G1 X125.123 Y80.603 E4.09901
G1 X125.167 Y80.704 E4.1053
G1 X125.271 Y80.955 E4.1208
G1 X125.356 Y81.181 E4.13458
G1 X125.465 Y81.496 E4.15359
G1 X125.5 Y81.601 E4.15991
G1 X125.583 Y81.864 E4.17565
G1 X125.645 Y82.08 E4.18847
G1 X125.712 Y82.342 E4.2039
G1 X125.736 Y82.44 E4.20966
G1 X125.805 Y82.741 E4.22728
G1 X125.851 Y82.976 E4.24094
G1 X125.902 Y83.28 E4.25853
G1 X125.921 Y83.403 E4.26563
G1 X125.959 Y83.682 E4.2817
G1 X125.984 Y83.912 E4.2949
G1 X126.01 Y84.243 E4.31384
G1 X126.017 Y84.353 E4.32013
G1 X126.031 Y84.627 E4.33578
G1 X126.036 Y84.897 E4.35119
G1 X126.027 Y85.474 E4.38412
G1 X126.011 Y85.768 E4.40092
G1 X125.979 Y86.13 E4.42166
G1 X125.967 Y86.246 E4.42831
G1 X125.939 Y86.484 E4.44198
G1 X125.905 Y86.714 E4.45525
G1 X125.847 Y87.043 E4.47431
G1 X125.823 Y87.168 E4.48157
G1 X125.767 Y87.436 E4.4972
G1 X125.715 Y87.658 E4.51021
G1 X125.635 Y87.956 E4.52781
G1 X125.602 Y88.07 E4.53458
G1 X125.518 Y88.35 E4.55126
G1 X125.454 Y88.545 E4.56297
G1 X125.361 Y88.806 E4.57878
G1 X125.318 Y88.922 E4.58584
G1 X125.205 Y89.211 E4.60355
G1 X125.11 Y89.433 E4.61733
G1 X124.996 Y89.68 E4.63285
G1 X124.95 Y89.777 E4.63897
G1 X124.445 Y90.799 E4.70402
G1 X124.42 Y90.849 E4.70721
G1 X123.859 Y91.945 E4.77746
G1 X122.694 Y94.392 E4.9321
G1 X121.571 Y96.935 E5.09072
G1 X120.568 Y99.388 E5.24193
G1 X119.614 Y101.934 E5.39707
G1 X118.727 Y104.514 E5.55273
G1 X117.918 Y107.103 E5.7075
G1 X117.183 Y109.714 E5.86227
G1 X116.837 Y111.051 E5.94107
G1 X116.538 Y112.238 E6.01092
G1 X116.327 Y112.859 E6.04834
G1 X116.168 Y113.226 E6.07116
G1 X115.906 Y113.731 E6.10362
G1 X115.737 Y113.985 E6.12103
G1 X115.38 Y114.48 E6.15586
G1 X115.015 Y114.917 E6.18834
G1 X114.542 Y115.339 E6.22451
G1 X114.137 Y115.646 E6.25351
G1 X113.66 Y115.956 E6.28597
G1 X113.248 Y116.156 E6.3121
G1 X112.797 Y116.344 E6.33998
G1 X112.258 Y116.526 E6.37244
G1 X111.419 Y116.652 E6.42085
G1 X110.363 Y116.699 E6.48116
G1 X110.189 Y116.703 E6.4911
G1 X80.017 Y116.749 E8.21267
G1 X79.959 Y116.749 E8.21598
G1 X79.26 Y116.74 E8.25587
G1 X78.817 Y116.71 E8.2812
G1 X78.33 Y116.65 E8.3092
G1 X77.771 Y116.541 E8.3417
G1 X77.336 Y116.397 E8.36784
G1 X76.878 Y116.216 E8.39594
G1 X76.365 Y115.97 E8.42841
G1 X76.04 Y115.764 E8.45036
G1 X75.671 Y115.505 E8.47608
G1 X75.23 Y115.146 E8.50853
G1 X74.962 Y114.871 E8.53044
G1 X74.622 Y114.486 E8.55975
G1 X74.277 Y114.034 E8.59219
G1 X74.012 Y113.568 E8.62278
G1 X73.761 Y113.049 E8.65568
G1 X73.497 Y112.342 E8.69874
G1 X73.389 Y111.942 E8.72238
G1 X73.377 Y111.895 E8.72515
G1 X72.688 Y109.219 E8.88281
G1 X71.939 Y106.614 E9.03747
G1 X71.109 Y104.009 E9.19347
G1 X70.21 Y101.439 E9.34883
G1 X69.26 Y98.953 E9.50068
G1 X68.198 Y96.394 E9.65877
G1 X67.102 Y93.952 E9.8115
G1 X65.891 Y91.442 E9.97051
G1 X65.703 Y91.073 E9.99414
G1 X65.696 Y91.06 E9.99498
G1 X65.069 Y89.817 E10.07442
G1 X64.971 Y89.609 E10.08754
G1 X64.817 Y89.255 E10.10957
G1 X64.711 Y88.985 E10.12612
G1 X64.49 Y88.358 E10.16405
G1 X64.393 Y88.04 E10.18302
G1 X64.262 Y87.541 E10.21246
G1 X64.218 Y87.355 E10.22336
G1 X64.171 Y87.134 E10.23625
G1 X64.125 Y86.88 E10.25098
G1 X64.059 Y86.43 E10.27693
G1 X64.045 Y86.323 E10.28309
G1 X64.017 Y86.089 E10.29654
G1 X63.995 Y85.844 E10.31057
G1 X63.979 Y85.57 E10.32623
G1 X63.974 Y85.466 E10.33218
G1 X63.964 Y85.16 E10.34965
G1 X63.963 Y84.932 E10.36265
G1 X63.972 Y84.553 E10.38429
G1 X63.989 Y84.266 E10.40069
G1 X64.047 Y83.656 E10.43565
G1 X64.097 Y83.3 E10.45617
G1 X64.214 Y82.67 E10.49273
G1 X64.293 Y82.329 E10.5127
G1 X64.446 Y81.776 E10.54544
G1 X64.501 Y81.593 E10.55634
G1 X64.565 Y81.398 E10.56805
G1 X64.648 Y81.169 E10.58195
G1 X64.799 Y80.788 E10.60533
G1 X64.844 Y80.678 E10.61212
G1 X64.928 Y80.483 E10.62423
G1 X65.021 Y80.283 E10.63682
G1 X65.186 Y79.951 E10.65797
G1 X65.246 Y79.835 E10.66542
G1 X65.438 Y79.478 E10.68855
G1 X65.464 Y79.431 E10.69162
G1 X66.686 Y77.229 E10.83531
G1 X67.926 Y74.837 E10.98904
G1 X69.118 Y72.369 E11.14543
G1 X70.217 Y69.919 E11.29864
G1 X71.269 Y67.387 E11.45509
G1 X72.246 Y64.837 E11.6109
G1 X73.076 Y62.465 E11.75429
G1 X73.481 Y61.261 E11.82677
G1 X73.7 Y60.736 E11.85923
G1 X73.99 Y60.246 E11.89172
G0 F3600 X74.62 Y60.569
G1 F1800 X74.982 Y60.153 E11.92318
G1 X75.849 Y59.308 E11.99226
G1 X75.9 Y59.259 E11.9963
G1 X76.213 Y58.967 E12.02072
G1 X78.143 Y57.056 E12.1757
G1 X79.997 Y55.119 E12.32869
G1 X80.105 Y55.005 E12.33765
G1 X80.489 Y54.658 E12.36718
G1 X80.921 Y54.374 E12.39668
G1 X81.392 Y54.161 E12.42617
G1 X81.891 Y54.022 E12.45573
G1 X82.443 Y53.96 E12.48742
G1 X82.764 Y53.951 E12.50575
G1 X82.858 Y53.95 E12.51111
G1 X110.041 Y53.95 E14.06214
G1 X110.739 Y53.96 E14.10197
G1 X111.116 Y53.987 E14.12353
G1 X111.601 Y54.049 E14.15143
G1 X112.107 Y54.154 E14.18092
G1 X112.395 Y54.252 E14.19828
G1 X112.843 Y54.427 E14.22572
G1 X113.309 Y54.651 E14.25522
G1 X113.538 Y54.797 E14.27072
G1 X113.913 Y55.058 E14.29679
G1 X114.313 Y55.386 E14.3263
G1 X114.507 Y55.587 E14.34224
G1 X114.847 Y55.971 E14.37151
G1 X115.159 Y56.384 E14.40104
G1 X115.351 Y56.726 E14.42342
G1 X115.605 Y57.248 E14.45654
G1 X115.828 Y57.844 E14.49285
G1 X115.948 Y58.29 E14.51921
G1 X115.957 Y58.325 E14.52127
G1 X116.647 Y61.006 E14.67923
G1 X117.407 Y63.643 E14.83582
G1 X118.231 Y66.229 E14.99068
G1 X119.15 Y68.853 E15.14932
G1 X120.118 Y71.385 E15.30399
G1 X121.163 Y73.9 E15.45939
G1 X122.278 Y76.387 E15.6149
G1 X124.003 Y79.905 E15.83846
G1 X124.274 Y80.431 E15.87223
G1 X124.355 Y80.6 E15.88292
G1 X124.484 Y80.889 E15.90098
G1 X124.52 Y80.972 E15.90614
G1 X124.624 Y81.223 E15.92164
G1 X124.695 Y81.41 E15.93306
G1 X124.804 Y81.725 E15.95207
G1 X124.833 Y81.812 E15.95731
G1 X124.916 Y82.075 E15.97304
G1 X124.967 Y82.253 E15.98361
G1 X125.034 Y82.515 E15.99904
G1 X125.053 Y82.596 E16.00379
G1 X125.122 Y82.897 E16.02141
G1 X125.161 Y83.092 E16.03275
G1 X125.212 Y83.396 E16.05034
G1 X125.227 Y83.498 E16.05622
G1 X125.265 Y83.777 E16.07229
G1 X125.286 Y83.967 E16.0832
G1 X125.312 Y84.298 E16.10214
G1 X125.318 Y84.389 E16.10735
G1 X125.332 Y84.663 E16.123
G1 X125.336 Y84.886 E16.13573
G1 X125.327 Y85.463 E16.16865
G1 X125.314 Y85.706 E16.18254
G1 X125.282 Y86.068 E16.20327
G1 X125.272 Y86.164 E16.20878
G1 X125.244 Y86.402 E16.22245
G1 X125.216 Y86.593 E16.23347
G1 X125.158 Y86.922 E16.25253
G1 X125.138 Y87.025 E16.25852
G1 X125.082 Y87.293 E16.27414
G1 X125.038 Y87.477 E16.28493
G1 X124.958 Y87.775 E16.30254
G1 X124.932 Y87.869 E16.30811
G1 X124.848 Y88.149 E16.32478
G1 X124.795 Y88.31 E16.33446
G1 X124.702 Y88.571 E16.35027
G1 X124.666 Y88.667 E16.35612
G1 X124.553 Y88.956 E16.37382
G1 X124.475 Y89.14 E16.38522
G1 X124.361 Y89.387 E16.40075
G1 X124.322 Y89.467 E16.40583
G1 X123.817 Y90.489 E16.47087
G1 X123.797 Y90.53 E16.47347
G1 X123.23 Y91.638 E16.54449
G1 X122.048 Y94.122 E16.70145
G1 X120.955 Y96.596 E16.85578
G1 X119.899 Y99.177 E17.0149
G1 X118.96 Y101.682 E17.16754
G1 X118.064 Y104.288 E17.32478
G1 X117.246 Y106.906 E17.48128
G1 X116.516 Y109.498 E17.63493
G1 X116.16 Y110.876 E17.71614
G1 X115.86 Y112.067 E17.78622
G1 X115.685 Y112.581 E17.8172
G1 X115.526 Y112.948 E17.84002
G1 X115.169 Y113.576 E17.88124
G1 X114.812 Y114.071 E17.91606
G1 X114.478 Y114.466 E17.94558
G1 X114.119 Y114.781 E17.97283
G1 X113.714 Y115.088 E18.00183
G1 X113.279 Y115.367 E18.03131
G1 X112.979 Y115.51 E18.05028
G1 X112.528 Y115.698 E18.07816
G1 X112.037 Y115.86 E18.10766
G1 X111.388 Y115.953 E18.14507
G1 X110.332 Y116 E18.20538
G1 X110.188 Y116.003 E18.2136
G1 X80.016 Y116.049 E19.93518
G1 X79.968 Y116.049 E19.93791
G1 X79.269 Y116.04 E19.9778
G1 X78.902 Y116.015 E19.99879
G1 X78.415 Y115.955 E20.02679
G1 X77.908 Y115.852 E20.05631
G1 X77.594 Y115.746 E20.07522
G1 X77.136 Y115.565 E20.10332
G1 X76.671 Y115.338 E20.13284
G1 X76.442 Y115.191 E20.14837
G1 X76.073 Y114.932 E20.17409
G1 X75.674 Y114.603 E20.2036
G1 X75.487 Y114.408 E20.21902
G1 X75.147 Y114.023 E20.24832
G1 X74.836 Y113.609 E20.27787
G1 X74.642 Y113.264 E20.30045
G1 X74.391 Y112.745 E20.33335
G1 X74.173 Y112.159 E20.36902
G1 X74.065 Y111.759 E20.39266
G1 X74.055 Y111.721 E20.39491
G1 X73.36 Y109.02 E20.55404
G1 X72.612 Y106.419 E20.70847
G1 X71.773 Y103.786 E20.86614
G1 X70.872 Y101.212 E21.02175
G1 X69.899 Y98.664 E21.17738
G1 X68.856 Y96.153 E21.33252
G1 X67.724 Y93.63 E21.4903
G1 X66.553 Y91.202 E21.64411
G1 X66.326 Y90.756 E21.67267
G1 X66.321 Y90.745 E21.67336
G1 X65.694 Y89.502 E21.75279
G1 X65.613 Y89.329 E21.76369
G1 X65.459 Y88.975 E21.78572
G1 X65.372 Y88.753 E21.79933
G1 X65.151 Y88.126 E21.83726
G1 X65.07 Y87.863 E21.85296
G1 X64.939 Y87.364 E21.8824
G1 X64.902 Y87.21 E21.89144
G1 X64.855 Y86.989 E21.90433
G1 X64.817 Y86.778 E21.91656
G1 X64.751 Y86.328 E21.94251
G1 X64.74 Y86.24 E21.94757
G1 X64.712 Y86.006 E21.96102
G1 X64.694 Y85.803 E21.97265
G1 X64.678 Y85.529 E21.98831
G1 X64.674 Y85.443 E21.99322
G1 X64.664 Y85.137 E22.01069
G1 X64.663 Y84.948 E22.02147
G1 X64.672 Y84.569 E22.0431
G1 X64.686 Y84.332 E22.05665
G1 X64.744 Y83.722 E22.09161
G1 X64.785 Y83.427 E22.10861
G1 X64.902 Y82.797 E22.14517
G1 X64.967 Y82.516 E22.16163
G1 X65.12 Y81.963 E22.19437
G1 X65.166 Y81.811 E22.20343
G1 X65.23 Y81.616 E22.21514
G1 X65.299 Y81.427 E22.22662
G1 X65.45 Y81.046 E22.25
G1 X65.487 Y80.955 E22.25561
G1 X65.571 Y80.76 E22.26772
G1 X65.648 Y80.594 E22.27816
G1 X65.813 Y80.262 E22.29932
G1 X65.863 Y80.166 E22.30549
G1 X66.055 Y79.809 E22.32862
G1 X66.076 Y79.77 E22.33115
G1 X67.301 Y77.563 E22.47518
G1 X68.552 Y75.151 E22.63021
G1 X69.747 Y72.676 E22.78703
G1 X70.862 Y70.189 E22.94254
G1 X71.933 Y67.612 E23.10178
G1 X72.896 Y65.096 E23.25549
G1 X73.753 Y62.649 E23.40343
G1 X74.145 Y61.484 E23.47357
G1 X74.347 Y61.008 E23.50307
G1 X74.62 Y60.569 E23.53257
G10
;MESH:acpwrpanelshield.stl
G0 F3600 X76.42 Y72.436
G0 X78.368 Y73.243
G0 X77.647 Y83.914
G0 X77.555 Y83.951
;TYPE:WALL-INNER
G11
G1 F1800 X77.176 Y83.302 E23.57545
G1 X76.59 Y82.743 E23.62166
G1 X75.931 Y82.403 E23.66397
G1 X75.218 Y82.248 E23.70561
G1 X74.411 Y82.303 E23.75176
G1 X73.714 Y82.559 E23.79413
G1 X73.127 Y82.976 E23.83521
G1 X72.666 Y83.53 E23.87633
G1 X72.366 Y84.184 E23.91739
G1 X72.244 Y84.892 E23.95838
G1 X72.31 Y85.62 E24.00009
G1 X72.605 Y86.373 E24.04624
G1 X73.064 Y86.967 E24.08907
G1 X73.716 Y87.445 E24.1352
G1 X74.403 Y87.693 E24.17687
G1 X75.015 Y87.758 E24.21199
G1 X75.736 Y87.661 E24.2535
G1 X76.475 Y87.334 E24.29961
G1 X77.041 Y86.856 E24.34188
G1 X77.46 Y86.254 E24.38373
G1 X77.717 Y85.487 E24.42989
G1 X77.748 Y84.739 E24.4726
G1 X77.555 Y83.951 E24.51889
G0 F3600 X76.946 Y84.197
;TYPE:WALL-OUTER
G1 F1800 X76.661 Y83.709 E24.55114
G1 X76.209 Y83.278 E24.58678
G1 X75.709 Y83.02 E24.61888
G1 X75.17 Y82.903 E24.65035
G1 X74.548 Y82.945 E24.68592
G1 X74.02 Y83.139 E24.71802
G1 X73.572 Y83.457 E24.74937
G1 X73.221 Y83.879 E24.78068
G1 X72.992 Y84.378 E24.81201
G1 X72.899 Y84.918 E24.84328
G1 X72.949 Y85.469 E24.87485
G1 X73.176 Y86.049 E24.91038
G1 X73.522 Y86.497 E24.94268
G1 X74.025 Y86.865 E24.97824
G1 X74.55 Y87.055 E25.0101
G1 X75.006 Y87.103 E25.03626
G1 X75.558 Y87.029 E25.06804
G1 X76.127 Y86.777 E25.10355
G1 X76.556 Y86.415 E25.13558
G1 X76.873 Y85.959 E25.16727
G1 X77.071 Y85.368 E25.20283
G1 X77.095 Y84.804 E25.23504
G1 X76.946 Y84.197 E25.2707
G0 F3600 X76.745 Y83.852
G0 X77.41 Y83.465
G0 X78.611 Y86.268
G0 X78.622 Y111.378
G0 X111.378 Y111.378
G0 X111.39 Y83.844
G0 X113.697 Y82.524
G0 X115.22 Y82.209
G0 X116.613 Y82.711
G0 X117.647 Y83.914
G0 X117.555 Y83.951
;TYPE:WALL-INNER
G1 F1800 X117.176 Y83.302 E25.31359
G1 X116.59 Y82.743 E25.3598
G1 X115.931 Y82.403 E25.40211
G1 X115.218 Y82.248 E25.44374
G1 X114.411 Y82.303 E25.48989
G1 X113.715 Y82.559 E25.53221
G1 X113.126 Y82.976 E25.57339
G1 X112.665 Y83.53 E25.61451
G1 X112.366 Y84.185 E25.65559
G1 X112.244 Y84.892 E25.69653
G1 X112.31 Y85.62 E25.73824
G1 X112.605 Y86.373 E25.78438
G1 X113.058 Y86.959 E25.82664
G1 X113.64 Y87.402 E25.86838
G1 X114.382 Y87.689 E25.91377
G1 X115.013 Y87.758 E25.94999
G1 X115.736 Y87.661 E25.99161
G1 X116.475 Y87.334 E26.03772
G1 X117.041 Y86.856 E26.08
G1 X117.46 Y86.254 E26.12185
G1 X117.717 Y85.487 E26.168
G1 X117.748 Y84.739 E26.21072
G1 X117.555 Y83.951 E26.25701
G0 F3600 X116.946 Y84.197
;TYPE:WALL-OUTER
G1 F1800 X116.661 Y83.709 E26.28925
G1 X116.209 Y83.278 E26.32489
G1 X115.709 Y83.02 E26.35699
G1 X115.17 Y82.903 E26.38846
G1 X114.548 Y82.945 E26.42404
G1 X114.02 Y83.139 E26.45613
G1 X113.571 Y83.457 E26.48753
G1 X113.22 Y83.879 E26.51885
G1 X112.992 Y84.378 E26.55015
G1 X112.899 Y84.918 E26.58141
G1 X112.949 Y85.469 E26.61298
G1 X113.176 Y86.049 E26.64852
G1 X113.52 Y86.494 E26.68061
G1 X113.96 Y86.829 E26.71217
G1 X114.537 Y87.052 E26.74746
G1 X115.005 Y87.103 E26.77433
G1 X115.558 Y87.029 E26.80616
G1 X116.127 Y86.777 E26.84167
G1 X116.556 Y86.415 E26.8737
G1 X116.873 Y85.959 E26.90539
G1 X117.071 Y85.368 E26.94095
G1 X117.095 Y84.804 E26.97316
G1 X116.946 Y84.197 E27.00882
G0 F3600 X116.745 Y83.852
G0 X117.41 Y83.465
G0 X117.787 Y84.736
G0 X117.495 Y86.271
G0 X116.496 Y87.367
G0 X115.013 Y87.797
G0 X111.381 Y87.678
G0 X111.378 Y111.378
G0 X78.622 Y111.378
G0 X78.65 Y110.633
;TYPE:WALL-INNER
G1 F1800 X78.65 Y110.946 E27.02668
G1 X78.65 Y111.17 E27.03946
G1 X78.65 Y111.35 E27.04973
G1 X78.831 Y111.35 E27.05552
G1 X79.055 Y111.35 E27.06376
G1 X79.374 Y111.35 E27.08197
G1 X110.947 Y111.35 E28.88348
G1 X111.138 Y111.35 E28.89438
G1 X111.333 Y111.35 E28.9055
G1 X111.35 Y111.35 E28.90647
G1 X111.35 Y111.201 E28.90937
G1 X111.35 Y110.983 E28.91788
G1 X111.35 Y110.693 E28.93222
G1 X111.35 Y96.764 E29.72699
G1 X111.35 Y96.283 E29.75443
G1 X111.35 Y73.716 E31.04207
G1 X111.35 Y73.235 E31.06952
G1 X111.35 Y59.367 E31.86081
G1 X111.35 Y59.054 E31.87867
G1 X111.35 Y58.83 E31.89145
G1 X111.35 Y58.65 E31.90172
G1 X111.169 Y58.65 E31.9075
G1 X110.945 Y58.65 E31.91575
G1 X110.625 Y58.65 E31.93401
G1 X83.578 Y58.65 E33.47728
G1 X83.578 Y58.35 E33.49439
G1 X110.625 Y58.35 E34.15674
G1 X110.945 Y58.392 E34.16414
G1 X111.169 Y58.484 E34.16887
G1 X111.364 Y58.634 E34.17292
G1 X111.515 Y58.83 E34.17701
G1 X111.608 Y59.054 E34.18173
G1 X111.649 Y59.367 E34.18896
G1 X111.65 Y73.235 E34.528
G1 X111.99 Y73.575 E34.5482
G1 X119.182 Y80.768 E35.12858
G1 X119.546 Y81.163 E35.15923
G1 X119.843 Y81.545 E35.18684
G1 X120.125 Y81.982 E35.21651
G1 X120.364 Y82.43 E35.24549
G1 X120.561 Y82.889 E35.27399
G1 X120.722 Y83.375 E35.3032
G1 X120.838 Y83.86 E35.33165
G1 X120.914 Y84.359 E35.36045
G1 X120.946 Y84.867 E35.3895
G1 X120.938 Y85.367 E35.41803
G1 X120.884 Y85.882 E35.44758
G1 X120.789 Y86.373 E35.47611
G1 X120.651 Y86.861 E35.50505
