;FLAVOR:Marlin
;TIME:11246
;Filament used: 6.80955m
;Layer height: 0.4
;MINX:45.989
;MINY:35.839
;MINZ:0.52
;MAXX:144.011
;MAXY:134.161
;MAXZ:23.72
;Generated with Cura_SteamEngine 4.1.0
M82 ;absolute extrusion mode
M98 P0:/sys/startprint.g

G92 E0
G92 E0
G10
;LAYER_COUNT:59
;LAYER:0
M107
G0 F3600 X47.12 Y37.719 Z0.52
;TYPE:SKIRT
M220 S50
G11
G1 F1800 X47.468 Y37.33 E0.02978
G1 X47.842 Y36.973 E0.05928
G1 X48.28 Y36.668 E0.08974
G1 X48.708 Y36.419 E0.11799
G1 X49.174 Y36.195 E0.14749
G1 X49.573 Y36.067 E0.1714
G1 X49.775 Y36.016 E0.18329
G1 X49.91 Y35.985 E0.19119
G1 X50.207 Y35.923 E0.2085
G1 X50.784 Y35.854 E0.24166
G1 X51.001 Y35.847 E0.25405
G1 X51.081 Y35.845 E0.25862
G1 X51.321 Y35.843 E0.27231
G1 X51.348 Y35.843 E0.27385
G1 X64.966 Y35.839 E1.05088
G1 X96.341 Y35.839 E2.84109
G1 X97.039 Y35.849 E2.88092
G1 X97.408 Y35.875 E2.90203
G1 X97.639 Y35.904 E2.91531
G1 X97.747 Y35.919 E2.92154
G1 X97.955 Y35.952 E2.93355
G1 X98.458 Y36.073 E2.96307
G1 X98.781 Y36.196 E2.98279
G1 X99.246 Y36.401 E3.01179
G1 X99.702 Y36.645 E3.0413
G1 X100.13 Y36.97 E3.07196
G1 X100.522 Y37.321 E3.10199
G1 X100.879 Y37.695 E3.13149
G1 X101.197 Y38.157 E3.16349
G1 X101.765 Y39.153 E3.22891
G1 X101.799 Y39.214 E3.2329
G1 X102.483 Y40.473 E3.31465
G1 X103.859 Y42.84 E3.47087
G1 X105.28 Y45.133 E3.62479
G1 X106.808 Y47.452 E3.78325
G1 X108.364 Y49.672 E3.93794
G1 X109.995 Y51.867 E4.09397
G1 X111.688 Y54.014 E4.24998
G1 X113.444 Y56.115 E4.40622
G1 X115.258 Y58.166 E4.56245
G1 X117.131 Y60.166 E4.7188
G1 X119.015 Y62.066 E4.87147
G1 X121.043 Y64.002 E5.03145
G1 X123.057 Y65.817 E5.18615
G1 X125.145 Y67.594 E5.34259
G1 X127.257 Y69.291 E5.49718
G1 X129.444 Y70.949 E5.65377
G1 X131.672 Y72.539 E5.80995
G1 X133.928 Y74.057 E5.9651
G1 X136.267 Y75.535 E6.12298
G1 X138.577 Y76.906 E6.27625
G1 X141.022 Y78.264 E6.43583
G1 X141.195 Y78.355 E6.44698
G1 X141.257 Y78.389 E6.45102
G1 X141.532 Y78.542 E6.46897
G1 X142.153 Y78.987 E6.51257
G1 X142.537 Y79.335 E6.54214
G1 X142.892 Y79.711 E6.57164
G1 X143.183 Y80.133 E6.60089
G1 X143.429 Y80.556 E6.62881
G1 X143.654 Y81.022 E6.65834
G1 X143.776 Y81.401 E6.68106
G1 X143.829 Y81.606 E6.69314
G1 X143.868 Y81.771 E6.70281
G1 X143.929 Y82.068 E6.72011
G1 X143.995 Y82.619 E6.75178
G1 X144.003 Y82.836 E6.76417
G1 X144.005 Y82.931 E6.76959
G1 X144.007 Y83.171 E6.78328
G1 X144.007 Y83.198 E6.78482
G1 X144.011 Y96.191 E7.52619
G1 X144.011 Y128.491 E9.36918
G1 X144.001 Y129.189 E9.40901
G1 X143.975 Y129.558 E9.43012
G1 X143.946 Y129.789 E9.4434
G1 X143.93 Y129.899 E9.44975
G1 X143.897 Y130.106 E9.46171
G1 X143.777 Y130.609 E9.49121
G1 X143.656 Y130.928 E9.51068
G1 X143.455 Y131.385 E9.53917
G1 X143.21 Y131.841 E9.5687
G1 X142.896 Y132.257 E9.59844
G1 X142.541 Y132.658 E9.629
G1 X142.17 Y133.017 E9.65846
G1 X141.718 Y133.332 E9.68989
G1 X141.292 Y133.58 E9.71802
G1 X140.827 Y133.805 E9.74749
G1 X140.427 Y133.933 E9.77146
G1 X140.225 Y133.984 E9.78334
G1 X140.09 Y134.015 E9.79125
G1 X139.793 Y134.077 E9.80856
G1 X139.217 Y134.146 E9.84166
G1 X139.001 Y134.153 E9.85399
G1 X138.92 Y134.155 E9.85861
G1 X138.682 Y134.157 E9.8722
G1 X138.655 Y134.157 E9.87374
G1 X114.579 Y134.161 E11.24748
G1 X51.66 Y134.161 E14.83756
G1 X51.023 Y134.152 E14.87391
G1 X50.63 Y134.123 E14.89639
G1 X50.124 Y134.056 E14.92551
G1 X49.618 Y133.949 E14.95503
G1 X49.364 Y133.863 E14.97033
G1 X49.132 Y133.774 E14.9845
G1 X48.897 Y133.673 E14.9991
G1 X48.686 Y133.573 E15.01242
G1 X48.237 Y133.316 E15.04194
G1 X47.946 Y133.094 E15.06283
G1 X47.645 Y132.837 E15.08541
G1 X47.216 Y132.396 E15.12051
G1 X47.038 Y132.176 E15.13666
G1 X46.761 Y131.779 E15.16428
G1 X46.612 Y131.528 E15.18094
G1 X46.383 Y131.064 E15.21046
G1 X46.262 Y130.704 E15.23213
G1 X46.129 Y130.219 E15.26083
G1 X46.031 Y129.711 E15.29035
G1 X46.011 Y129.396 E15.30836
G1 X45.999 Y128.754 E15.34499
G1 X45.998 Y128.696 E15.3483
G1 X45.989 Y123.079 E15.6688
G1 X45.989 Y123.074 E15.66909
G1 X45.99 Y62.185 E19.14334
G1 X45.989 Y41.56 E20.32017
G1 X45.989 Y41.512 E20.32291
G1 X45.999 Y40.809 E20.36303
G1 X46.026 Y40.435 E20.38442
G1 X46.057 Y40.191 E20.39846
G1 X46.072 Y40.082 E20.40473
G1 X46.103 Y39.889 E20.41589
G1 X46.225 Y39.386 E20.44542
G1 X46.346 Y39.068 E20.46483
G1 X46.552 Y38.601 E20.49396
G1 X46.797 Y38.145 E20.52349
G1 X47.12 Y37.719 E20.554
G10
;MESH:acpwrpanel_4mmthick.stl
G0 F3600 X49.988 Y38.517
G0 X51.005 Y40.262
G0 X86.788 Y45.691
G0 X86.845 Y45.772
;TYPE:WALL-INNER
G11
G1 F1800 X86.229 Y46.313 E20.60078
G1 X85.748 Y46.972 E20.64733
G1 X85.417 Y47.72 E20.694
G1 X85.258 Y48.523 E20.74071
G1 X85.276 Y49.341 E20.78739
G1 X85.471 Y50.135 E20.83405
G1 X85.832 Y50.868 E20.88067
G1 X86.344 Y51.506 E20.92734
G1 X86.982 Y52.018 E20.97402
G1 X87.715 Y52.379 E21.02064
G1 X88.509 Y52.574 E21.06729
G1 X89.327 Y52.592 E21.11398
G1 X90.13 Y52.433 E21.16068
G1 X90.878 Y52.102 E21.20736
G1 X91.537 Y51.621 E21.25391
G1 X92.078 Y51.005 E21.30069
G1 X92.47 Y50.287 E21.34736
G1 X92.699 Y49.502 E21.39402
G1 X92.752 Y48.686 E21.44068
G1 X92.629 Y47.878 E21.48731
G1 X92.332 Y47.115 E21.53403
G1 X91.877 Y46.434 E21.58076
G1 X91.287 Y45.87 E21.62734
G1 X90.587 Y45.445 E21.67406
G1 X89.822 Y45.186 E21.72015
G1 X89.141 Y45.098 E21.75933
G1 X88.347 Y45.151 E21.80473
G1 X87.563 Y45.38 E21.85133
G1 X86.845 Y45.772 E21.89801
G0 F3600 X87.22 Y46.308
;TYPE:WALL-OUTER
G1 F1800 X86.712 Y46.754 E21.93658
G1 X86.314 Y47.299 E21.97509
G1 X86.041 Y47.917 E22.01364
G1 X85.909 Y48.58 E22.05221
G1 X85.924 Y49.255 E22.09073
G1 X86.085 Y49.911 E22.12928
G1 X86.384 Y50.517 E22.16783
G1 X86.806 Y51.044 E22.20636
G1 X87.333 Y51.466 E22.24488
G1 X87.939 Y51.765 E22.28344
G1 X88.595 Y51.926 E22.32198
G1 X89.27 Y51.941 E22.3605
G1 X89.933 Y51.809 E22.39907
G1 X90.551 Y51.536 E22.43762
G1 X91.096 Y51.138 E22.47613
G1 X91.542 Y50.63 E22.5147
G1 X91.866 Y50.037 E22.55326
G1 X92.055 Y49.389 E22.59177
G1 X92.099 Y48.714 E22.63037
G1 X91.997 Y48.047 E22.66887
G1 X91.752 Y47.417 E22.70744
G1 X91.376 Y46.855 E22.74602
G1 X90.889 Y46.389 E22.78448
G1 X90.311 Y46.038 E22.82307
G1 X89.675 Y45.822 E22.86139
G1 X89.121 Y45.751 E22.89326
G1 X88.461 Y45.795 E22.931
G1 X87.813 Y45.984 E22.96952
G1 X87.22 Y46.308 E23.00807
G0 F3600 X86.92 Y46.571
G0 X86.413 Y45.992
G0 X59.142 Y45.059
G0 X57.893 Y45.242
G0 X56.788 Y45.691
G0 X56.845 Y45.772
;TYPE:WALL-INNER
G1 F1800 X56.229 Y46.313 E23.05485
G1 X55.748 Y46.972 E23.1014
G1 X55.417 Y47.72 E23.14808
G1 X55.258 Y48.523 E23.19478
G1 X55.276 Y49.341 E23.24147
G1 X55.471 Y50.135 E23.28812
G1 X55.832 Y50.868 E23.33474
G1 X56.344 Y51.506 E23.38142
G1 X56.982 Y52.018 E23.42809
G1 X57.715 Y52.379 E23.47472
G1 X58.509 Y52.574 E23.52137
G1 X59.327 Y52.592 E23.56805
G1 X60.13 Y52.433 E23.61476
G1 X60.878 Y52.102 E23.66143
G1 X61.537 Y51.621 E23.70798
G1 X62.078 Y51.005 E23.75476
G1 X62.47 Y50.287 E23.80144
G1 X62.699 Y49.502 E23.8481
G1 X62.752 Y48.686 E23.89476
G1 X62.629 Y47.878 E23.94139
G1 X62.332 Y47.115 E23.98811
G1 X61.877 Y46.434 E24.03484
G1 X61.287 Y45.87 E24.08141
G1 X60.587 Y45.445 E24.12814
G1 X59.822 Y45.186 E24.17422
G1 X59.141 Y45.098 E24.2134
G1 X58.347 Y45.151 E24.25881
G1 X57.563 Y45.38 E24.30541
G1 X56.845 Y45.772 E24.35209
G0 F3600 X57.22 Y46.308
;TYPE:WALL-OUTER
G1 F1800 X56.712 Y46.754 E24.39066
G1 X56.314 Y47.299 E24.42916
G1 X56.041 Y47.917 E24.46771
G1 X55.909 Y48.58 E24.50629
G1 X55.924 Y49.255 E24.54481
G1 X56.085 Y49.911 E24.58335
G1 X56.384 Y50.517 E24.62191
G1 X56.806 Y51.044 E24.66043
G1 X57.333 Y51.466 E24.69895
G1 X57.939 Y51.765 E24.73751
G1 X58.595 Y51.926 E24.77605
G1 X59.27 Y51.941 E24.81458
G1 X59.933 Y51.809 E24.85315
G1 X60.551 Y51.536 E24.8917
G1 X61.096 Y51.138 E24.93021
G1 X61.542 Y50.63 E24.96878
G1 X61.866 Y50.037 E25.00733
G1 X62.055 Y49.389 E25.04585
G1 X62.099 Y48.714 E25.08444
G1 X61.997 Y48.047 E25.12295
G1 X61.752 Y47.417 E25.16151
G1 X61.376 Y46.855 E25.2001
G1 X60.889 Y46.389 E25.23856
G1 X60.311 Y46.038 E25.27714
G1 X59.675 Y45.822 E25.31547
G1 X59.121 Y45.751 E25.34734
G1 X58.461 Y45.795 E25.38508
G1 X57.813 Y45.984 E25.42359
G1 X57.22 Y46.308 E25.46215
G0 F3600 X56.92 Y46.571
G0 X56.413 Y45.992
G0 X55.714 Y46.953
G0 X55.219 Y48.52
G0 X58.771 Y90.585
G0 X58.795 Y90.681
;TYPE:WALL-INNER
G1 F1800 X58.115 Y90.964 E25.50418
G1 X57.544 Y91.405 E25.54534
G1 X57.108 Y91.976 E25.58633
G1 X56.833 Y92.642 E25.62745
G1 X56.741 Y93.358 E25.66864
G1 X56.837 Y94.07 E25.70963
G1 X57.114 Y94.736 E25.75079
G1 X57.555 Y95.306 E25.79191
G1 X58.126 Y95.742 E25.8329
G1 X58.792 Y96.017 E25.87401
G1 X59.508 Y96.109 E25.9152
G1 X60.22 Y96.013 E25.9562
G1 X60.886 Y95.736 E25.99735
G1 X61.456 Y95.295 E26.03848
G1 X61.892 Y94.724 E26.07947
G1 X62.167 Y94.058 E26.12058
G1 X62.259 Y93.342 E26.16177
G1 X62.163 Y92.63 E26.20276
G1 X61.886 Y91.964 E26.24392
G1 X61.445 Y91.394 E26.28504
G1 X60.873 Y90.957 E26.32611
G1 X60.217 Y90.688 E26.36657
G1 X59.59 Y90.594 E26.40275
G1 X58.795 Y90.681 E26.44838
G0 F3600 X58.959 Y91.317
;TYPE:WALL-OUTER
G1 F1800 X58.444 Y91.531 E26.4802
G1 X58.009 Y91.867 E26.51156
G1 X57.676 Y92.303 E26.54287
G1 X57.467 Y92.81 E26.57416
G1 X57.397 Y93.356 E26.60556
G1 X57.47 Y93.899 E26.63683
G1 X57.681 Y94.407 E26.66821
G1 X58.017 Y94.841 E26.69953
G1 X58.453 Y95.174 E26.73083
G1 X58.96 Y95.383 E26.76212
G1 X59.506 Y95.453 E26.79353
G1 X60.049 Y95.38 E26.8248
G1 X60.557 Y95.169 E26.85618
G1 X60.991 Y94.833 E26.8875
G1 X61.324 Y94.397 E26.9188
G1 X61.533 Y93.89 E26.95009
G1 X61.603 Y93.344 E26.9815
G1 X61.53 Y92.801 E27.01276
G1 X61.319 Y92.293 E27.04415
G1 X60.983 Y91.859 E27.07547
G1 X60.547 Y91.526 E27.10677
G1 X60.043 Y91.319 E27.13786
G1 X59.577 Y91.249 E27.16475
G1 X58.959 Y91.317 E27.20022
G0 F3600 X58.59 Y91.47
G0 X58.296 Y90.759
G0 X57.074 Y91.957
G0 X56.701 Y93.358
G0 X63.88 Y118.97
G0 X63.95 Y118.9
;TYPE:WALL-INNER
G1 F1800 X95.05 Y118.9 E28.97475
G1 X95.05 Y67.8 E31.89045
G1 X63.95 Y67.8 E33.66497
G1 X63.95 Y118.9 E36.58067
G0 F3600 X64.6 Y118.25
;TYPE:WALL-OUTER
G1 F1800 X94.4 Y118.25 E38.28102
G1 X94.4 Y68.45 E41.12254
G1 X64.6 Y68.45 E42.82289
G1 X64.6 Y118.25 E45.66441
G0 F3600 X65 Y118.25
G0 X65 Y119.02
G0 X95.078 Y118.928
G0 X128.788 Y117.991
G0 X128.845 Y118.072
;TYPE:WALL-INNER
G1 F1800 X128.229 Y118.613 E45.71119
G1 X127.748 Y119.272 E45.75775
G1 X127.417 Y120.02 E45.80442
G1 X127.258 Y120.823 E45.85113
G1 X127.276 Y121.641 E45.89781
G1 X127.471 Y122.435 E45.94446
G1 X127.832 Y123.168 E45.99108
G1 X128.344 Y123.806 E46.03776
G1 X128.982 Y124.318 E46.08444
G1 X129.715 Y124.679 E46.13106
G1 X130.509 Y124.874 E46.17771
G1 X131.327 Y124.892 E46.22439
G1 X132.13 Y124.733 E46.2711
G1 X132.878 Y124.402 E46.31777
G1 X133.537 Y123.921 E46.36432
G1 X134.078 Y123.305 E46.4111
G1 X134.47 Y122.587 E46.45778
G1 X134.699 Y121.802 E46.50444
G1 X134.752 Y120.986 E46.5511
G1 X134.629 Y120.178 E46.59773
G1 X134.332 Y119.415 E46.64445
G1 X133.877 Y118.734 E46.69118
G1 X133.287 Y118.17 E46.73775
G1 X132.587 Y117.745 E46.78448
G1 X131.822 Y117.486 E46.83056
G1 X131.141 Y117.398 E46.86974
G1 X130.347 Y117.451 E46.91515
G1 X129.563 Y117.68 E46.96175
G1 X128.845 Y118.072 E47.00843
G0 F3600 X129.22 Y118.608
;TYPE:WALL-OUTER
G1 F1800 X128.712 Y119.054 E47.047
G1 X128.314 Y119.599 E47.08551
G1 X128.041 Y120.217 E47.12405
G1 X127.909 Y120.88 E47.16263
G1 X127.924 Y121.555 E47.20115
G1 X128.085 Y122.211 E47.23969
G1 X128.384 Y122.817 E47.27825
G1 X128.806 Y123.344 E47.31677
G1 X129.333 Y123.766 E47.3553
G1 X129.939 Y124.065 E47.39385
G1 X130.595 Y124.226 E47.43239
G1 X131.27 Y124.241 E47.47092
G1 X131.933 Y124.109 E47.50949
G1 X132.551 Y123.836 E47.54804
G1 X133.096 Y123.438 E47.58655
G1 X133.542 Y122.93 E47.62512
G1 X133.866 Y122.337 E47.66367
G1 X134.055 Y121.689 E47.70219
G1 X134.099 Y121.014 E47.74079
G1 X133.997 Y120.347 E47.77929
G1 X133.752 Y119.717 E47.81786
G1 X133.376 Y119.155 E47.85644
G1 X132.889 Y118.689 E47.8949
G1 X132.311 Y118.338 E47.93348
G1 X131.675 Y118.122 E47.97181
G1 X131.121 Y118.051 E48.00368
G1 X130.461 Y118.095 E48.04142
G1 X129.813 Y118.284 E48.07993
G1 X129.22 Y118.608 E48.11849
G0 F3600 X128.92 Y118.871
G0 X128.413 Y118.292
G0 X127.219 Y90.52
G0 X127.714 Y88.953
G0 X128.788 Y87.691
G0 X128.845 Y87.772
;TYPE:WALL-INNER
G1 F1800 X128.229 Y88.313 E48.16527
G1 X127.748 Y88.972 E48.21182
G1 X127.417 Y89.72 E48.25849
G1 X127.258 Y90.523 E48.3052
G1 X127.276 Y91.341 E48.35189
G1 X127.471 Y92.135 E48.39854
G1 X127.832 Y92.868 E48.44516
G1 X128.344 Y93.506 E48.49183
G1 X128.982 Y94.018 E48.53851
G1 X129.715 Y94.379 E48.58513
G1 X130.509 Y94.574 E48.63178
G1 X131.327 Y94.592 E48.67847
G1 X132.13 Y94.433 E48.72518
G1 X132.878 Y94.102 E48.77185
G1 X133.537 Y93.621 E48.8184
G1 X134.078 Y93.005 E48.86518
G1 X134.47 Y92.287 E48.91186
G1 X134.699 Y91.502 E48.95851
G1 X134.752 Y90.686 E49.00517
G1 X134.629 Y89.878 E49.05181
G1 X134.332 Y89.115 E49.09852
G1 X133.877 Y88.434 E49.14526
G1 X133.287 Y87.87 E49.19183
G1 X132.587 Y87.445 E49.23855
G1 X131.822 Y87.186 E49.28464
G1 X131.141 Y87.098 E49.32382
G1 X130.347 Y87.151 E49.36922
G1 X129.563 Y87.38 E49.41583
G1 X128.845 Y87.772 E49.4625
G0 F3600 X129.22 Y88.308
;TYPE:WALL-OUTER
G1 F1800 X128.712 Y88.754 E49.50107
G1 X128.314 Y89.299 E49.53958
G1 X128.041 Y89.917 E49.57813
G1 X127.909 Y90.58 E49.6167
G1 X127.924 Y91.255 E49.65523
G1 X128.085 Y91.911 E49.69377
G1 X128.384 Y92.517 E49.73233
G1 X128.806 Y93.044 E49.77085
G1 X129.333 Y93.466 E49.80937
G1 X129.939 Y93.765 E49.84793
G1 X130.595 Y93.926 E49.88647
G1 X131.27 Y93.941 E49.92499
G1 X131.933 Y93.809 E49.96357
G1 X132.551 Y93.536 E50.00212
G1 X133.096 Y93.138 E50.04062
G1 X133.542 Y92.63 E50.07919
G1 X133.866 Y92.037 E50.11775
G1 X134.055 Y91.389 E50.15627
G1 X134.099 Y90.714 E50.19486
G1 X133.997 Y90.047 E50.23336
G1 X133.752 Y89.417 E50.27193
G1 X133.376 Y88.855 E50.31051
G1 X132.889 Y88.389 E50.34897
G1 X132.311 Y88.038 E50.38756
G1 X131.675 Y87.822 E50.42588
G1 X131.121 Y87.751 E50.45775
G1 X130.461 Y87.795 E50.49549
G1 X129.813 Y87.984 E50.53401
G1 X129.22 Y88.308 E50.57257
G0 F3600 X128.92 Y88.571
G0 X128.413 Y87.992
G0 X98.771 Y90.585
G0 X98.795 Y90.681
;TYPE:WALL-INNER
G1 F1800 X98.115 Y90.964 E50.61459
G1 X97.544 Y91.405 E50.65576
G1 X97.108 Y91.976 E50.69675
G1 X96.833 Y92.642 E50.73786
G1 X96.741 Y93.358 E50.77905
G1 X96.837 Y94.07 E50.82005
G1 X97.114 Y94.736 E50.8612
G1 X97.555 Y95.306 E50.90233
G1 X98.126 Y95.742 E50.94332
G1 X98.792 Y96.017 E50.98443
G1 X99.508 Y96.109 E51.02562
G1 X100.22 Y96.013 E51.06661
G1 X100.886 Y95.736 E51.10777
G1 X101.456 Y95.295 E51.14889
G1 X101.892 Y94.724 E51.18988
G1 X102.167 Y94.058 E51.231
G1 X102.259 Y93.342 E51.27219
G1 X102.163 Y92.63 E51.31318
G1 X101.886 Y91.964 E51.35434
G1 X101.445 Y91.394 E51.39546
G1 X100.873 Y90.957 E51.43653
G1 X100.217 Y90.688 E51.47699
G1 X99.59 Y90.594 E51.51316
G1 X98.795 Y90.681 E51.55879
G0 F3600 X98.959 Y91.317
;TYPE:WALL-OUTER
G1 F1800 X98.444 Y91.531 E51.59062
G1 X98.009 Y91.867 E51.62198
G1 X97.676 Y92.303 E51.65328
G1 X97.467 Y92.81 E51.68457
G1 X97.397 Y93.356 E51.71598
G1 X97.47 Y93.899 E51.74724
G1 X97.681 Y94.407 E51.77863
G1 X98.017 Y94.841 E51.80995
G1 X98.453 Y95.174 E51.84125
G1 X98.96 Y95.383 E51.87254
G1 X99.506 Y95.453 E51.90395
G1 X100.049 Y95.38 E51.93521
G1 X100.557 Y95.169 E51.9666
G1 X100.991 Y94.833 E51.99792
G1 X101.324 Y94.397 E52.02922
G1 X101.533 Y93.89 E52.06051
G1 X101.603 Y93.344 E52.09192
G1 X101.53 Y92.801 E52.12318
G1 X101.319 Y92.293 E52.15457
G1 X100.983 Y91.859 E52.18588
G1 X100.547 Y91.526 E52.21719
G1 X100.043 Y91.319 E52.24828
G1 X99.577 Y91.249 E52.27516
G1 X98.959 Y91.317 E52.31064
G0 F3600 X98.59 Y91.47
G0 X98.296 Y90.759
G0 X100.997 Y71.165
G0 X101.082 Y71.113
;TYPE:WALL-INNER
G1 F1800 X101.623 Y71.946 E52.36731
G1 X102.195 Y72.757 E52.42394
G1 X102.802 Y73.543 E52.48061
G1 X103.443 Y74.303 E52.53733
G1 X104.115 Y75.034 E52.59399
G1 X104.816 Y75.735 E52.65056
G1 X105.547 Y76.407 E52.70721
G1 X106.307 Y77.048 E52.76394
G1 X107.093 Y77.655 E52.82061
G1 X107.904 Y78.227 E52.87723
G1 X108.737 Y78.768 E52.93391
G1 X109.594 Y79.269 E52.99055
G1 X110.47 Y79.734 E53.04714
G1 X111.366 Y80.163 E53.10382
G1 X112.28 Y80.552 E53.1605
G1 X113.209 Y80.903 E53.21716
G1 X114.152 Y81.215 E53.27384
