;FLAVOR:Marlin
;TIME:7170
;Filament used: 3.13902m
;Layer height: 0.4
;MINX:36.465
;MINY:39.467
;MINZ:0.52
;MAXX:119.553
;MAXY:142.553
;MAXZ:19.72
;Generated with Cura_SteamEngine 4.1.0
M82 ;absolute extrusion mode
M98 P0:/sys/startprint.g

G92 E0
G92 E0
G10
;LAYER_COUNT:49
;LAYER:0
M107
G0 F3600 X38.891 Y57.967 Z0.52
;TYPE:SKIRT
M220 S50
G11
G1 F1800 X39.403 Y57.625 E0.03513
G1 X39.813 Y57.403 E0.06174
G1 X40.076 Y57.275 E0.07842
G1 X40.503 Y57.09 E0.10498
G1 X40.56 Y57.066 E0.10851
G1 X52.239 Y52.261 E0.82909
G1 X52.283 Y52.243 E0.8318
G1 X53.192 Y51.884 E0.88757
G1 X53.31 Y51.84 E0.89475
G1 X53.523 Y51.765 E0.90764
G1 X53.958 Y51.644 E0.9334
G1 X54.34 Y51.565 E0.95566
G1 X57.008 Y50.981 E1.1115
G1 X59.639 Y50.327 E1.26619
G1 X62.311 Y49.583 E1.42445
G1 X64.906 Y48.779 E1.57946
G1 X67.51 Y47.891 E1.73644
G1 X70.074 Y46.935 E1.89258
G1 X72.591 Y45.913 E2.04758
G1 X73.7 Y45.43 E2.1166
G1 X73.733 Y45.416 E2.11865
G1 X74.529 Y45.079 E2.16797
G1 X74.56 Y45.066 E2.16988
G1 X86.239 Y40.261 E2.89047
G1 X86.286 Y40.242 E2.89336
G1 X87.195 Y39.884 E2.9491
G1 X87.288 Y39.849 E2.95477
G1 X87.499 Y39.773 E2.96757
G1 X87.967 Y39.642 E2.9953
G1 X88.39 Y39.556 E3.01993
G1 X88.84 Y39.496 E3.04583
G1 X89.194 Y39.473 E3.06608
G1 X89.505 Y39.467 E3.08382
G1 X89.79 Y39.475 E3.10009
G1 X90.333 Y39.535 E3.13126
G1 X90.586 Y39.584 E3.14597
G1 X90.707 Y39.61 E3.15303
G1 X90.948 Y39.666 E3.16715
G1 X91.495 Y39.844 E3.19997
G1 X91.989 Y40.053 E3.23058
G1 X92.53 Y40.343 E3.2656
G1 X92.745 Y40.485 E3.2803
G1 X92.831 Y40.543 E3.28622
G1 X93.035 Y40.687 E3.30047
G1 X93.494 Y41.078 E3.33487
G1 X93.862 Y41.453 E3.36485
G1 X94.244 Y41.919 E3.39923
G1 X94.402 Y42.152 E3.41529
G1 X94.662 Y42.609 E3.4453
G1 X95.156 Y43.662 E3.51166
G1 X95.213 Y43.791 E3.51971
G1 X95.504 Y44.486 E3.5627
G1 X95.512 Y44.506 E3.56393
G1 X117.075 Y96.924 E6.79801
G1 X119.039 Y101.698 E7.09256
G1 X119.056 Y101.741 E7.0952
G1 X119.305 Y102.371 E7.13385
G1 X119.458 Y102.865 E7.16336
G1 X119.539 Y103.522 E7.20113
G1 X119.552 Y104.065 E7.23212
G1 X119.553 Y104.145 E7.23669
G1 X119.553 Y106.544 E7.37357
G1 X119.543 Y107.242 E7.4134
G1 X119.495 Y107.757 E7.44291
G1 X119.369 Y108.259 E7.47244
G1 X119.167 Y108.735 E7.50195
G1 X118.895 Y109.175 E7.53146
G1 X118.558 Y109.567 E7.56096
G1 X118.236 Y109.849 E7.58538
G1 X117.586 Y110.349 E7.63218
G1 X115.443 Y112.032 E7.78765
G1 X113.317 Y113.801 E7.94546
G1 X111.264 Y115.611 E8.10163
G1 X109.295 Y117.447 E8.25524
G1 X107.33 Y119.387 E8.4128
G1 X105.437 Y121.365 E8.56902
G1 X103.595 Y123.402 E8.72572
G1 X101.834 Y125.462 E8.88035
G1 X100.111 Y127.6 E9.03703
G1 X99.317 Y128.643 E9.11182
G1 X99.291 Y128.676 E9.11422
G1 X98.838 Y129.256 E9.15621
G1 X98.489 Y129.638 E9.18574
G1 X98.086 Y129.962 E9.21524
G1 X97.637 Y130.219 E9.24476
G1 X97.154 Y130.405 E9.27429
G1 X96.768 Y130.495 E9.29691
G1 X95.529 Y130.709 E9.36865
G1 X92.803 Y131.219 E9.52689
G1 X90.144 Y131.796 E9.68214
G1 X87.472 Y132.454 E9.83916
G1 X84.822 Y133.187 E9.99604
G1 X82.246 Y133.979 E10.14981
G1 X79.63 Y134.866 E10.30743
G1 X77.064 Y135.815 E10.46353
G1 X74.521 Y136.841 E10.62
G1 X72.03 Y137.928 E10.77507
G1 X69.569 Y139.086 E10.93026
G1 X67.099 Y140.334 E11.08817
G1 X64.731 Y141.615 E11.24178
G1 X63.84 Y142.114 E11.30005
G1 X63.37 Y142.331 E11.32959
G1 X62.873 Y142.474 E11.3591
G1 X62.325 Y142.539 E11.39059
G1 X61.994 Y142.551 E11.40949
G1 X61.873 Y142.553 E11.41639
G1 X59.545 Y142.553 E11.54922
G1 X58.847 Y142.544 E11.58905
G1 X58.332 Y142.497 E11.61856
G1 X57.83 Y142.372 E11.64808
G1 X57.353 Y142.171 E11.67761
G1 X56.913 Y141.899 E11.70713
G1 X56.52 Y141.562 E11.73667
G1 X56.184 Y141.169 E11.76617
G1 X55.912 Y140.729 E11.79569
G1 X55.711 Y140.252 E11.82522
G1 X55.586 Y139.75 E11.85474
G1 X55.541 Y139.285 E11.8814
G1 X55.532 Y138.952 E11.9004
G1 X55.531 Y138.861 E11.9056
G1 X55.531 Y129.511 E12.43909
G1 X55.492 Y126.72 E12.59836
G1 X55.377 Y124.013 E12.75296
G1 X55.182 Y121.269 E12.90992
G1 X54.912 Y118.544 E13.06617
G1 X54.564 Y115.825 E13.22258
G1 X54.147 Y113.168 E13.37604
G1 X53.639 Y110.44 E13.53437
G1 X53.07 Y107.794 E13.6888
G1 X52.416 Y105.129 E13.84537
G1 X51.691 Y102.49 E14.00153
G1 X50.89 Y99.875 E14.15758
G1 X50.018 Y97.288 E14.31335
G1 X49.075 Y94.731 E14.46885
G1 X48.253 Y92.67 E14.59546
G1 X37.127 Y65.615 E16.26462
G1 X37.11 Y65.574 E16.26715
G1 X36.85 Y64.917 E16.30747
G1 X36.722 Y64.525 E16.331
G1 X36.597 Y64.043 E16.35941
G1 X36.496 Y63.409 E16.39604
G1 X36.465 Y62.908 E16.42468
G1 X36.486 Y62.28 E16.46054
G1 X36.549 Y61.783 E16.48912
G1 X36.687 Y61.167 E16.52514
G1 X36.843 Y60.688 E16.55388
G1 X37.104 Y60.09 E16.59111
G1 X37.354 Y59.643 E16.62034
G1 X37.714 Y59.122 E16.65647
G1 X38.041 Y58.733 E16.68547
G1 X38.498 Y58.285 E16.72198
G1 X38.891 Y57.967 E16.75083
G10
;MESH:bedcableanchor.stl(1)
G0 F3600 X40.41 Y61.879
G0 X63.004 Y104.018
G0 X63.103 Y104.015
;TYPE:WALL-OUTER
G11
G1 F1800 X63.21 Y104.63 E16.78645
G1 X63.478 Y105.208 E16.8228
G1 X63.874 Y105.682 E16.85804
G1 X64.395 Y106.049 E16.8944
G1 X64.982 Y106.262 E16.93003
G1 X65.605 Y106.319 E16.96573
G1 X66.224 Y106.212 E17.00157
G1 X66.792 Y105.948 E17.03731
G1 X67.274 Y105.546 E17.07313
G1 X67.635 Y105.033 E17.10892
G1 X67.849 Y104.444 E17.14467
G1 X67.908 Y103.82 E17.18044
G1 X67.801 Y103.201 E17.21628
G1 X67.537 Y102.633 E17.25202
G1 X67.136 Y102.151 E17.2878
G1 X66.622 Y101.789 E17.32367
G1 X66.034 Y101.575 E17.35937
G1 X65.411 Y101.515 E17.39508
G1 X64.792 Y101.622 E17.43093
G1 X64.223 Y101.885 E17.46669
G1 X63.74 Y102.285 E17.50248
G1 X63.375 Y102.805 E17.53873
G1 X63.163 Y103.387 E17.57407
G1 X63.103 Y104.015 E17.61006
G0 F3600 X63.171 Y104.409
G0 X62.413 Y104.54
G0 X60.142 Y97.06
G0 X60.241 Y97.057
G1 F1800 X60.348 Y97.671 E17.64563
G1 X60.614 Y98.247 E17.68183
G1 X61.012 Y98.724 E17.71727
G1 X61.533 Y99.091 E17.75364
G1 X62.119 Y99.304 E17.78921
G1 X62.743 Y99.361 E17.82497
G1 X63.362 Y99.254 E17.86081
G1 X63.93 Y98.99 E17.89655
G1 X64.412 Y98.588 E17.93236
G1 X64.772 Y98.075 E17.96812
G1 X64.987 Y97.486 E18.0039
G1 X65.045 Y96.862 E18.03965
G1 X64.938 Y96.244 E18.07544
G1 X64.675 Y95.675 E18.11121
G1 X64.274 Y95.193 E18.14698
G1 X63.76 Y94.831 E18.18286
G1 X63.172 Y94.617 E18.21856
G1 X62.551 Y94.557 E18.25416
G1 X61.932 Y94.663 E18.28999
G1 X61.363 Y94.926 E18.32576
G1 X60.88 Y95.326 E18.36154
G1 X60.513 Y95.847 E18.3979
G1 X60.301 Y96.429 E18.43325
G1 X60.241 Y97.057 E18.46924
G0 F3600 X60.309 Y97.451
G0 X59.551 Y97.582
G0 X45.999 Y62.893
G0 X45.951 Y61.63
G0 X46.495 Y60.469
G0 X46.568 Y60.536
G1 F1800 X46.203 Y61.057 E18.50554
G1 X45.99 Y61.638 E18.54085
G1 X45.93 Y62.267 E18.5769
G1 X46.037 Y62.882 E18.61252
G1 X46.305 Y63.46 E18.64887
G1 X46.701 Y63.934 E18.68411
G1 X47.222 Y64.301 E18.72048
G1 X47.809 Y64.514 E18.75611
G1 X48.432 Y64.571 E18.7918
G1 X49.051 Y64.464 E18.82765
G1 X49.619 Y64.2 E18.86338
G1 X50.101 Y63.798 E18.8992
G1 X50.461 Y63.285 E18.93496
G1 X50.676 Y62.696 E18.97073
G1 X50.735 Y62.072 E19.0065
G1 X50.628 Y61.453 E19.04234
G1 X50.364 Y60.885 E19.07808
G1 X49.963 Y60.403 E19.11385
G1 X49.449 Y60.041 E19.14973
G1 X48.861 Y59.827 E19.18543
G1 X48.24 Y59.767 E19.22103
G1 X47.619 Y59.874 E19.25698
G1 X47.05 Y60.137 E19.29275
G1 X46.568 Y60.536 E19.32845
G0 F3600 X46.339 Y60.863
G0 X45.71 Y60.421
G0 X47.608 Y59.836
G0 X52.08 Y60.28
G0 X52.176 Y60.255
G1 F1800 X52.417 Y60.835 E19.36429
G1 X52.799 Y61.332 E19.40006
G1 X53.296 Y61.714 E19.43582
G1 X53.876 Y61.955 E19.47166
G1 X54.498 Y62.036 E19.50745
G1 X55.12 Y61.955 E19.54324
G1 X55.7 Y61.714 E19.57908
G1 X56.197 Y61.332 E19.61485
G1 X56.579 Y60.835 E19.65061
G1 X56.82 Y60.255 E19.68645
G1 X56.901 Y59.633 E19.72224
G1 X56.82 Y59.012 E19.75797
G1 X56.579 Y58.431 E19.79386
G1 X56.197 Y57.934 E19.82963
G1 X55.7 Y57.552 E19.8654
G1 X55.12 Y57.311 E19.90123
G1 X54.498 Y57.23 E19.93702
G1 X53.876 Y57.311 E19.97281
G1 X53.296 Y57.552 E20.00865
G1 X52.799 Y57.934 E20.04442
G1 X52.417 Y58.431 E20.08019
G1 X52.176 Y59.012 E20.11608
G1 X52.095 Y59.633 E20.15181
G1 X52.176 Y60.255 E20.1876
G0 F3600 X52.329 Y60.624
G0 X51.618 Y60.918
G0 X54.942 Y67.238
G0 X55.038 Y67.213
G1 F1800 X55.279 Y67.793 E20.22344
G1 X55.661 Y68.29 E20.2592
G1 X56.158 Y68.672 E20.29497
G1 X56.738 Y68.913 E20.33081
G1 X57.36 Y68.994 E20.3666
G1 X57.982 Y68.913 E20.40239
G1 X58.562 Y68.672 E20.43823
G1 X59.059 Y68.29 E20.47399
G1 X59.441 Y67.793 E20.50976
G1 X59.682 Y67.213 E20.5456
G1 X59.763 Y66.591 E20.58139
G1 X59.682 Y65.97 E20.61712
G1 X59.441 Y65.389 E20.65301
G1 X59.059 Y64.892 E20.68878
G1 X58.562 Y64.51 E20.72454
G1 X57.982 Y64.269 E20.76038
G1 X57.36 Y64.188 E20.79617
G1 X56.738 Y64.269 E20.83196
G1 X56.158 Y64.51 E20.8678
G1 X55.661 Y64.892 E20.90357
G1 X55.279 Y65.389 E20.93933
G1 X55.038 Y65.97 E20.97522
G1 X54.957 Y66.591 E21.01096
G1 X55.038 Y67.213 E21.04675
G0 F3600 X55.191 Y67.582
G0 X54.48 Y67.876
G0 X51.732 Y66.746
G0 X51.1 Y66.725
G1 F1800 X50.481 Y66.832 E21.08259
G1 X49.914 Y67.094 E21.11823
G1 X49.431 Y67.495 E21.15405
G1 X49.065 Y68.015 E21.19033
G1 X48.852 Y68.596 E21.22564
G1 X48.793 Y69.225 E21.26169
G1 X48.899 Y69.839 E21.29724
G1 X49.167 Y70.418 E21.33364
G1 X49.563 Y70.892 E21.36889
G1 X50.084 Y71.259 E21.40525
G1 X50.671 Y71.472 E21.44088
G1 X51.294 Y71.529 E21.47658
G1 X51.913 Y71.422 E21.51242
G1 X52.481 Y71.158 E21.54816
G1 X52.963 Y70.756 E21.58397
G1 X53.324 Y70.243 E21.61976
G1 X53.538 Y69.654 E21.65552
G1 X53.597 Y69.03 E21.69128
G1 X53.49 Y68.411 E21.72713
G1 X53.226 Y67.843 E21.76286
G1 X52.825 Y67.361 E21.79864
G1 X52.311 Y67 E21.83448
G1 X51.724 Y66.785 E21.87015
G1 X51.1 Y66.725 E21.90592
G0 F3600 X50.706 Y66.793
G0 X50.576 Y66.034
G0 X49.03 Y67.997
G0 X48.754 Y69.226
G0 X51.996 Y77.397
G0 X52.9 Y78.305
G0 X52.946 Y78.217
G1 F1800 X53.533 Y78.43 E21.94155
G1 X54.156 Y78.487 E21.97724
G1 X54.775 Y78.38 E22.01309
G1 X55.343 Y78.116 E22.04883
G1 X55.825 Y77.714 E22.08464
G1 X56.186 Y77.201 E22.12043
G1 X56.4 Y76.612 E22.15619
G1 X56.459 Y75.988 E22.19195
G1 X56.352 Y75.37 E22.22774
G1 X56.089 Y74.801 E22.2635
G1 X55.686 Y74.319 E22.29935
G1 X55.174 Y73.958 E22.3351
G1 X54.59 Y73.743 E22.37061
G1 X53.963 Y73.683 E22.40655
G1 X53.343 Y73.79 E22.44245
G1 X52.774 Y74.053 E22.47821
G1 X52.294 Y74.452 E22.51383
G1 X51.927 Y74.973 E22.55019
G1 X51.714 Y75.554 E22.5855
G1 X51.655 Y76.183 E22.62155
G1 X51.761 Y76.797 E22.6571
G1 X52.029 Y77.376 E22.6935
G1 X52.426 Y77.85 E22.72878
G1 X52.946 Y78.217 E22.7651
G0 F3600 X53.322 Y78.353
G0 X53.06 Y79.077
G0 X55.364 Y78.149
G0 X57.804 Y74.196
G0 X57.9 Y74.171
G1 F1800 X58.141 Y74.751 E22.80093
G1 X58.523 Y75.248 E22.8367
G1 X59.02 Y75.63 E22.87247
G1 X59.601 Y75.871 E22.90836
G1 X60.222 Y75.952 E22.94409
G1 X60.844 Y75.871 E22.97988
G1 X61.424 Y75.63 E23.01572
G1 X61.921 Y75.248 E23.05149
G1 X62.303 Y74.751 E23.08725
G1 X62.544 Y74.171 E23.12309
G1 X62.625 Y73.549 E23.15888
G1 X62.544 Y72.928 E23.19461
G1 X62.303 Y72.347 E23.2305
G1 X61.921 Y71.85 E23.26627
G1 X61.424 Y71.468 E23.30204
G1 X60.844 Y71.227 E23.33787
G1 X60.222 Y71.146 E23.37367
G1 X59.601 Y71.227 E23.4094
G1 X59.02 Y71.468 E23.44529
G1 X58.523 Y71.85 E23.48106
G1 X58.141 Y72.347 E23.51682
G1 X57.9 Y72.928 E23.55271
G1 X57.819 Y73.549 E23.58845
G1 X57.9 Y74.171 E23.62424
G0 F3600 X58.053 Y74.54
G0 X57.342 Y74.834
G0 X60.916 Y79.256
G0 X61.002 Y79.305
G1 F1800 X60.763 Y79.886 E23.66008
G1 X60.68 Y80.507 E23.69583
G1 X60.763 Y81.129 E23.73164
G1 X61.002 Y81.709 E23.76743
G1 X61.385 Y82.206 E23.80323
G1 X61.882 Y82.588 E23.839
G1 X62.463 Y82.829 E23.87489
G1 X63.084 Y82.91 E23.91062
G1 X63.706 Y82.829 E23.94641
G1 X64.286 Y82.588 E23.98225
G1 X64.784 Y82.206 E24.01806
G1 X65.165 Y81.709 E24.05379
G1 X65.406 Y81.129 E24.08963
G1 X65.487 Y80.507 E24.12542
G1 X65.406 Y79.886 E24.16115
G1 X65.165 Y79.305 E24.19704
G1 X64.784 Y78.808 E24.23278
G1 X64.286 Y78.426 E24.26859
G1 X63.706 Y78.185 E24.30443
G1 X63.084 Y78.104 E24.34022
G1 X62.463 Y78.185 E24.37595
G1 X61.882 Y78.426 E24.41184
G1 X61.385 Y78.808 E24.44761
G1 X61.002 Y79.305 E24.48341
G0 F3600 X60.85 Y79.675
G0 X60.138 Y79.382
G0 X56.822 Y80.542
G0 X56.825 Y80.641
G1 F1800 X56.206 Y80.748 E24.51925
G1 X55.638 Y81.01 E24.55494
G1 X55.156 Y81.41 E24.59068
G1 X54.788 Y81.933 E24.62717
G1 X54.576 Y82.512 E24.66235
G1 X54.517 Y83.141 E24.6984
G1 X54.623 Y83.755 E24.73395
G1 X54.891 Y84.334 E24.77036
G1 X55.288 Y84.808 E24.80564
G1 X55.808 Y85.175 E24.84195
G1 X56.395 Y85.388 E24.87758
G1 X57.018 Y85.445 E24.91328
G1 X57.636 Y85.338 E24.94906
G1 X58.206 Y85.074 E24.98491
G1 X58.687 Y84.672 E25.02068
G1 X59.047 Y84.159 E25.05643
G1 X59.263 Y83.57 E25.09223
G1 X59.321 Y82.946 E25.12799
G1 X59.214 Y82.328 E25.16378
G1 X58.951 Y81.759 E25.19954
G1 X58.548 Y81.277 E25.23539
G1 X58.036 Y80.916 E25.27114
G1 X57.448 Y80.701 E25.30686
G1 X56.825 Y80.641 E25.34257
G0 F3600 X56.431 Y80.709
G0 X56.301 Y79.95
G0 X58.054 Y80.881
G0 X58.984 Y81.738
G0 X59.684 Y87.5
G0 X59.687 Y87.599
G1 F1800 X59.068 Y87.706 E25.37842
G1 X58.499 Y87.969 E25.41418
G1 X58.017 Y88.368 E25.44988
G1 X57.651 Y88.889 E25.48621
G1 X57.439 Y89.471 E25.52156
G1 X57.379 Y90.098 E25.5575
G1 X57.485 Y90.713 E25.5931
G1 X57.753 Y91.292 E25.62951
G1 X58.15 Y91.766 E25.66479
G1 X58.67 Y92.133 E25.7011
G1 X59.257 Y92.346 E25.73673
G1 X59.88 Y92.403 E25.77243
G1 X60.499 Y92.296 E25.80827
G1 X61.068 Y92.032 E25.84406
G1 X61.549 Y91.63 E25.87983
G1 X61.909 Y91.117 E25.91559
G1 X62.125 Y90.528 E25.95139
G1 X62.183 Y89.904 E25.98715
G1 X62.076 Y89.286 E26.02293
G1 X61.813 Y88.717 E26.0587
G1 X61.41 Y88.235 E26.09455
G1 X60.898 Y87.874 E26.13029
G1 X60.31 Y87.659 E26.16602
G1 X59.687 Y87.599 E26.20173
G0 F3600 X59.293 Y87.667
G0 X59.163 Y86.908
G0 X64.177 Y89.235
G0 X64.247 Y89.165
G1 F1800 X64.746 Y89.546 E26.23755
G1 X65.325 Y89.787 E26.27334
G1 X65.947 Y89.868 E26.30913
G1 X66.568 Y89.787 E26.34486
G1 X67.149 Y89.546 E26.38075
G1 X67.646 Y89.165 E26.41648
G1 X68.029 Y88.666 E26.45237
G1 X68.268 Y88.087 E26.48812
G1 X68.351 Y87.465 E26.52392
G1 X68.268 Y86.844 E26.55967
G1 X68.029 Y86.263 E26.59552
G1 X67.646 Y85.766 E26.63132
G1 X67.149 Y85.384 E26.66708
G1 X66.568 Y85.143 E26.70297
G1 X65.947 Y85.062 E26.73871
G1 X65.325 Y85.143 E26.7745
G1 X64.745 Y85.384 E26.81033
G1 X64.247 Y85.766 E26.84615
G1 X63.866 Y86.263 E26.88188
G1 X63.625 Y86.844 E26.91777
G1 X63.544 Y87.465 E26.9535
G1 X63.625 Y88.087 E26.98929
G1 X63.866 Y88.666 E27.02508
G1 X64.247 Y89.165 E27.0609
G0 F3600 X64.565 Y89.408
G0 X64.098 Y90.02
G0 X66.391 Y95.07
G0 X66.487 Y95.045
G1 F1800 X66.728 Y95.625 E27.09674
G1 X67.11 Y96.123 E27.13255
G1 X67.607 Y96.504 E27.16828
G1 X68.187 Y96.745 E27.20412
G1 X68.809 Y96.826 E27.23991
G1 X69.43 Y96.745 E27.27564
G1 X70.011 Y96.504 E27.31153
G1 X70.508 Y96.123 E27.34726
G1 X70.89 Y95.625 E27.38308
G1 X71.131 Y95.045 E27.41891
G1 X71.212 Y94.423 E27.4547
G1 X71.131 Y93.802 E27.49044
G1 X70.89 Y93.221 E27.52633
G1 X70.508 Y92.724 E27.56209
G1 X70.011 Y92.342 E27.59786
G1 X69.43 Y92.101 E27.63375
G1 X68.809 Y92.02 E27.66949
G1 X68.187 Y92.101 E27.70528
G1 X67.607 Y92.342 E27.74111
G1 X67.11 Y92.724 E27.77688
G1 X66.728 Y93.221 E27.81265
G1 X66.487 Y93.802 E27.84854
G1 X66.406 Y94.423 E27.88427
G1 X66.487 Y95.045 E27.92006
G0 F3600 X66.64 Y95.414
G0 X65.929 Y95.708
G0 X72.831 Y99.163
G0 X72.785 Y99.251
G1 F1800 X72.196 Y99.038 E27.9558
G1 X71.572 Y98.979 E27.99156
G1 X70.953 Y99.087 E28.02741
G1 X70.384 Y99.351 E28.0632
G1 X69.903 Y99.753 E28.09897
G1 X69.543 Y100.266 E28.13473
G1 X69.327 Y100.854 E28.17048
G1 X69.269 Y101.479 E28.20629
G1 X69.376 Y102.097 E28.24208
G1 X69.639 Y102.667 E28.2779
G1 X70.042 Y103.148 E28.3137
G1 X70.553 Y103.508 E28.34937
G1 X71.142 Y103.725 E28.38518
G1 X71.767 Y103.783 E28.421
G1 X72.385 Y103.677 E28.45677
G1 X72.955 Y103.413 E28.49262
G1 X73.437 Y103.012 E28.52839
G1 X73.796 Y102.502 E28.56398
G1 X74.015 Y101.913 E28.59983
G1 X74.072 Y101.278 E28.63621
G1 X73.964 Y100.661 E28.67195
G1 X73.701 Y100.093 E28.70767
G1 X73.298 Y99.613 E28.74343
G1 X72.785 Y99.251 E28.77925
G0 F3600 X72.409 Y99.115
G0 X72.67 Y98.391
G0 X73.734 Y100.072
G0 X74.111 Y101.277
G0 X73.831 Y102.52
G0 X72.976 Y103.446
G0 X72.09 Y108.339
G0 X72.211 Y108.961
G1 F1800 X72.452 Y109.541 E28.81509
