;FLAVOR:Marlin
;TIME:3297
;Filament used: 1.59957m
;Layer height: 0.4
;MINX:69.767
;MINY:38.768
;MINZ:0.52
;MAXX:120.253
;MAXY:131.253
;MAXZ:19.72
;Generated with Cura_SteamEngine 4.1.0
M82 ;absolute extrusion mode
M98 P0:/sys/startprint.g

G92 E0
G92 E0
G10
;LAYER_COUNT:49
;LAYER:0
M107
G0 F3600 X70.743 Y47.301 Z0.52
;TYPE:SKIRT
G11
G1 F1800 X71.178 Y46.672 E0.04364
G1 X71.505 Y46.283 E0.07263
G1 X72.057 Y45.741 E0.11677
G1 X72.45 Y45.423 E0.14562
G1 X73.07 Y45.01 E0.18813
G1 X73.48 Y44.788 E0.21473
G1 X73.798 Y44.633 E0.23491
G1 X74.225 Y44.448 E0.26147
G1 X74.294 Y44.419 E0.26574
G1 X85.973 Y39.614 E0.98632
G1 X86.026 Y39.592 E0.9896
G1 X86.935 Y39.233 E1.04536
G1 X87.071 Y39.182 E1.05365
G1 X87.28 Y39.108 E1.0663
G1 X87.82 Y38.958 E1.09828
G1 X88.245 Y38.871 E1.12303
G1 X88.794 Y38.798 E1.15463
G1 X89.148 Y38.775 E1.17487
G1 X89.524 Y38.768 E1.19633
G1 X89.81 Y38.776 E1.21266
G1 X90.47 Y38.848 E1.25054
G1 X90.722 Y38.897 E1.26519
G1 X90.866 Y38.928 E1.27359
G1 X91.107 Y38.984 E1.28771
G1 X91.768 Y39.199 E1.32737
G1 X92.262 Y39.408 E1.35797
G1 X92.916 Y39.759 E1.40033
G1 X93.131 Y39.901 E1.41503
G1 X93.235 Y39.971 E1.42218
G1 X93.439 Y40.115 E1.43643
G1 X93.994 Y40.587 E1.478
G1 X94.362 Y40.962 E1.50798
G1 X94.823 Y41.526 E1.54954
G1 X94.981 Y41.759 E1.5656
G1 X95.296 Y42.312 E1.60192
G1 X95.79 Y43.365 E1.66828
G1 X95.859 Y43.521 E1.67802
G1 X96.15 Y44.216 E1.72101
G1 X96.159 Y44.239 E1.72242
G1 X117.722 Y96.657 E4.9565
G1 X119.686 Y101.431 E5.25105
G1 X119.707 Y101.483 E5.25425
G1 X119.956 Y102.113 E5.2929
G1 X120.128 Y102.656 E5.3254
G1 X120.222 Y103.217 E5.35786
G1 X120.239 Y103.505 E5.37432
G1 X120.252 Y104.048 E5.40531
G1 X120.253 Y104.145 E5.41084
G1 X120.253 Y106.554 E5.5483
G1 X120.243 Y107.252 E5.58813
G1 X120.195 Y107.819 E5.6206
G1 X120.067 Y108.373 E5.65304
G1 X119.864 Y108.905 E5.68553
G1 X119.588 Y109.402 E5.71797
G1 X119.245 Y109.856 E5.75043
G1 X118.662 Y110.404 E5.79609
G1 X118.045 Y110.879 E5.84052
G1 X115.865 Y112.591 E5.99868
G1 X113.769 Y114.335 E6.15426
G1 X111.747 Y116.119 E6.30812
G1 X109.77 Y117.962 E6.46234
G1 X107.815 Y119.893 E6.61913
G1 X105.95 Y121.841 E6.773
G1 X104.133 Y123.85 E6.92756
G1 X102.367 Y125.915 E7.0826
G1 X100.667 Y128.026 E7.23725
G1 X99.887 Y129.05 E7.3107
G1 X99.849 Y129.099 E7.31424
G1 X99.38 Y129.696 E7.35756
G1 X98.998 Y130.117 E7.39
G1 X98.561 Y130.481 E7.42245
G1 X98.077 Y130.78 E7.45491
G1 X97.556 Y131.009 E7.48738
G1 X97.008 Y131.162 E7.51984
G1 X96.308 Y131.242 E7.56005
G1 X95.986 Y131.251 E7.57843
G1 X95.873 Y131.253 E7.58487
G1 X93.536 Y131.253 E7.71822
G1 X92.838 Y131.244 E7.75805
G1 X92.271 Y131.196 E7.79052
G1 X91.716 Y131.07 E7.82299
G1 X91.185 Y130.867 E7.85543
G1 X90.687 Y130.592 E7.88789
G1 X90.232 Y130.25 E7.92037
G1 X89.83 Y129.848 E7.95281
G1 X89.489 Y129.393 E7.98525
G1 X89.214 Y128.894 E8.01776
G1 X89.012 Y128.363 E8.05018
G1 X88.887 Y127.808 E8.08264
G1 X88.841 Y127.303 E8.11157
G1 X88.832 Y126.97 E8.13058
G1 X88.831 Y126.861 E8.1368
G1 X88.831 Y117.521 E8.66973
G1 X88.791 Y114.724 E8.82933
G1 X88.678 Y112.055 E8.98176
G1 X88.484 Y109.318 E9.13832
G1 X88.218 Y106.632 E9.29233
G1 X87.875 Y103.953 E9.44644
G1 X87.452 Y101.261 E9.60193
G1 X86.952 Y98.571 E9.75804
G1 X86.385 Y95.938 E9.91172
G1 X85.745 Y93.328 E10.06506
G1 X85.023 Y90.701 E10.22051
G1 X84.218 Y88.071 E10.37745
G1 X83.361 Y85.533 E10.53029
G1 X82.415 Y82.966 E10.68639
G1 X81.603 Y80.929 E10.81152
G1 X70.479 Y53.881 E12.48026
G1 X70.459 Y53.831 E12.48334
G1 X70.199 Y53.174 E12.52365
G1 X70.045 Y52.701 E12.55203
G1 X69.92 Y52.219 E12.58045
G1 X69.798 Y51.452 E12.62476
G1 X69.767 Y50.951 E12.6534
G1 X69.791 Y50.192 E12.69673
G1 X69.854 Y49.695 E12.72532
G1 X70.021 Y48.95 E12.76888
G1 X70.177 Y48.471 E12.79762
G1 X70.493 Y47.748 E12.84265
G1 X70.743 Y47.301 E12.87187
G0 F3600 X71.354 Y47.643
G1 F1800 X71.714 Y47.122 E12.908
G1 X72.041 Y46.733 E12.937
G1 X72.498 Y46.285 E12.97351
G1 X72.891 Y45.967 E13.00236
G1 X73.403 Y45.625 E13.03749
G1 X73.813 Y45.403 E13.0641
G1 X74.076 Y45.275 E13.08078
G1 X74.503 Y45.09 E13.10734
G1 X74.56 Y45.066 E13.11087
G1 X86.239 Y40.261 E13.83145
G1 X86.283 Y40.243 E13.83416
G1 X87.192 Y39.884 E13.88993
G1 X87.305 Y39.842 E13.89681
G1 X87.514 Y39.768 E13.90946
G1 X87.96 Y39.644 E13.93587
G1 X88.385 Y39.557 E13.96062
G1 X88.84 Y39.496 E13.98682
G1 X89.194 Y39.473 E14.00706
G1 X89.505 Y39.467 E14.02481
G1 X89.791 Y39.475 E14.04113
G1 X90.336 Y39.536 E14.07242
G1 X90.588 Y39.585 E14.08707
G1 X90.707 Y39.61 E14.09401
G1 X90.948 Y39.666 E14.10813
G1 X91.495 Y39.844 E14.14095
G1 X91.989 Y40.053 E14.17155
G1 X92.53 Y40.343 E14.20658
G1 X92.745 Y40.485 E14.22128
G1 X92.831 Y40.543 E14.2272
G1 X93.035 Y40.687 E14.24145
G1 X93.494 Y41.078 E14.27585
G1 X93.862 Y41.453 E14.30583
G1 X94.244 Y41.919 E14.34021
G1 X94.402 Y42.152 E14.35627
G1 X94.662 Y42.609 E14.38628
G1 X95.156 Y43.662 E14.45264
G1 X95.213 Y43.791 E14.46069
G1 X95.504 Y44.486 E14.50368
G1 X95.512 Y44.506 E14.50491
G1 X117.075 Y96.924 E17.73899
G1 X119.039 Y101.698 E18.03354
G1 X119.056 Y101.741 E18.03618
G1 X119.305 Y102.371 E18.07483
G1 X119.458 Y102.865 E18.10434
G1 X119.539 Y103.522 E18.14211
G1 X119.552 Y104.065 E18.1731
G1 X119.553 Y104.145 E18.17767
G1 X119.553 Y106.544 E18.31455
G1 X119.543 Y107.242 E18.35438
G1 X119.495 Y107.757 E18.38389
G1 X119.369 Y108.259 E18.41342
G1 X119.167 Y108.735 E18.44293
G1 X118.895 Y109.175 E18.47244
G1 X118.558 Y109.567 E18.50194
G1 X118.236 Y109.849 E18.52636
G1 X117.586 Y110.349 E18.57315
G1 X115.443 Y112.032 E18.72863
G1 X113.317 Y113.801 E18.88644
G1 X111.264 Y115.611 E19.04261
G1 X109.295 Y117.447 E19.19622
G1 X107.33 Y119.387 E19.35378
G1 X105.437 Y121.365 E19.51
G1 X103.595 Y123.402 E19.6667
G1 X101.834 Y125.462 E19.82133
G1 X100.111 Y127.6 E19.97801
G1 X99.33 Y128.626 E20.05158
G1 X99.298 Y128.667 E20.05455
G1 X98.829 Y129.264 E20.09787
G1 X98.479 Y129.644 E20.12735
G1 X98.075 Y129.967 E20.15686
G1 X97.625 Y130.223 E20.1864
G1 X97.142 Y130.407 E20.21589
G1 X96.636 Y130.515 E20.24541
G1 X96.289 Y130.543 E20.26528
G1 X95.967 Y130.552 E20.28366
G1 X95.873 Y130.553 E20.28902
G1 X93.545 Y130.553 E20.42185
G1 X92.847 Y130.544 E20.46168
G1 X92.332 Y130.497 E20.49119
G1 X91.83 Y130.372 E20.52071
G1 X91.353 Y130.171 E20.55025
G1 X90.913 Y129.899 E20.57976
G1 X90.52 Y129.562 E20.6093
G1 X90.184 Y129.169 E20.6388
G1 X89.912 Y128.729 E20.66832
G1 X89.711 Y128.252 E20.69785
G1 X89.586 Y127.75 E20.72737
G1 X89.541 Y127.285 E20.75403
G1 X89.532 Y126.952 E20.77303
G1 X89.531 Y126.861 E20.77823
G1 X89.531 Y117.511 E21.31173
G1 X89.492 Y114.72 E21.47099
G1 X89.377 Y112.013 E21.62559
G1 X89.182 Y109.269 E21.78255
G1 X88.912 Y106.544 E21.9388
G1 X88.564 Y103.825 E22.09521
G1 X88.147 Y101.168 E22.24867
G1 X87.639 Y98.44 E22.407
G1 X87.07 Y95.794 E22.56143
G1 X86.416 Y93.129 E22.718
G1 X85.691 Y90.49 E22.87416
G1 X84.89 Y87.875 E23.03021
G1 X84.018 Y85.288 E23.18598
G1 X83.075 Y82.731 E23.34149
G1 X82.253 Y80.67 E23.46809
G1 X71.127 Y53.615 E25.13725
G1 X71.11 Y53.574 E25.13978
G1 X70.85 Y52.917 E25.1801
G1 X70.722 Y52.525 E25.20363
G1 X70.597 Y52.043 E25.23204
G1 X70.496 Y51.409 E25.26867
G1 X70.465 Y50.908 E25.29731
G1 X70.486 Y50.28 E25.33317
G1 X70.549 Y49.783 E25.36175
G1 X70.687 Y49.167 E25.39777
G1 X70.843 Y48.688 E25.42652
G1 X71.104 Y48.09 E25.46375
G1 X71.354 Y47.643 E25.49297
G10
;MESH:bedcableanchor.stl
G0 F3600 X72.954 Y51.338
G0 X74.973 Y51.349
G0 X96.349 Y92.043
G0 X96.448 Y92.04
;TYPE:WALL-INNER
G11
G1 F1800 X96.584 Y92.824 E25.53837
G1 X96.922 Y93.555 E25.58432
G1 X97.43 Y94.164 E25.62957
G1 X98.092 Y94.63 E25.67577
G1 X98.839 Y94.902 E25.72113
G1 X99.631 Y94.974 E25.7665
G1 X100.42 Y94.838 E25.81219
G1 X101.143 Y94.502 E25.85768
G1 X101.756 Y93.99 E25.90325
G1 X102.216 Y93.336 E25.94887
G1 X102.488 Y92.588 E25.99429
G1 X102.563 Y91.795 E26.03974
G1 X102.465 Y91.225 E26.07274
G1 X102.449 Y91.128 E26.07835
G1 X102.427 Y91.005 E26.08548
G1 X102.212 Y90.543 E26.11455
G1 X102.091 Y90.282 E26.13097
G1 X102.03 Y90.209 E26.1364
G1 X101.58 Y89.669 E26.1765
G1 X100.926 Y89.209 E26.22213
G1 X100.184 Y88.936 E26.26724
G1 X99.386 Y88.86 E26.31298
G1 X98.597 Y88.996 E26.35866
G1 X97.874 Y89.33 E26.4041
G1 X97.258 Y89.84 E26.44973
G1 X96.794 Y90.502 E26.49586
G1 X96.524 Y91.243 E26.54086
G1 X96.448 Y92.04 E26.58654
G0 F3600 X97.103 Y92.015
;TYPE:WALL-OUTER
G1 F1800 X97.21 Y92.629 E26.62211
G1 X97.476 Y93.205 E26.65831
G1 X97.874 Y93.682 E26.69375
G1 X98.395 Y94.049 E26.73012
G1 X98.982 Y94.262 E26.76575
G1 X99.605 Y94.319 E26.80144
G1 X100.224 Y94.212 E26.83729
G1 X100.792 Y93.948 E26.87302
G1 X101.274 Y93.546 E26.90884
G1 X101.635 Y93.033 E26.94463
G1 X101.849 Y92.444 E26.98039
G1 X101.908 Y91.82 E27.01615
G1 X101.801 Y91.201 E27.05199
G1 X101.537 Y90.633 E27.08773
G1 X101.136 Y90.151 E27.12351
G1 X100.622 Y89.79 E27.15935
G1 X100.038 Y89.575 E27.19485
G1 X99.411 Y89.515 E27.23079
G1 X98.792 Y89.622 E27.26664
G1 X98.223 Y89.885 E27.3024
G1 X97.74 Y90.285 E27.33819
G1 X97.375 Y90.805 E27.37444
G1 X97.163 Y91.387 E27.40978
G1 X97.103 Y92.015 E27.44578
G0 F3600 X97.171 Y92.409
G0 X96.413 Y92.54
G0 X90.821 Y78.919
G0 X90.761 Y77.318
G0 X91.842 Y74.002
G0 X93.199 Y73.143
G0 X93.941 Y71.722
G0 X93.905 Y70.274
G0 X85.429 Y48.326
G0 X85.529 Y48.314
;TYPE:WALL-INNER
G1 F1800 X85.543 Y48.425 E27.45216
G1 X85.795 Y49.031 E27.48961
G1 X85.85 Y49.163 E27.49777
G1 X85.968 Y49.317 E27.50884
G1 X86.335 Y49.796 E27.54327
G1 X86.968 Y50.281 E27.58877
G1 X87.706 Y50.588 E27.63438
G1 X88.498 Y50.691 E27.67995
G1 X89.29 Y50.588 E27.72552
G1 X90.028 Y50.281 E27.77113
G1 X90.661 Y49.796 E27.81663
G1 X91.146 Y49.163 E27.86213
G1 X91.453 Y48.425 E27.90774
G1 X91.495 Y48.103 E27.92626
G1 X91.556 Y47.633 E27.95331
G1 X91.453 Y46.843 E27.99876
G1 X91.219 Y46.276 E28.03376
G1 X91.147 Y46.103 E28.04446
G1 X90.661 Y45.47 E28.08999
G1 X90.412 Y45.279 E28.1079
G1 X90.406 Y45.275 E28.10831
G1 X90.028 Y44.985 E28.13549
G1 X89.29 Y44.678 E28.1811
G1 X88.886 Y44.625 E28.20435
G1 X88.498 Y44.575 E28.22667
G1 X87.706 Y44.678 E28.27224
G1 X86.968 Y44.985 E28.31785
G1 X86.335 Y45.47 E28.36335
G1 X86.057 Y45.832 E28.38939
G1 X85.849 Y46.103 E28.40889
G1 X85.543 Y46.843 E28.45458
G1 X85.44 Y47.633 E28.50004
G1 X85.529 Y48.314 E28.53922
G0 F3600 X86.176 Y48.255
;TYPE:WALL-OUTER
G1 F1800 X86.417 Y48.835 E28.57506
G1 X86.799 Y49.332 E28.61083
G1 X87.296 Y49.714 E28.64659
G1 X87.876 Y49.955 E28.68243
G1 X88.498 Y50.036 E28.71822
G1 X89.12 Y49.955 E28.75401
G1 X89.7 Y49.714 E28.78985
G1 X90.197 Y49.332 E28.82562
G1 X90.579 Y48.835 E28.86138
G1 X90.82 Y48.255 E28.89722
G1 X90.901 Y47.633 E28.93301
G1 X90.82 Y47.012 E28.96874
G1 X90.579 Y46.431 E29.00463
G1 X90.197 Y45.934 E29.0404
G1 X89.7 Y45.552 E29.07617
G1 X89.12 Y45.311 E29.112
G1 X88.498 Y45.23 E29.14779
G1 X87.876 Y45.311 E29.18358
G1 X87.296 Y45.552 E29.21942
G1 X86.799 Y45.934 E29.25519
G1 X86.417 Y46.431 E29.29096
G1 X86.176 Y47.012 E29.32685
G1 X86.095 Y47.633 E29.36258
G1 X86.176 Y48.255 E29.39837
G0 F3600 X86.329 Y48.624
G0 X85.618 Y48.918
G0 X84.435 Y47.892
G0 X83.014 Y47.149
G0 X81.415 Y47.209
G0 X80.056 Y48.065
G0 X79.365 Y49.342
G0 X79.275 Y50.292
;TYPE:WALL-INNER
G1 F1800 X79.411 Y51.078 E29.44388
G1 X79.751 Y51.811 E29.48999
G1 X80.257 Y52.416 E29.53499
G1 X80.919 Y52.882 E29.58118
G1 X81.666 Y53.154 E29.62654
G1 X82.458 Y53.226 E29.67192
G1 X83.247 Y53.09 E29.7176
G1 X83.97 Y52.754 E29.7631
G1 X84.584 Y52.242 E29.80871
G1 X85.042 Y51.588 E29.85427
G1 X85.315 Y50.84 E29.8997
G1 X85.39 Y50.047 E29.94515
G1 X85.286 Y49.448 E29.97984
G1 X85.254 Y49.257 E29.99015
G1 X84.988 Y48.684 E30.02094
G1 X84.918 Y48.534 E30.02987
G1 X84.847 Y48.448 E30.03595
G1 X84.408 Y47.921 E30.07508
G1 X83.753 Y47.46 E30.12079
G1 X83.006 Y47.188 E30.16615
G1 X82.807 Y47.168 E30.17756
G1 X82.214 Y47.112 E30.21155
G1 X81.426 Y47.247 E30.25716
G1 X80.701 Y47.582 E30.30273
G1 X80.085 Y48.092 E30.34836
G1 X79.89 Y48.37 E30.36774
G1 X79.621 Y48.754 E30.39449
G1 X79.351 Y49.493 E30.43938
G1 X79.275 Y50.292 E30.48518
G0 F3600 X79.93 Y50.267
;TYPE:WALL-OUTER
G1 F1800 X80.037 Y50.882 E30.5208
G1 X80.305 Y51.46 E30.55715
G1 X80.701 Y51.934 E30.59239
G1 X81.222 Y52.301 E30.62876
G1 X81.809 Y52.514 E30.66439
G1 X82.432 Y52.571 E30.70008
G1 X83.051 Y52.464 E30.73592
G1 X83.619 Y52.2 E30.77166
G1 X84.101 Y51.798 E30.80748
G1 X84.461 Y51.285 E30.84324
G1 X84.676 Y50.696 E30.87901
G1 X84.735 Y50.072 E30.91478
G1 X84.628 Y49.453 E30.95062
G1 X84.364 Y48.885 E30.98636
G1 X83.963 Y48.403 E31.02213
G1 X83.449 Y48.041 E31.058
G1 X82.861 Y47.827 E31.09371
G1 X82.238 Y47.767 E31.12942
G1 X81.621 Y47.873 E31.16514
G1 X81.05 Y48.137 E31.20104
G1 X80.567 Y48.537 E31.23682
G1 X80.202 Y49.057 E31.27307
G1 X79.99 Y49.638 E31.30836
G1 X79.93 Y50.267 E31.34441
G0 F3600 X79.998 Y50.661
G0 X79.24 Y50.792
G0 X79.718 Y51.832
G0 X82.875 Y54.982
G0 X82.948 Y55.049
;TYPE:WALL-INNER
G1 F1800 X82.484 Y55.712 E31.39058
G1 X82.213 Y56.451 E31.4355
G1 X82.138 Y57.25 E31.48129
G1 X82.273 Y58.034 E31.52668
G1 X82.613 Y58.769 E31.57289
G1 X83.119 Y59.374 E31.61789
G1 X83.781 Y59.84 E31.66408
G1 X84.528 Y60.112 E31.70944
G1 X85.32 Y60.184 E31.75482
G1 X86.109 Y60.048 E31.8005
G1 X86.832 Y59.712 E31.84599
G1 X87.445 Y59.2 E31.89157
G1 X87.905 Y58.546 E31.93719
G1 X88.177 Y57.798 E31.9826
G1 X88.252 Y57.005 E32.02805
G1 X88.148 Y56.406 E32.06274
G1 X88.116 Y56.215 E32.07379
G1 X87.85 Y55.642 E32.10984
G1 X87.78 Y55.492 E32.11928
G1 X87.709 Y55.407 E32.1256
G1 X87.269 Y54.879 E32.16482
G1 X86.615 Y54.419 E32.21044
G1 X85.869 Y54.146 E32.25577
G1 X85.075 Y54.07 E32.30128
G1 X84.286 Y54.206 E32.34696
G1 X83.563 Y54.54 E32.39241
G1 X82.948 Y55.049 E32.43796
G0 F3600 X83.43 Y55.494
;TYPE:WALL-OUTER
G1 F1800 X83.065 Y56.015 E32.47425
G1 X82.852 Y56.596 E32.50956
G1 X82.793 Y57.225 E32.54561
G1 X82.899 Y57.839 E32.58116
G1 X83.167 Y58.418 E32.61757
G1 X83.563 Y58.892 E32.65281
G1 X84.084 Y59.259 E32.68917
G1 X84.671 Y59.472 E32.7248
G1 X85.294 Y59.529 E32.7605
G1 X85.913 Y59.422 E32.79634
G1 X86.481 Y59.158 E32.83208
G1 X86.963 Y58.756 E32.86789
G1 X87.324 Y58.243 E32.90368
G1 X87.538 Y57.654 E32.93944
G1 X87.597 Y57.03 E32.9752
G1 X87.49 Y56.411 E33.01105
G1 X87.226 Y55.843 E33.04679
G1 X86.825 Y55.361 E33.08256
G1 X86.311 Y55 E33.1184
G1 X85.724 Y54.785 E33.15407
G1 X85.1 Y54.725 E33.18984
G1 X84.481 Y54.832 E33.22568
G1 X83.912 Y55.095 E33.26145
G1 X83.43 Y55.494 E33.29715
G0 F3600 X83.201 Y55.821
G0 X82.572 Y55.379
G0 X83.542 Y54.507
G0 X85.074 Y54.031
G0 X86.489 Y54.331
G0 X88.291 Y55.285
G0 X88.391 Y55.273
;TYPE:WALL-INNER
G1 F1800 X88.405 Y55.383 E33.30296
G1 X88.657 Y55.989 E33.33516
G1 X88.712 Y56.121 E33.3427
G1 X88.83 Y56.275 E33.35304
G1 X89.197 Y56.754 E33.38747
G1 X89.83 Y57.239 E33.43297
G1 X90.568 Y57.546 E33.47858
G1 X91.36 Y57.649 E33.52415
G1 X92.152 Y57.546 E33.56972
G1 X92.89 Y57.239 E33.61533
G1 X93.523 Y56.754 E33.66083
G1 X94.008 Y56.121 E33.70633
G1 X94.315 Y55.383 E33.75194
G1 X94.357 Y55.064 E33.7703
G1 X94.418 Y54.591 E33.79751
G1 X94.315 Y53.801 E33.84297
G1 X94.009 Y53.061 E33.88866
G1 X93.523 Y52.428 E33.93419
G1 X93.157 Y52.148 E33.96049
G1 X92.89 Y51.943 E33.97969
G1 X92.152 Y51.636 E34.0253
G1 X91.36 Y51.533 E34.07087
G1 X90.568 Y51.636 E34.11644
G1 X89.83 Y51.943 E34.16205
G1 X89.197 Y52.428 E34.20755
G1 X88.711 Y53.061 E34.25309
G1 X88.405 Y53.801 E34.29878
G1 X88.302 Y54.591 E34.34424
G1 X88.391 Y55.273 E34.38348
G0 F3600 X89.038 Y55.213
;TYPE:WALL-OUTER
G1 F1800 X89.279 Y55.793 E34.41932
G1 X89.661 Y56.29 E34.45508
G1 X90.158 Y56.672 E34.49085
G1 X90.738 Y56.913 E34.52669
G1 X91.36 Y56.994 E34.56248
G1 X91.982 Y56.913 E34.59827
G1 X92.562 Y56.672 E34.63411
G1 X93.059 Y56.29 E34.66987
G1 X93.441 Y55.793 E34.70564
G1 X93.682 Y55.213 E34.74148
G1 X93.763 Y54.591 E34.77727
G1 X93.682 Y53.97 E34.813
G1 X93.441 Y53.389 E34.84889
G1 X93.059 Y52.892 E34.88466
G1 X92.562 Y52.51 E34.92042
G1 X91.982 Y52.269 E34.95626
G1 X91.36 Y52.188 E34.99205
G1 X90.738 Y52.269 E35.02784
G1 X90.158 Y52.51 E35.06368
G1 X89.661 Y52.892 E35.09945
G1 X89.279 Y53.389 E35.13521
G1 X89.038 Y53.97 E35.1711
G1 X88.957 Y54.591 E35.20684
G1 X89.038 Y55.213 E35.24263
G0 F3600 X89.191 Y55.582
G0 X88.48 Y55.876
