;FLAVOR:Marlin
;TIME:9391
;Filament used: 5.41936m
;Layer height: 0.4
;MINX:66.989
;MINY:39.739
;MINZ:0.52
;MAXX:173.988
;MAXY:134.261
;MAXZ:23.72
;Generated with Cura_SteamEngine 4.1.0
M82 ;absolute extrusion mode
M98 P0:/sys/startprint.g

G92 E0
G92 E0
G10
;LAYER_COUNT:59
;LAYER:0
M107
G0 F3600 X68.791 Y44.738 Z0.52
;TYPE:SKIRT
M220 S50
G11
G1 F1800 X68.899 Y44.577 E0.01106
G1 X69.15 Y44.224 E0.03578
G1 X69.209 Y44.143 E0.04149
G1 X69.349 Y43.958 E0.05473
G1 X69.473 Y43.804 E0.06601
G1 X69.766 Y43.461 E0.09175
G1 X69.82 Y43.4 E0.0964
G1 X69.96 Y43.244 E0.10836
G1 X70.113 Y43.084 E0.12099
G1 X70.407 Y42.797 E0.14444
G1 X70.465 Y42.741 E0.14904
G1 X70.666 Y42.554 E0.1647
G1 X70.819 Y42.421 E0.17627
G1 X71.147 Y42.151 E0.20051
G1 X71.232 Y42.083 E0.20672
G1 X71.432 Y41.929 E0.22112
G1 X71.581 Y41.821 E0.23162
G1 X71.89 Y41.609 E0.253
G1 X71.964 Y41.559 E0.2581
G1 X72.211 Y41.399 E0.27489
G1 X72.378 Y41.298 E0.28603
G1 X72.681 Y41.126 E0.30591
G1 X72.761 Y41.082 E0.31112
G1 X73.009 Y40.95 E0.32715
G1 X73.194 Y40.859 E0.33891
G1 X73.611 Y40.669 E0.36506
G1 X73.708 Y40.626 E0.37111
G1 X73.94 Y40.529 E0.38546
G1 X74.108 Y40.464 E0.39574
G1 X74.442 Y40.345 E0.41597
G1 X74.536 Y40.313 E0.42164
G1 X74.796 Y40.229 E0.43723
G1 X75.014 Y40.167 E0.45016
G1 X75.698 Y39.996 E0.49039
G1 X75.965 Y39.941 E0.50594
G1 X76.311 Y39.884 E0.52595
G1 X76.406 Y39.869 E0.53144
G1 X76.694 Y39.83 E0.54802
G1 X76.879 Y39.81 E0.55864
G1 X77.308 Y39.776 E0.58319
G1 X77.503 Y39.767 E0.59433
G1 X78.651 Y39.743 E0.65985
G1 X78.721 Y39.742 E0.66384
G1 X98.835 Y39.739 E1.81152
G1 X98.882 Y39.739 E1.8142
G1 X99.525 Y39.748 E1.8509
G1 X99.916 Y39.777 E1.87327
G1 X100.447 Y39.847 E1.90383
G1 X100.899 Y39.938 E1.93014
G1 X101.164 Y40.011 E1.94582
G1 X101.236 Y40.032 E1.9501
G1 X103.466 Y40.701 E2.08294
G1 X106.139 Y41.421 E2.2409
G1 X108.757 Y42.047 E2.39449
G1 X111.492 Y42.622 E2.55395
G1 X114.15 Y43.099 E2.70804
G1 X116.841 Y43.506 E2.86333
G1 X119.565 Y43.84 E3.01992
G1 X122.265 Y44.093 E3.17466
G1 X125.001 Y44.271 E3.3311
G1 X127.746 Y44.373 E3.48783
G1 X130.491 Y44.398 E3.64447
G1 X133.2 Y44.344 E3.79907
G1 X135.938 Y44.213 E3.95547
G1 X138.669 Y44.004 E4.11176
G1 X140.798 Y43.79 E4.23385
G1 X141.069 Y43.774 E4.24934
G1 X142.009 Y43.756 E4.30298
G1 X142.067 Y43.755 E4.30629
G1 X150.76 Y43.74 E4.8023
G1 X150.766 Y43.74 E4.80265
G1 X162.051 Y43.739 E5.44655
G1 X162.112 Y43.74 E5.45003
G1 X163.48 Y43.765 E5.5281
G1 X163.663 Y43.773 E5.53855
G1 X163.951 Y43.794 E5.55503
G1 X164.132 Y43.812 E5.56541
G1 X164.546 Y43.865 E5.58922
G1 X164.726 Y43.893 E5.59962
G1 X165.129 Y43.967 E5.623
G1 X165.231 Y43.987 E5.62893
G1 X165.495 Y44.044 E5.64434
G1 X165.682 Y44.091 E5.65534
G1 X166.061 Y44.196 E5.67778
G1 X166.146 Y44.22 E5.68282
G1 X166.375 Y44.29 E5.69648
G1 X166.571 Y44.357 E5.7083
G1 X167.009 Y44.521 E5.73499
G1 X167.116 Y44.563 E5.74155
G1 X167.343 Y44.657 E5.75557
G1 X167.496 Y44.725 E5.76512
G1 X167.825 Y44.881 E5.7859
G1 X167.915 Y44.925 E5.79161
G1 X168.177 Y45.059 E5.8084
G1 X168.349 Y45.154 E5.81961
G1 X168.669 Y45.342 E5.84079
G1 X168.744 Y45.387 E5.84578
G1 X168.975 Y45.531 E5.86131
G1 X169.152 Y45.649 E5.87345
G1 X169.51 Y45.905 E5.89856
G1 X169.578 Y45.955 E5.90338
G1 X169.765 Y46.096 E5.91674
G1 X169.921 Y46.221 E5.92815
G1 X170.266 Y46.515 E5.95401
G1 X170.338 Y46.579 E5.95951
G1 X170.493 Y46.719 E5.97143
G1 X170.64 Y46.859 E5.98301
G1 X170.944 Y47.169 E6.00778
G1 X171.01 Y47.239 E6.01327
G1 X171.147 Y47.387 E6.02478
G1 X171.276 Y47.534 E6.03594
G1 X171.592 Y47.918 E6.06432
G1 X171.656 Y47.999 E6.07021
G1 X171.812 Y48.201 E6.08477
G1 X171.92 Y48.349 E6.09522
G1 X172.108 Y48.622 E6.11414
G1 X172.162 Y48.703 E6.11969
G1 X172.325 Y48.955 E6.13682
G1 X172.427 Y49.122 E6.14798
G1 X172.597 Y49.422 E6.16766
G1 X172.639 Y49.499 E6.17266
G1 X172.777 Y49.758 E6.18941
G1 X172.868 Y49.944 E6.20122
G1 X173.058 Y50.361 E6.22737
G1 X173.101 Y50.458 E6.23342
G1 X173.198 Y50.69 E6.24777
G1 X173.263 Y50.858 E6.25805
G1 X173.382 Y51.192 E6.27828
G1 X173.415 Y51.291 E6.28423
G1 X173.505 Y51.571 E6.30101
G1 X173.556 Y51.746 E6.31142
G1 X173.657 Y52.131 E6.33413
G1 X173.68 Y52.224 E6.33959
G1 X173.735 Y52.461 E6.35347
G1 X173.777 Y52.672 E6.36575
G1 X173.852 Y53.126 E6.39201
G1 X173.866 Y53.221 E6.39749
G1 X173.897 Y53.449 E6.41061
G1 X173.918 Y53.636 E6.42135
G1 X173.951 Y54.054 E6.44528
G1 X173.96 Y54.248 E6.45636
G1 X173.984 Y55.396 E6.52188
G1 X173.985 Y55.465 E6.52581
G1 X173.988 Y63.524 E6.98565
G1 X173.988 Y63.573 E6.98844
G1 X173.979 Y64.198 E7.02411
G1 X173.952 Y64.577 E7.04579
G1 X173.902 Y64.966 E7.06817
G1 X173.751 Y65.615 E7.10619
G1 X173.486 Y66.396 E7.15325
G1 X173.435 Y66.536 E7.16175
G1 X162.653 Y94.204 E8.85608
G1 X148.529 Y130.428 E11.07453
G1 X148.512 Y130.473 E11.07728
G1 X148.282 Y131.039 E11.11214
G1 X148.114 Y131.391 E11.13439
G1 X147.858 Y131.857 E11.16473
G1 X147.575 Y132.29 E11.19425
G1 X147.291 Y132.613 E11.21879
G1 X147.001 Y132.903 E11.24219
G1 X146.608 Y133.239 E11.27169
G1 X146.267 Y133.458 E11.29481
G1 X145.786 Y133.727 E11.32626
G1 X145.317 Y133.944 E11.35575
G1 X144.775 Y134.094 E11.38783
G1 X144.263 Y134.191 E11.41757
G1 X143.693 Y134.25 E11.45027
G1 X143.077 Y134.26 E11.48542
G1 X143.023 Y134.26 E11.4885
G1 X123.687 Y134.261 E12.59179
G1 X123.639 Y134.261 E12.59452
G1 X122.935 Y134.251 E12.6347
G1 X122.559 Y134.224 E12.65621
G1 X122.316 Y134.193 E12.67019
G1 X122.23 Y134.181 E12.67514
G1 X122.003 Y134.146 E12.68825
G1 X121.622 Y134.064 E12.71048
G1 X120.317 Y133.704 E12.78773
G1 X118.531 Y133.23 E12.89316
G1 X115.854 Y132.585 E13.05028
G1 X113.164 Y132.021 E13.2071
G1 X110.523 Y131.542 E13.36025
G1 X107.794 Y131.127 E13.51776
G1 X105.075 Y130.792 E13.67407
G1 X102.376 Y130.536 E13.82876
G1 X99.633 Y130.354 E13.98562
G1 X98.681 Y130.32 E14.03998
G1 X98.634 Y130.318 E14.04266
G1 X97.307 Y130.252 E14.11847
G1 X97.027 Y130.226 E14.13451
G1 X96.454 Y130.149 E14.1675
G1 X95.948 Y130.041 E14.19703
G1 X95.523 Y129.883 E14.2229
G1 X95.126 Y129.704 E14.24775
G1 X94.672 Y129.456 E14.27726
G1 X94.317 Y129.188 E14.30264
G1 X93.92 Y128.846 E14.33254
G1 X93.555 Y128.479 E14.36208
G1 X93.269 Y128.09 E14.38962
G1 X93.029 Y127.708 E14.41537
G1 X92.777 Y127.222 E14.4466
G1 X92.495 Y126.55 E14.48819
G1 X92.463 Y126.471 E14.49305
G1 X67.579 Y62.651 E18.40155
G1 X67.56 Y62.602 E18.40455
G1 X67.333 Y61.992 E18.44169
G1 X67.219 Y61.62 E18.46389
G1 X67.127 Y61.244 E18.48597
G1 X67.034 Y60.6 E18.5231
G1 X66.998 Y59.806 E18.56845
G1 X66.995 Y59.659 E18.57684
G1 X66.99 Y56.249 E18.77141
G1 X66.99 Y56.245 E18.77164
G1 X66.989 Y51.674 E19.03246
G1 X66.99 Y51.612 E19.03599
G1 X67.015 Y50.248 E19.11383
G1 X67.023 Y50.066 E19.12423
G1 X67.044 Y49.777 E19.14076
G1 X67.062 Y49.595 E19.1512
G1 X67.115 Y49.181 E19.17501
G1 X67.143 Y49.001 E19.18541
G1 X67.217 Y48.598 E19.20879
G1 X67.238 Y48.492 E19.21495
G1 X67.296 Y48.225 E19.23054
G1 X67.341 Y48.043 E19.24124
G1 X67.445 Y47.667 E19.2635
G1 X67.469 Y47.585 E19.26837
G1 X67.535 Y47.368 E19.28132
G1 X67.606 Y47.161 E19.2938
G1 X67.778 Y46.705 E19.32161
G1 X67.813 Y46.615 E19.32712
G1 X67.914 Y46.369 E19.34229
G1 X67.987 Y46.203 E19.35264
G1 X68.131 Y45.9 E19.37178
G1 X68.175 Y45.811 E19.37745
G1 X68.302 Y45.563 E19.39335
G1 X68.397 Y45.39 E19.40461
G1 X68.609 Y45.03 E19.42845
G1 X68.658 Y44.95 E19.4338
G1 X68.791 Y44.738 E19.44808
G10
;MESH:bedstand_frontleft.stl
G0 F3600 X69.477 Y50.17
G0 X71.409 Y50.788
G0 X106.714 Y117.147
G0 X107.788 Y118.409
G0 X107.845 Y118.328
;TYPE:WALL-INNER
G11
G1 F1800 X108.563 Y118.72 E19.49475
G1 X109.348 Y118.949 E19.54141
G1 X110.164 Y119.002 E19.58807
G1 X110.972 Y118.879 E19.63471
G1 X111.735 Y118.582 E19.68142
G1 X112.416 Y118.127 E19.72815
G1 X112.98 Y117.537 E19.77473
G1 X113.405 Y116.837 E19.82145
G1 X113.664 Y116.072 E19.86754
G1 X113.752 Y115.391 E19.90672
G1 X113.699 Y114.597 E19.95212
G1 X113.47 Y113.813 E19.99873
G1 X113.078 Y113.095 E20.0454
G1 X112.537 Y112.479 E20.09218
G1 X111.878 Y111.998 E20.13873
G1 X111.13 Y111.667 E20.1854
G1 X110.327 Y111.508 E20.23211
G1 X109.509 Y111.526 E20.2788
G1 X108.715 Y111.721 E20.32545
G1 X107.982 Y112.082 E20.37207
G1 X107.344 Y112.594 E20.41875
G1 X106.832 Y113.232 E20.46542
G1 X106.471 Y113.965 E20.51204
G1 X106.276 Y114.759 E20.55869
G1 X106.258 Y115.577 E20.60538
G1 X106.417 Y116.38 E20.65209
G1 X106.748 Y117.128 E20.69876
G1 X107.229 Y117.787 E20.74531
G1 X107.845 Y118.328 E20.79209
G0 F3600 X108.22 Y117.792
;TYPE:WALL-OUTER
G1 F1800 X108.813 Y118.116 E20.83065
G1 X109.461 Y118.305 E20.86916
G1 X110.136 Y118.349 E20.90776
G1 X110.803 Y118.247 E20.94626
G1 X111.433 Y118.002 E20.98483
G1 X111.995 Y117.626 E21.02341
G1 X112.461 Y117.139 E21.06187
G1 X112.812 Y116.561 E21.10045
G1 X113.028 Y115.925 E21.13878
G1 X113.099 Y115.371 E21.17065
G1 X113.055 Y114.711 E21.20839
G1 X112.866 Y114.063 E21.24691
G1 X112.542 Y113.47 E21.28546
G1 X112.096 Y112.962 E21.32403
G1 X111.551 Y112.564 E21.36254
G1 X110.933 Y112.291 E21.40109
G1 X110.27 Y112.159 E21.43966
G1 X109.595 Y112.174 E21.47819
G1 X108.939 Y112.335 E21.51673
G1 X108.333 Y112.634 E21.55529
G1 X107.806 Y113.056 E21.59381
G1 X107.384 Y113.583 E21.63233
G1 X107.085 Y114.189 E21.67089
G1 X106.924 Y114.845 E21.70943
G1 X106.909 Y115.52 E21.74795
G1 X107.041 Y116.183 E21.78653
G1 X107.314 Y116.801 E21.82508
G1 X107.712 Y117.346 E21.86358
G1 X108.22 Y117.792 E21.90215
G0 F3600 X108.571 Y117.984
G0 X108.202 Y118.66
G0 X107.2 Y117.813
G0 X106.379 Y116.392
G0 X106.223 Y115.347
G0 X107.788 Y92.909
G0 X107.845 Y92.828
;TYPE:WALL-INNER
G1 F1800 X108.563 Y93.22 E21.94883
G1 X109.348 Y93.449 E21.99549
G1 X110.164 Y93.502 E22.04215
G1 X110.972 Y93.379 E22.08878
G1 X111.735 Y93.082 E22.1355
G1 X112.416 Y92.627 E22.18223
G1 X112.98 Y92.037 E22.2288
G1 X113.405 Y91.337 E22.27553
G1 X113.664 Y90.572 E22.32161
G1 X113.752 Y89.891 E22.36079
G1 X113.699 Y89.097 E22.4062
G1 X113.47 Y88.313 E22.4528
G1 X113.078 Y87.595 E22.49948
G1 X112.537 Y86.979 E22.54626
G1 X111.878 Y86.498 E22.59281
G1 X111.13 Y86.167 E22.63948
G1 X110.327 Y86.008 E22.68619
G1 X109.509 Y86.026 E22.73287
G1 X108.715 Y86.221 E22.77952
G1 X107.982 Y86.582 E22.82615
G1 X107.344 Y87.094 E22.87282
G1 X106.832 Y87.732 E22.9195
G1 X106.471 Y88.465 E22.96612
G1 X106.276 Y89.259 E23.01277
G1 X106.258 Y90.077 E23.05946
G1 X106.417 Y90.88 E23.10616
G1 X106.748 Y91.628 E23.15284
G1 X107.229 Y92.287 E23.19939
G1 X107.845 Y92.828 E23.24617
G0 F3600 X108.22 Y92.292
;TYPE:WALL-OUTER
G1 F1800 X108.813 Y92.616 E23.28472
G1 X109.461 Y92.805 E23.32324
G1 X110.136 Y92.849 E23.36183
G1 X110.803 Y92.747 E23.40033
G1 X111.433 Y92.502 E23.4389
G1 X111.995 Y92.126 E23.47749
G1 X112.461 Y91.639 E23.51595
G1 X112.812 Y91.061 E23.55453
G1 X113.028 Y90.425 E23.59286
G1 X113.099 Y89.871 E23.62472
G1 X113.055 Y89.211 E23.66247
G1 X112.866 Y88.563 E23.70098
G1 X112.542 Y87.97 E23.73954
G1 X112.096 Y87.462 E23.77811
G1 X111.551 Y87.064 E23.81662
G1 X110.933 Y86.791 E23.85517
G1 X110.27 Y86.659 E23.89374
G1 X109.595 Y86.674 E23.93226
G1 X108.939 Y86.835 E23.9708
G1 X108.333 Y87.134 E24.00936
G1 X107.806 Y87.556 E24.04788
G1 X107.384 Y88.083 E24.08641
G1 X107.085 Y88.689 E24.12496
G1 X106.924 Y89.345 E24.16351
G1 X106.909 Y90.02 E24.20203
G1 X107.041 Y90.683 E24.2406
G1 X107.314 Y91.301 E24.27915
G1 X107.712 Y91.846 E24.31766
G1 X108.22 Y92.292 E24.35623
G0 F3600 X108.571 Y92.484
G0 X108.202 Y93.16
G0 X107.2 Y92.313
G0 X87.765 Y57.021
G0 X87.669 Y57.045
;TYPE:WALL-INNER
G1 F1800 X87.385 Y56.363 E24.39838
G1 X86.944 Y55.793 E24.4395
G1 X86.371 Y55.356 E24.48062
G1 X85.705 Y55.083 E24.52169
G1 X84.991 Y54.99 E24.56278
G1 X84.277 Y55.089 E24.60391
G1 X83.612 Y55.365 E24.64499
G1 X83.043 Y55.806 E24.68606
G1 X82.606 Y56.379 E24.72718
G1 X82.333 Y57.045 E24.76825
G1 X82.24 Y57.759 E24.80934
G1 X82.339 Y58.473 E24.85046
G1 X82.615 Y59.138 E24.89155
G1 X83.056 Y59.707 E24.93262
G1 X83.629 Y60.144 E24.97374
G1 X84.295 Y60.417 E25.01481
G1 X85.009 Y60.51 E25.05589
G1 X85.723 Y60.411 E25.09702
G1 X86.388 Y60.135 E25.13811
G1 X86.957 Y59.694 E25.17918
G1 X87.394 Y59.121 E25.2203
G1 X87.662 Y58.465 E25.26073
G1 X87.756 Y57.839 E25.29685
G1 X87.669 Y57.045 E25.34243
G0 F3600 X87.033 Y57.209
;TYPE:WALL-OUTER
G1 F1800 X86.818 Y56.692 E25.37438
G1 X86.482 Y56.258 E25.4057
G1 X86.045 Y55.925 E25.43704
G1 X85.537 Y55.717 E25.46837
G1 X84.993 Y55.646 E25.49967
G1 X84.449 Y55.721 E25.531
G1 X83.942 Y55.932 E25.56234
G1 X83.508 Y56.268 E25.59365
G1 X83.175 Y56.705 E25.625
G1 X82.967 Y57.213 E25.65632
G1 X82.896 Y57.757 E25.68763
G1 X82.971 Y58.301 E25.71896
G1 X83.182 Y58.808 E25.75029
G1 X83.518 Y59.242 E25.78161
G1 X83.955 Y59.575 E25.81296
G1 X84.463 Y59.783 E25.84428
G1 X85.007 Y59.854 E25.87559
G1 X85.551 Y59.779 E25.90692
G1 X86.058 Y59.568 E25.93825
G1 X86.492 Y59.232 E25.96957
G1 X86.825 Y58.795 E26.00092
G1 X87.031 Y58.291 E26.03199
G1 X87.101 Y57.826 E26.05882
G1 X87.033 Y57.209 E26.09424
G0 F3600 X86.88 Y56.84
G0 X87.592 Y56.544
G0 X107.788 Y67.409
G0 X107.845 Y67.328
;TYPE:WALL-INNER
G1 F1800 X108.563 Y67.72 E26.14091
G1 X109.348 Y67.949 E26.18757
G1 X110.164 Y68.002 E26.23423
G1 X110.972 Y67.879 E26.28086
G1 X111.735 Y67.582 E26.32758
G1 X112.416 Y67.127 E26.37431
G1 X112.98 Y66.537 E26.42088
G1 X113.405 Y65.837 E26.46761
G1 X113.664 Y65.072 E26.51369
G1 X113.752 Y64.391 E26.55287
G1 X113.699 Y63.597 E26.59828
G1 X113.47 Y62.813 E26.64488
G1 X113.078 Y62.095 E26.69156
G1 X112.537 Y61.479 E26.73834
G1 X111.878 Y60.998 E26.78489
G1 X111.13 Y60.667 E26.83156
G1 X110.327 Y60.508 E26.87827
G1 X109.509 Y60.526 E26.92496
G1 X108.715 Y60.721 E26.97161
G1 X107.982 Y61.082 E27.01823
G1 X107.344 Y61.594 E27.0649
G1 X106.832 Y62.232 E27.11158
G1 X106.471 Y62.965 E27.1582
G1 X106.276 Y63.759 E27.20485
G1 X106.258 Y64.577 E27.25154
G1 X106.417 Y65.38 E27.29825
G1 X106.748 Y66.128 E27.34492
G1 X107.229 Y66.787 E27.39147
G1 X107.845 Y67.328 E27.43825
G0 F3600 X108.22 Y66.792
;TYPE:WALL-OUTER
G1 F1800 X108.813 Y67.116 E27.47681
G1 X109.461 Y67.305 E27.51532
G1 X110.136 Y67.349 E27.55392
G1 X110.803 Y67.247 E27.59242
G1 X111.433 Y67.002 E27.63099
G1 X111.995 Y66.626 E27.66957
G1 X112.461 Y66.139 E27.70803
G1 X112.812 Y65.561 E27.74661
G1 X113.028 Y64.925 E27.78494
G1 X113.099 Y64.371 E27.81681
G1 X113.055 Y63.711 E27.85455
G1 X112.866 Y63.063 E27.89306
G1 X112.542 Y62.47 E27.93162
G1 X112.096 Y61.962 E27.97019
G1 X111.551 Y61.564 E28.0087
G1 X110.933 Y61.291 E28.04725
G1 X110.27 Y61.159 E28.08582
G1 X109.595 Y61.174 E28.12435
G1 X108.939 Y61.335 E28.16289
G1 X108.333 Y61.634 E28.20144
G1 X107.806 Y62.056 E28.23997
G1 X107.384 Y62.583 E28.27849
G1 X107.085 Y63.189 E28.31705
G1 X106.924 Y63.845 E28.35559
G1 X106.909 Y64.52 E28.39411
G1 X107.041 Y65.183 E28.43268
G1 X107.314 Y65.801 E28.47123
G1 X107.712 Y66.346 E28.50974
G1 X108.22 Y66.792 E28.54831
G0 F3600 X108.571 Y66.984
G0 X108.202 Y67.66
G0 X107.2 Y66.813
G0 X106.379 Y65.392
G0 X106.228 Y64.113
G0 X107.766 Y48.088
G0 X107.808 Y47.998
;TYPE:WALL-INNER
G1 F1800 X118.196 Y52.931 E29.20447
G1 X118.393 Y53.061 E29.21794
G1 X118.512 Y53.204 E29.22856
G1 X118.587 Y53.386 E29.23979
G1 X118.61 Y53.578 E29.25082
G1 X118.611 Y125.173 E33.33594
G1 X118.577 Y125.411 E33.34966
G1 X118.497 Y125.584 E33.36053
G1 X118.376 Y125.716 E33.37075
G1 X118.217 Y125.808 E33.38123
G1 X117.997 Y125.857 E33.39409
G1 X97.441 Y125.861 E34.56699
G1 X97.192 Y125.823 E34.58136
G1 X97.033 Y125.748 E34.59139
G1 X96.899 Y125.626 E34.60173
G1 X96.782 Y125.43 E34.61476
G1 X71.458 Y60.483 E38.59229
G1 X71.396 Y60.212 E38.60815
G1 X71.39 Y56.1 E38.84278
G1 X71.389 Y50.788 E39.14588
G1 X71.406 Y50.31 E39.17317
G1 X71.472 Y49.722 E39.20693
G1 X71.582 Y49.177 E39.23865
G1 X71.749 Y48.606 E39.2726
G1 X71.953 Y48.087 E39.30442
G1 X72.216 Y47.556 E39.33823
G1 X72.514 Y47.066 E39.37095
G1 X72.855 Y46.602 E39.40381
G1 X73.233 Y46.172 E39.43647
G1 X73.658 Y45.768 E39.46993
G1 X74.1 Y45.415 E39.50221
G1 X74.586 Y45.092 E39.5355
G1 X75.082 Y44.82 E39.56778
G1 X75.621 Y44.585 E39.60133
G1 X76.161 Y44.402 E39.63387
G1 X76.729 Y44.265 E39.6672
G1 X77.292 Y44.179 E39.6997
G1 X77.882 Y44.142 E39.73343
G1 X99.47 Y44.139 E40.96521
G1 X99.73 Y44.179 E40.98022
