;FLAVOR:Marlin
;TIME:16508
;Filament used: 7.79534m
;Layer height: 0.4
;MINX:4.522
;MINY:92.633
;MINZ:0.52
;MAXX:169.901
;MAXY:134.892
;MAXZ:39.72
;Generated with Cura_SteamEngine 4.1.0
M82 ;absolute extrusion mode
M98 P0:/sys/startprint.g

G92 E0
G92 E0
G10
;LAYER_COUNT:99
;LAYER:0
M107
G0 F3600 X26.51 Y92.789 Z0.52
;TYPE:SKIRT
M220 S50
G11
G1 F1800 X27.016 Y92.682 E0.02951
G1 X27.39 Y92.654 E0.05091
G1 X28.429 Y92.634 E0.1102
G1 X28.495 Y92.633 E0.11397
G1 X30.659 Y92.634 E0.23745
G1 X30.704 Y92.634 E0.24001
G1 X31.347 Y92.643 E0.27671
G1 X31.862 Y92.69 E0.30621
G1 X32.364 Y92.816 E0.33575
G1 X32.84 Y93.018 E0.36525
G1 X33.106 Y93.171 E0.38276
G1 X33.745 Y93.58 E0.42605
G1 X33.816 Y93.627 E0.43091
G1 X34.901 Y94.361 E0.50565
G1 X37.173 Y95.806 E0.65929
G1 X39.528 Y97.211 E0.81576
G1 X41.917 Y98.546 E0.97191
G1 X44.339 Y99.813 E1.12787
G1 X46.81 Y101.017 E1.28471
G1 X49.275 Y102.131 E1.43906
G1 X51.814 Y103.195 E1.59614
G1 X54.399 Y104.195 E1.75428
G1 X56.927 Y105.087 E1.90724
G1 X59.561 Y105.935 E2.06513
G1 X62.169 Y106.695 E2.22013
G1 X64.799 Y107.382 E2.37523
G1 X67.47 Y107.999 E2.53165
G1 X70.172 Y108.544 E2.68893
G1 X72.862 Y109.005 E2.84465
G1 X75.552 Y109.389 E2.9997
G1 X78.255 Y109.699 E3.15494
G1 X81.015 Y109.935 E3.31299
G1 X83.69 Y110.088 E3.46587
G1 X86.469 Y110.169 E3.62451
G1 X89.179 Y110.171 E3.77914
G1 X91.922 Y110.095 E3.93571
G1 X94.661 Y109.942 E4.09224
G1 X97.364 Y109.714 E4.24701
G1 X100.091 Y109.406 E4.4036
G1 X102.807 Y109.021 E4.56012
G1 X105.49 Y108.563 E4.71543
G1 X108.151 Y108.032 E4.87025
G1 X110.821 Y107.419 E5.02656
G1 X113.472 Y106.731 E5.18284
G1 X116.114 Y105.965 E5.33979
G1 X118.711 Y105.132 E5.49541
G1 X121.284 Y104.226 E5.65106
G1 X123.831 Y103.246 E5.80677
G1 X126.359 Y102.193 E5.96303
G1 X128.861 Y101.064 E6.11965
G1 X131.308 Y99.877 E6.27484
G1 X133.745 Y98.607 E6.43164
G1 X136.121 Y97.283 E6.58684
G1 X138.479 Y95.88 E6.7434
G1 X140.462 Y94.629 E6.87718
G1 X141.283 Y94.097 E6.933
G1 X141.737 Y93.851 E6.96246
G1 X142.224 Y93.677 E6.99197
G1 X142.732 Y93.58 E7.02148
G1 X143.024 Y93.56 E7.03818
G1 X143.526 Y93.548 E7.06683
G1 X143.605 Y93.547 E7.07134
G1 X146.257 Y93.546 E7.22266
G1 X146.306 Y93.546 E7.22545
G1 X147.007 Y93.556 E7.26545
G1 X147.522 Y93.604 E7.29497
G1 X148.024 Y93.73 E7.3245
G1 X148.5 Y93.931 E7.35398
G1 X148.94 Y94.204 E7.38353
G1 X149.332 Y94.541 E7.41302
G1 X149.621 Y94.872 E7.4381
G1 X149.932 Y95.279 E7.46732
G1 X151.608 Y97.413 E7.62215
G1 X153.375 Y99.537 E7.7798
G1 X155.186 Y101.592 E7.93609
G1 X157.021 Y103.56 E8.08962
G1 X158.962 Y105.526 E8.24726
G1 X160.958 Y107.437 E8.40493
G1 X162.957 Y109.245 E8.55872
G1 X165.057 Y111.041 E8.71639
G1 X167.162 Y112.738 E8.87067
G1 X168.461 Y113.737 E8.96417
G1 X168.562 Y113.814 E8.97142
G1 X168.949 Y114.157 E9.00092
G1 X169.278 Y114.556 E9.03043
G1 X169.542 Y115.001 E9.05995
G1 X169.735 Y115.481 E9.08947
G1 X169.851 Y115.985 E9.11898
G1 X169.888 Y116.429 E9.14441
G1 X169.901 Y117.242 E9.1908
G1 X169.901 Y119.5 E9.31964
G1 X169.891 Y120.185 E9.35873
G1 X169.816 Y120.843 E9.39652
G1 X169.753 Y121.135 E9.41356
G1 X169.505 Y121.864 E9.4575
G1 X169.412 Y122.06 E9.46988
G1 X169.195 Y122.448 E9.49524
G1 X169.01 Y122.733 E9.51463
G1 X168.618 Y123.227 E9.55061
G1 X168.199 Y123.664 E9.58516
G1 X168.152 Y123.712 E9.58899
G1 X158.514 Y133.37 E10.36752
G1 X158.478 Y133.406 E10.37042
G1 X157.941 Y133.928 E10.41315
G1 X157.543 Y134.259 E10.44269
G1 X157.099 Y134.525 E10.47222
G1 X156.62 Y134.719 E10.50171
G1 X156.116 Y134.837 E10.53125
G1 X155.695 Y134.875 E10.55537
G1 X155.166 Y134.889 E10.58556
G1 X155.077 Y134.89 E10.59064
G1 X98.738 Y134.891 E13.80527
G1 X90.778 Y134.892 E14.25946
G1 X90.731 Y134.892 E14.26214
G1 X90.017 Y134.882 E14.30288
G1 X89.638 Y134.855 E14.32456
G1 X88.787 Y134.746 E14.37351
G1 X86.091 Y134.439 E14.52834
G1 X83.358 Y134.206 E14.68485
G1 X80.617 Y134.051 E14.84149
G1 X77.861 Y133.973 E14.99881
G1 X76.465 Y133.963 E15.07847
G1 X19.513 Y133.978 E18.32807
G1 X19.463 Y133.978 E18.33093
G1 X18.773 Y133.968 E18.3703
G1 X18.258 Y133.92 E18.39981
G1 X17.757 Y133.794 E18.42929
G1 X17.28 Y133.592 E18.45885
G1 X16.841 Y133.319 E18.48834
G1 X16.511 Y133.043 E18.51289
G1 X16.109 Y132.66 E18.54457
G1 X16.051 Y132.604 E18.54917
G1 X6.578 Y123.129 E19.31366
G1 X6.544 Y123.094 E19.31644
G1 X6.033 Y122.568 E19.35829
G1 X5.909 Y122.433 E19.36875
G1 X5.775 Y122.279 E19.38039
G1 X5.715 Y122.208 E19.3857
G1 X5.539 Y121.994 E19.40151
G1 X5.162 Y121.428 E19.44031
G1 X4.977 Y121.077 E19.46295
G1 X4.772 Y120.602 E19.49247
G1 X4.659 Y120.189 E19.5169
G1 X4.598 Y119.892 E19.5342
G1 X4.531 Y119.315 E19.56735
G1 X4.523 Y119.038 E19.58316
G1 X4.522 Y118.941 E19.58869
G1 X4.522 Y116.195 E19.74538
G1 X4.532 Y115.524 E19.78367
G1 X4.58 Y115.009 E19.81318
G1 X4.706 Y114.507 E19.84271
G1 X4.908 Y114.031 E19.87221
G1 X5.181 Y113.592 E19.90171
G1 X5.519 Y113.2 E19.93125
G1 X5.842 Y112.916 E19.95579
G1 X6.229 Y112.619 E19.98362
G1 X6.229 Y112.62 E19.98368
G1 X8.375 Y110.936 E20.13933
G1 X10.495 Y109.172 E20.29669
G1 X12.547 Y107.363 E20.45278
G1 X14.553 Y105.494 E20.60922
G1 X16.458 Y103.613 E20.76197
G1 X18.396 Y101.59 E20.92182
G1 X20.204 Y99.592 E21.07557
G1 X21.981 Y97.513 E21.23162
G1 X23.715 Y95.366 E21.38909
G1 X24.406 Y94.46 E21.45411
G1 X24.437 Y94.42 E21.457
G1 X24.822 Y93.931 E21.49251
G1 X25.172 Y93.55 E21.52203
G1 X25.577 Y93.228 E21.55155
G1 X26.027 Y92.972 E21.58109
G1 X26.51 Y92.789 E21.61056
G10
;MESH:bedstand_rearleft_16mmtall.stl
G0 F3600 X31.629 Y95.103
G0 X31.347 Y97.435
G0 X54.266 Y120.394
G0 X74.387 Y128.088
G0 X74.457 Y128.018
;TYPE:WALL-INNER
G11
G1 F1800 X82.257 Y128.018 E22.05562
G1 X82.257 Y123.418 E22.31809
G1 X74.457 Y123.418 E22.76315
G1 X74.457 Y128.018 E23.02562
G0 F3600 X75.107 Y127.368
;TYPE:WALL-OUTER
G1 F1800 X81.607 Y127.368 E23.3965
G1 X81.607 Y124.068 E23.58479
G1 X75.107 Y124.068 E23.95567
G1 X75.107 Y127.368 E24.14397
G0 F3600 X75.507 Y127.368
G0 X75.507 Y128.138
G0 X49.887 Y128.088
G0 X49.957 Y128.018
;TYPE:WALL-INNER
G1 F1800 X57.757 Y128.018 E24.58902
G1 X57.757 Y123.418 E24.85149
G1 X49.957 Y123.418 E25.29655
G1 X49.957 Y128.018 E25.55902
G0 F3600 X50.607 Y127.368
;TYPE:WALL-OUTER
G1 F1800 X57.107 Y127.368 E25.9299
G1 X57.107 Y124.068 E26.1182
G1 X50.607 Y124.068 E26.48908
G1 X50.607 Y127.368 E26.67737
G0 F3600 X51.007 Y127.368
G0 X51.007 Y128.138
G0 X49.929 Y128.046
G0 X28.316 Y116.427
G0 X28.246 Y116.357
;TYPE:WALL-INNER
G1 F1800 X28.248 Y97.381 E27.76012
G1 X28.248 Y97.032 E27.78003
G1 X28.597 Y97.032 E27.79291
G1 X30.951 Y97.034 E27.92723
G1 X31.036 Y97.101 E27.9334
G1 X31.361 Y97.421 E27.95943
G1 X34.462 Y100.537 E28.21026
G1 X54.281 Y120.358 E29.8096
G1 X84.266 Y120.357 E31.52051
G1 X84.291 Y120.362 E31.52196
G1 X84.292 Y129.561 E32.04685
G1 X24.766 Y129.577 E35.44332
G1 X19.249 Y129.578 E35.75811
G1 X9.202 Y119.529 E36.56892
G1 X8.995 Y119.285 E36.58718
G1 X8.921 Y119.142 E36.59636
G1 X8.922 Y116.358 E36.75522
G1 X28.246 Y116.357 E37.85782
G0 F3600 X27.596 Y115.707
;TYPE:WALL-OUTER
G1 F1800 X27.596 Y97.032 E38.92339
G1 X27.596 Y96.996 E38.92544
G1 X27.655 Y96.577 E38.94959
G1 X27.731 Y96.382 E38.96153
G1 X27.767 Y96.382 E38.96358
G1 X31.179 Y96.384 E39.15827
G1 X31.468 Y96.614 E39.17934
G1 X31.817 Y96.957 E39.20726
G1 X34.922 Y100.078 E39.45846
G1 X54.55 Y119.708 E41.04239
G1 X84.322 Y119.707 E42.74114
G1 X84.633 Y119.762 E42.75916
G1 X84.941 Y119.933 E42.77926
G1 X84.942 Y129.984 E43.35276
G1 X84.768 Y130.114 E43.36515
G1 X84.486 Y130.211 E43.38216
G1 X24.766 Y130.227 E46.78971
G1 X18.979 Y130.228 E47.11991
G1 X8.728 Y119.975 E47.94717
G1 X8.451 Y119.648 E47.97163
G1 X8.294 Y119.346 E47.99105
G1 X8.271 Y119.224 E47.99813
G1 X8.272 Y115.842 E48.19111
G1 X8.474 Y115.763 E48.20348
G1 X8.882 Y115.708 E48.22697
G1 X27.596 Y115.707 E49.29477
G0 F3600 X27.596 Y115.307
G0 X28.366 Y115.307
G0 X28.936 Y117.047
;TYPE:SKIN
G1 F1800 X28.938 Y97.722 E50.39743
G1 X30.685 Y97.724 E50.49711
G1 X33.973 Y101.024 E50.76291
G1 X53.995 Y121.048 E52.37863
G1 X83.601 Y121.047 E54.06791
G1 X83.602 Y128.871 E54.51434
G1 X24.766 Y128.887 E57.87144
G1 X19.534 Y128.888 E58.16997
G1 X9.713 Y119.065 E58.96254
G1 X9.611 Y118.944 E58.97157
G1 X9.612 Y117.048 E59.07976
G1 X28.936 Y117.047 E60.18236
G0 F3600 X49.267 Y122.728
G1 F1800 X49.267 Y128.708 E60.52357
G1 X58.447 Y128.708 E61.04737
G1 X58.447 Y122.728 E61.38858
G1 X49.267 Y122.728 E61.91238
G0 F3600 X73.767 Y122.728
G1 F1800 X73.767 Y128.708 E62.25359
G1 X82.947 Y128.708 E62.77739
G1 X82.947 Y122.728 E63.1186
G1 X73.767 Y122.728 E63.6424
G0 F3600 X83.286 Y121.894
G1 F1800 X82.753 Y121.361 E63.68541
G0 F3600 X81.763 Y121.361
G1 F1800 X82.814 Y122.412 E63.77021
G0 F3600 X81.824 Y122.412
G1 F1800 X80.773 Y121.361 E63.85502
G0 F3600 X79.783 Y121.361
G1 F1800 X80.834 Y122.412 E63.93983
G0 F3600 X79.844 Y122.412
G1 F1800 X78.793 Y121.361 E64.02464
G0 F3600 X77.803 Y121.361
G1 F1800 X78.854 Y122.412 E64.10945
G0 F3600 X77.864 Y122.412
G1 F1800 X76.813 Y121.361 E64.19426
G0 F3600 X75.823 Y121.361
G1 F1800 X76.874 Y122.412 E64.27907
G0 F3600 X75.884 Y122.412
G1 F1800 X74.833 Y121.361 E64.36387
G0 F3600 X73.843 Y121.361
G1 F1800 X74.894 Y122.412 E64.44868
G0 F3600 X73.904 Y122.412
G1 F1800 X72.853 Y121.361 E64.53349
G0 F3600 X71.863 Y121.361
G1 F1800 X73.452 Y122.949 E64.66167
G0 F3600 X73.452 Y123.939
G1 F1800 X70.874 Y121.361 E64.8697
G0 F3600 X69.884 Y121.361
G1 F1800 X73.452 Y124.929 E65.15761
G0 F3600 X73.452 Y125.919
G1 F1800 X68.894 Y121.361 E65.52541
G0 F3600 X67.904 Y121.362
G1 F1800 X73.452 Y126.909 E65.97306
G0 F3600 X73.452 Y127.899
G1 F1800 X66.914 Y121.362 E66.50059
G0 F3600 X65.924 Y121.362
G1 F1800 X73.121 Y128.558 E67.0813
G0 F3600 X72.131 Y128.558
G1 F1800 X64.935 Y121.362 E67.66197
G0 F3600 X63.945 Y121.362
G1 F1800 X71.141 Y128.558 E68.24263
G0 F3600 X70.152 Y128.559
G1 F1800 X62.955 Y121.362 E68.82338
G0 F3600 X61.965 Y121.362
G1 F1800 X69.162 Y128.559 E69.40413
G0 F3600 X68.172 Y128.559
G1 F1800 X60.975 Y121.362 E69.98488
G0 F3600 X59.985 Y121.362
G1 F1800 X67.182 Y128.559 E70.56563
G0 F3600 X66.192 Y128.559
G1 F1800 X58.995 Y121.362 E71.14638
G0 F3600 X58.005 Y121.362
G1 F1800 X65.203 Y128.559 E71.72717
G0 F3600 X64.213 Y128.56
G1 F1800 X58.761 Y123.108 E72.16711
G0 F3600 X58.065 Y122.412
G1 F1800 X57.015 Y121.362 E72.25183
G0 F3600 X56.025 Y121.362
G1 F1800 X57.075 Y122.412 E72.33656
G0 F3600 X56.085 Y122.412
G1 F1800 X55.035 Y121.362 E72.42129
G0 F3600 X54.045 Y121.362
G1 F1800 X55.095 Y122.412 E72.50602
G0 F3600 X54.105 Y122.412
G1 F1800 X29.731 Y98.037 E74.47287
G0 F3600 X29.252 Y98.548
G1 F1800 X53.115 Y122.412 E76.39849
G0 F3600 X52.125 Y122.412
G1 F1800 X29.252 Y99.538 E78.24423
G0 F3600 X29.252 Y100.528
G1 F1800 X51.135 Y122.412 E80.01008
G0 F3600 X50.145 Y122.412
G1 F1800 X29.252 Y101.518 E81.69604
G0 F3600 X29.252 Y102.508
G1 F1800 X49.155 Y122.412 E83.30212
G0 F3600 X48.952 Y123.198
G1 F1800 X29.252 Y103.498 E84.89177
G0 F3600 X29.252 Y104.488
G1 F1800 X48.952 Y124.188 E86.48143
G0 F3600 X48.952 Y125.178
G1 F1800 X29.252 Y105.478 E88.07108
G0 F3600 X29.252 Y106.468
G1 F1800 X48.952 Y126.168 E89.66074
G0 F3600 X48.952 Y127.158
G1 F1800 X29.252 Y107.458 E91.2504
G0 F3600 X29.251 Y108.447
G1 F1800 X48.952 Y128.148 E92.84013
G0 F3600 X48.378 Y128.564
G1 F1800 X29.251 Y109.437 E94.38355
G0 F3600 X29.251 Y110.427
G1 F1800 X47.388 Y128.564 E95.84708
G0 F3600 X46.398 Y128.564
G1 F1800 X29.251 Y111.417 E97.23073
G0 F3600 X29.251 Y112.407
G1 F1800 X45.408 Y128.564 E98.53449
G0 F3600 X44.419 Y128.564
G1 F1800 X29.251 Y113.397 E99.7584
G0 F3600 X29.251 Y114.387
G1 F1800 X43.429 Y128.565 E100.90247
G0 F3600 X42.439 Y128.565
G1 F1800 X29.251 Y115.377 E101.96665
G0 F3600 X29.251 Y116.367
G1 F1800 X41.45 Y128.566 E102.95103
G0 F3600 X40.46 Y128.566
G1 F1800 X29.251 Y117.357 E103.85552
G0 F3600 X28.266 Y117.362
G1 F1800 X39.47 Y128.566 E104.7596
G0 F3600 X38.481 Y128.566
G1 F1800 X27.276 Y117.362 E105.66373
G0 F3600 X26.286 Y117.362
G1 F1800 X37.491 Y128.566 E106.56786
G0 F3600 X36.502 Y128.567
G1 F1800 X25.296 Y117.362 E107.47206
G0 F3600 X24.306 Y117.362
G1 F1800 X35.512 Y128.567 E108.37627
G0 F3600 X34.522 Y128.567
G1 F1800 X23.316 Y117.362 E109.28048
G0 F3600 X22.326 Y117.362
G1 F1800 X33.533 Y128.568 E110.18477
G0 F3600 X32.543 Y128.568
G1 F1800 X21.336 Y117.362 E111.08905
G0 F3600 X20.346 Y117.362
G1 F1800 X31.553 Y128.568 E111.99334
G0 F3600 X30.563 Y128.568
G1 F1800 X19.357 Y117.362 E112.89759
G0 F3600 X18.367 Y117.362
G1 F1800 X29.574 Y128.569 E113.80192
G0 F3600 X28.584 Y128.569
G1 F1800 X17.377 Y117.362 E114.70625
G0 F3600 X16.387 Y117.362
G1 F1800 X27.594 Y128.569 E115.61057
G0 F3600 X26.605 Y128.57
G1 F1800 X15.397 Y117.362 E116.51498
G0 F3600 X14.407 Y117.362
G1 F1800 X25.615 Y128.57 E117.41939
G0 F3600 X24.626 Y128.571
G1 F1800 X13.417 Y117.362 E118.32388
G0 F3600 X12.427 Y117.362
G1 F1800 X23.636 Y128.571 E119.22837
G0 F3600 X22.646 Y128.571
G1 F1800 X11.437 Y117.362 E120.13286
G0 F3600 X10.447 Y117.362
G1 F1800 X21.657 Y128.571 E121.03739
G0 F3600 X20.667 Y128.571
G1 F1800 X9.926 Y117.83 E121.90412
G0 F3600 X9.925 Y118.82
G1 F1800 X19.677 Y128.571 E122.691
G1 X19.8 Y128.694
G0 F3600 X58.761 Y128.058
G1 F1800 X59.264 Y128.561 E122.73159
G0 F3600 X60.254 Y128.561
G1 F1800 X58.761 Y127.068 E122.85206
G0 F3600 X58.761 Y126.078
G1 F1800 X61.244 Y128.561 E123.05242
G0 F3600 X62.233 Y128.56
G1 F1800 X58.761 Y125.088 E123.33259
G0 F3600 X58.761 Y124.098
G1 F1800 X63.223 Y128.56 E123.69264
G1 X63.346 Y128.683
G10
;MESH:bedstand_rearright_16mmtall.stl
G0 F3600 X84.291 Y129.001
G0 X86.225 Y129
G0 X88.198 Y129.001
G0 X90.152 Y129.001
G0 X92.095 Y129.001
G0 X92.165 Y128.931
;TYPE:WALL-INNER
G11
G1 F1800 X99.965 Y128.931 E124.1377
G1 X99.965 Y124.331 E124.40017
G1 X92.165 Y124.331 E124.84523
G1 X92.165 Y128.931 E125.1077
G0 F3600 X92.815 Y128.281
;TYPE:WALL-OUTER
G1 F1800 X99.315 Y128.281 E125.47858
G1 X99.315 Y124.981 E125.66687
G1 X92.815 Y124.981 E126.03775
G1 X92.815 Y128.281 E126.22605
G0 F3600 X93.215 Y128.281
G0 X93.215 Y129.051
G0 X116.595 Y129.001
G0 X116.665 Y128.931
;TYPE:WALL-INNER
G1 F1800 X124.465 Y128.931 E126.6711
G1 X124.465 Y124.331 E126.93357
G1 X116.665 Y124.331 E127.37863
G1 X116.665 Y128.931 E127.6411
G0 F3600 X117.315 Y128.281
;TYPE:WALL-OUTER
G1 F1800 X123.815 Y128.281 E128.01198
G1 X123.815 Y124.981 E128.20028
G1 X117.315 Y124.981 E128.57116
G1 X117.315 Y128.281 E128.75945
G0 F3600 X117.715 Y128.281
G0 X117.715 Y129.051
G0 X124.493 Y128.959
G0 X146.106 Y117.34
G0 X146.176 Y117.27
;TYPE:WALL-INNER
G1 F1800 X165.484 Y117.27 E129.86114
G1 X165.501 Y117.273 E129.86213
G1 X165.501 Y120.036 E130.01978
G1 X165.49 Y120.085 E130.02264
G1 X165.376 Y120.265 E130.0348
G1 X155.173 Y130.49 E130.859
G1 X98.728 Y130.491 E134.07968
G1 X90.495 Y130.492 E134.54944
G1 X90.16 Y130.492 E134.56856
G1 X90.132 Y130.487 E134.57018
G1 X90.132 Y130.152 E134.5893
G1 X90.132 Y121.285 E135.09524
G1 X93.906 Y121.271 E135.31058
G1 X120.141 Y121.271 E136.80751
G1 X142.983 Y98.429 E138.65071
G1 X143.317 Y98.074 E138.67852
G1 X143.472 Y97.947 E138.68995
G1 X145.825 Y97.946 E138.82421
G1 X146.174 Y97.946 E138.84412
G1 X146.174 Y98.295 E138.857
G1 X146.176 Y117.27 E139.93969
G0 F3600 X146.826 Y116.62
;TYPE:WALL-OUTER
G1 F1800 X165.533 Y116.62 E141.00709
G1 X165.989 Y116.688 E141.0334
G1 X166.151 Y116.753 E141.04336
G1 X166.151 Y120.113 E141.23507
G1 X166.098 Y120.338 E141.24826
G1 X165.887 Y120.673 E141.27085
G1 X155.442 Y131.14 E142.11458
G1 X98.728 Y131.141 E145.35061
G1 X90.122 Y131.142 E145.84165
G1 X90.101 Y131.142 E145.84285
G1 X89.789 Y131.086 E145.86094
G1 X89.482 Y130.916 E145.88096
G1 X89.482 Y130.895 E145.88216
G1 X89.482 Y120.863 E146.45457
G1 X89.654 Y120.735 E146.46681
G1 X89.936 Y120.636 E146.48386
G1 X93.904 Y120.621 E146.71027
G1 X119.872 Y120.621 E148.19197
G1 X142.517 Y97.976 E150.01927
G1 X142.878 Y97.594 E150.04926
G1 X143.239 Y97.298 E150.07589
G1 X144.125 Y97.296 E150.12645
G1 X146.692 Y97.296 E150.27292
G1 X146.768 Y97.491 E150.28486
G1 X146.825 Y97.907 E150.30882
G1 X146.826 Y116.62 E151.37656
G0 F3600 X147.226 Y116.62
G0 X147.226 Y117.39
G0 X145.486 Y117.96
;TYPE:SKIN
G1 F1800 X164.811 Y117.96 E152.47922
