;FLAVOR:Marlin
;TIME:10697
;Filament used: 5.41277m
;Layer height: 0.4
;MINX:50.177
;MINY:37.64
;MINZ:0.52
;MAXX:141.961
;MAXY:135.882
;MAXZ:46.92
;Generated with Cura_SteamEngine 4.1.0
M82 ;absolute extrusion mode
M98 P0:/sys/startprint.g

G92 E0
G92 E0
G10
;LAYER_COUNT:117
;LAYER:0
M107
G0 F3600 X56.558 Y47.412 Z0.52
;TYPE:SKIRT
G11
G1 F1800 X56.906 Y47.029 E0.02953
G1 X57.31 Y46.705 E0.05908
G1 X57.758 Y46.447 E0.08857
G1 X58.467 Y46.201 E0.13139
G1 X58.93 Y46.097 E0.15847
G1 X59.332 Y46.032 E0.18171
G1 X59.905 Y45.975 E0.21456
G1 X60.315 Y45.96 E0.23797
G1 X60.874 Y45.973 E0.26988
G1 X61.093 Y45.985 E0.28239
G1 X61.295 Y46.003 E0.29396
G1 X61.555 Y46.037 E0.30892
G1 X61.81 Y46.08 E0.32368
G1 X61.907 Y46.097 E0.3293
G1 X62.294 Y46.174 E0.35181
G1 X62.792 Y46.314 E0.38133
G1 X63.262 Y46.529 E0.41082
G1 X63.653 Y46.782 E0.43739
G1 X64.273 Y47.248 E0.48165
G1 X64.317 Y47.282 E0.48482
G1 X65.328 Y48.068 E0.55789
G1 X67.511 Y49.669 E0.71236
G1 X69.762 Y51.223 E0.86843
G1 X72.091 Y52.737 E1.02693
G1 X74.369 Y54.128 E1.17923
G1 X76.796 Y55.516 E1.33876
G1 X79.18 Y56.792 E1.49304
G1 X81.624 Y58.012 E1.6489
G1 X84.091 Y59.158 E1.80411
G1 X86.636 Y60.254 E1.96222
G1 X89.166 Y61.261 E2.11759
G1 X91.743 Y62.199 E2.27407
G1 X94.295 Y63.048 E2.42753
G1 X96.946 Y63.85 E2.58556
G1 X99.577 Y64.564 E2.74112
G1 X102.227 Y65.204 E2.89667
G1 X104.925 Y65.776 E3.05403
G1 X107.583 Y66.259 E3.20818
G1 X111.333 Y66.813 E3.42447
G1 X112.287 Y66.936 E3.47936
G1 X112.383 Y66.949 E3.48488
G1 X112.604 Y66.984 E3.49765
G1 X113.107 Y67.104 E3.52716
G1 X113.432 Y67.228 E3.54701
G1 X113.899 Y67.434 E3.57613
G1 X114.406 Y67.712 E3.60912
G1 X115.154 Y68.211 E3.66043
G1 X117.423 Y69.687 E3.81488
G1 X119.8 Y71.139 E3.97381
G1 X122.155 Y72.489 E4.12869
G1 X124.584 Y73.791 E4.28594
G1 X127.013 Y75.006 E4.44091
G1 X129.49 Y76.159 E4.59681
G1 X132.002 Y77.241 E4.75287
G1 X134.54 Y78.252 E4.90875
G1 X137.074 Y79.179 E5.06271
G1 X138.321 Y79.587 E5.13757
G1 X138.375 Y79.606 E5.14084
G1 X139.697 Y80.064 E5.22067
G1 X140.171 Y80.27 E5.25016
G1 X140.608 Y80.547 E5.27968
G1 X140.997 Y80.888 E5.3092
G1 X141.328 Y81.285 E5.33869
G1 X141.595 Y81.728 E5.3682
G1 X141.79 Y82.207 E5.39771
G1 X141.91 Y82.711 E5.42727
G1 X141.949 Y83.129 E5.45123
G1 X141.959 Y83.464 E5.47035
G1 X141.96 Y83.564 E5.47606
G1 X141.96 Y85.223 E5.57072
G1 X141.95 Y85.928 E5.61095
G1 X141.947 Y86.02 E5.6162
G1 X141.905 Y87.021 E5.67337
G1 X141.902 Y87.074 E5.67639
G1 X141.863 Y87.743 E5.71463
G1 X141.783 Y90.518 E5.87304
G1 X141.781 Y93.23 E6.02778
G1 X141.857 Y95.993 E6.18549
G1 X141.954 Y97.965 E6.29815
G1 X141.958 Y98.098 E6.30574
G1 X141.96 Y98.315 E6.31812
G1 X141.96 Y98.345 E6.31983
G1 X141.961 Y101.848 E6.51971
G1 X141.961 Y101.894 E6.52233
G1 X141.952 Y102.561 E6.5604
G1 X141.905 Y103.076 E6.5899
G1 X141.779 Y103.578 E6.61944
G1 X141.578 Y104.055 E6.64897
G1 X141.305 Y104.494 E6.67847
G1 X140.969 Y104.887 E6.70797
G1 X140.575 Y105.223 E6.73752
G1 X140.135 Y105.495 E6.76703
G1 X139.676 Y105.689 E6.79546
G1 X135.775 Y107.009 E7.03045
G1 X133.177 Y107.971 E7.18852
G1 X130.659 Y108.986 E7.34343
G1 X128.154 Y110.079 E7.49937
G1 X125.695 Y111.236 E7.65444
G1 X123.225 Y112.484 E7.81234
G1 X120.853 Y113.767 E7.96621
G1 X118.478 Y115.143 E8.12283
G1 X116.636 Y116.279 E8.24631
G1 X115.332 Y117.09 E8.33393
G1 X115.204 Y117.165 E8.3424
G1 X114.898 Y117.337 E8.36243
G1 X114.429 Y117.555 E8.39194
G1 X114.077 Y117.665 E8.41298
G1 X113.875 Y117.716 E8.42487
G1 X113.74 Y117.747 E8.43277
G1 X113.443 Y117.809 E8.45008
G1 X113.244 Y117.845 E8.46162
G1 X112.351 Y117.976 E8.51312
G1 X112.31 Y117.981 E8.51548
G1 X111.331 Y118.112 E8.57183
G1 X108.601 Y118.556 E8.72965
G1 X105.915 Y119.072 E8.88571
G1 X103.242 Y119.664 E9.04193
G1 X100.641 Y120.317 E9.19494
G1 X97.96 Y121.072 E9.35387
G1 X95.343 Y121.889 E9.5103
G1 X92.785 Y122.768 E9.66463
G1 X90.2 Y123.738 E9.82217
G1 X87.686 Y124.766 E9.97714
G1 X85.183 Y125.872 E10.13328
G1 X82.728 Y127.04 E10.28841
G1 X80.28 Y128.291 E10.44527
G1 X77.883 Y129.603 E10.60119
G1 X75.505 Y130.993 E10.75835
G1 X73.214 Y132.42 E10.91236
G1 X70.937 Y133.93 E11.06825
G1 X69.634 Y134.85 E11.15926
G1 X69.6 Y134.874 E11.16164
G1 X69.005 Y135.283 E11.20284
G1 X68.557 Y135.542 E11.23236
G1 X68.075 Y135.729 E11.26186
G1 X67.569 Y135.84 E11.29142
G1 X67.167 Y135.871 E11.31443
G1 X66.608 Y135.881 E11.34633
G1 X66.548 Y135.882 E11.34975
G1 X65.853 Y135.882 E11.38941
G1 X65.155 Y135.873 E11.42924
G1 X64.64 Y135.826 E11.45874
G1 X64.138 Y135.701 E11.48826
G1 X63.661 Y135.5 E11.5178
G1 X63.221 Y135.228 E11.54731
G1 X62.828 Y134.891 E11.57685
G1 X62.492 Y134.498 E11.60635
G1 X62.22 Y134.058 E11.63587
G1 X62.019 Y133.581 E11.6654
G1 X61.894 Y133.079 E11.69492
G1 X61.857 Y132.762 E11.71313
G1 X61.655 Y129.935 E11.87485
G1 X61.382 Y127.211 E12.03106
G1 X61.032 Y124.508 E12.18657
G1 X60.606 Y121.806 E12.34265
G1 X60.099 Y119.097 E12.49991
G1 X59.533 Y116.481 E12.65263
G1 X58.867 Y113.778 E12.81147
G1 X58.14 Y111.146 E12.96727
G1 X57.339 Y108.541 E13.12278
G1 X56.468 Y105.965 E13.27793
G1 X55.506 Y103.367 E13.43601
G1 X54.492 Y100.852 E13.59074
G1 X53.398 Y98.34 E13.74707
G1 X52.256 Y95.912 E13.90017
G1 X51.008 Y93.44 E14.05817
G1 X50.812 Y92.961 E14.0877
G1 X50.691 Y92.458 E14.11722
G1 X50.651 Y92.032 E14.14164
G1 X50.641 Y91.704 E14.16036
G1 X50.639 Y91.602 E14.16618
G1 X50.639 Y79.107 E14.87913
G1 X50.649 Y78.41 E14.9189
G1 X50.697 Y77.895 E14.94842
G1 X50.809 Y77.435 E14.97543
G1 X51.653 Y74.804 E15.13309
G1 X52.415 Y72.181 E15.28894
G1 X53.109 Y69.515 E15.44613
G1 X53.727 Y66.838 E15.60289
G1 X54.255 Y64.197 E15.75656
G1 X54.723 Y61.469 E15.91449
G1 X55.101 Y58.816 E16.0674
G1 X55.416 Y56.048 E16.22636
G1 X55.644 Y53.361 E16.38023
G1 X55.803 Y50.565 E16.54002
G1 X55.807 Y50.426 E16.54795
G1 X55.808 Y50.384 E16.55035
G1 X55.854 Y49.325 E16.61083
G1 X55.916 Y48.811 E16.64037
G1 X56.057 Y48.313 E16.66991
G1 X56.273 Y47.843 E16.69942
G1 X56.558 Y47.412 E16.7289
G10
;MESH:blowerfanmount_4p2mmthick.stl
G0 F3600 X60.313 Y48.41
G0 X60.584 Y50.369
G0 X60.571 Y71.299
G0 X112.218 Y71.89
G0 X111.945 Y91.882
G0 X112.09 Y93.55
G0 X112.518 Y95.171
G0 X113.222 Y96.695
G0 X114.18 Y98.077
G0 X115.356 Y99.27
G0 X116.724 Y100.245
G0 X118.233 Y100.966
G0 X119.86 Y101.42
G0 X122.598 Y101.493
;TYPE:WALL-INNER
G11
G1 F1800 X123.191 Y101.423 E16.76297
G1 X124.01 Y101.255 E16.81068
G1 X124.811 Y101.016 E16.85837
G1 X125.353 Y100.802 E16.89162
G1 X125.588 Y100.709 E16.90604
G1 X126.337 Y100.336 E16.95379
G1 X127.05 Y99.898 E17.00153
G1 X127.723 Y99.401 E17.04927
G1 X128.349 Y98.849 E17.09689
G1 X128.916 Y98.257 E17.14366
G1 X129.174 Y97.96 E17.16611
G1 X129.242 Y97.947 E17.17006
G1 X137.559 Y97.946 E17.64462
G1 X137.561 Y101.144 E17.82709
G1 X137.561 Y101.493 E17.847
G1 X137.212 Y101.493 E17.85989
G1 X125.394 Y101.493 E18.53421
G1 X124.811 Y101.493 E18.56228
G1 X124.01 Y101.493 E18.58542
G1 X123.191 Y101.493 E18.59554
G1 X122.598 Y101.493 E18.59718
G0 F3600 X120.591 Y101.513
G0 X118.233 Y100.966
G0 X117.011 Y100.383
G0 X76.021 Y74.165
G0 X75.924 Y74.188
G1 F1800 X75.635 Y73.495 E18.64002
G1 X75.188 Y72.917 E18.68171
G1 X74.533 Y72.437 E18.72805
G1 X73.839 Y72.188 E18.77012
G1 X73.121 Y72.126 E18.81124
G1 X72.412 Y72.254 E18.85235
G1 X71.761 Y72.559 E18.89337
G1 X71.21 Y73.025 E18.93454
G1 X70.8 Y73.616 E18.97558
G1 X70.551 Y74.302 E19.01723
G1 X70.498 Y75.122 E19.06411
G1 X70.695 Y75.929 E19.11151
G1 X71.066 Y76.567 E19.15362
G1 X71.576 Y77.076 E19.19473
G1 X72.201 Y77.434 E19.23583
G1 X72.898 Y77.619 E19.27698
G1 X73.619 Y77.617 E19.31812
G1 X74.324 Y77.425 E19.35981
G1 X75.018 Y77.004 E19.40612
G1 X75.515 Y76.457 E19.44829
G1 X75.846 Y75.817 E19.48941
G1 X76.003 Y75.091 E19.53179
G1 X75.924 Y74.188 E19.58351
G0 F3600 X75.285 Y74.345
;TYPE:WALL-OUTER
G1 F1800 X75.068 Y73.824 E19.61571
G1 X74.73 Y73.387 E19.64724
G1 X74.225 Y73.017 E19.68296
G1 X73.699 Y72.828 E19.71485
G1 X73.152 Y72.781 E19.74617
G1 X72.611 Y72.879 E19.77755
G1 X72.115 Y73.111 E19.80879
G1 X71.695 Y73.466 E19.84017
G1 X71.382 Y73.917 E19.87149
G1 X71.194 Y74.436 E19.90299
G1 X71.153 Y75.065 E19.93895
G1 X71.304 Y75.684 E19.97531
G1 X71.585 Y76.167 E20.00719
G1 X71.974 Y76.555 E20.03854
G1 X72.45 Y76.828 E20.06985
G1 X72.982 Y76.969 E20.10126
G1 X73.531 Y76.967 E20.13258
G1 X74.065 Y76.822 E20.16415
G1 X74.6 Y76.497 E20.19987
G1 X74.977 Y76.083 E20.23182
G1 X75.229 Y75.595 E20.26316
G1 X75.347 Y75.05 E20.29498
G1 X75.285 Y74.345 E20.33536
G0 F3600 X75.132 Y73.976
G0 X75.843 Y73.681
G0 X107.116 Y72.087
G0 X108.55 Y72.402
G0 X109.582 Y73.362
G0 X109.924 Y74.188
;TYPE:WALL-INNER
G1 F1800 X109.635 Y73.495 E20.3782
G1 X109.188 Y72.917 E20.41989
G1 X108.533 Y72.437 E20.46623
G1 X107.839 Y72.188 E20.5083
G1 X107.121 Y72.126 E20.54942
G1 X106.412 Y72.254 E20.59053
G1 X105.761 Y72.559 E20.63154
G1 X105.21 Y73.025 E20.67272
G1 X104.8 Y73.616 E20.71376
G1 X104.551 Y74.302 E20.7554
G1 X104.498 Y75.122 E20.80229
G1 X104.695 Y75.929 E20.84969
G1 X105.066 Y76.567 E20.8918
G1 X105.576 Y77.076 E20.93291
G1 X106.201 Y77.434 E20.97401
G1 X106.898 Y77.619 E21.01516
G1 X107.619 Y77.617 E21.0563
G1 X108.324 Y77.425 E21.09799
G1 X109.018 Y77.004 E21.1443
G1 X109.515 Y76.457 E21.18647
G1 X109.846 Y75.817 E21.22759
G1 X110.003 Y75.091 E21.26997
G1 X109.924 Y74.188 E21.32169
G0 F3600 X109.285 Y74.345
;TYPE:WALL-OUTER
G1 F1800 X109.068 Y73.824 E21.35389
G1 X108.73 Y73.387 E21.38541
G1 X108.225 Y73.017 E21.42113
G1 X107.699 Y72.828 E21.45303
G1 X107.152 Y72.781 E21.48435
G1 X106.611 Y72.879 E21.51572
G1 X106.115 Y73.111 E21.54697
G1 X105.695 Y73.466 E21.57835
G1 X105.382 Y73.917 E21.60967
G1 X105.194 Y74.436 E21.64117
G1 X105.153 Y75.065 E21.67713
G1 X105.304 Y75.684 E21.71349
G1 X105.585 Y76.167 E21.74537
G1 X105.974 Y76.555 E21.77672
G1 X106.45 Y76.828 E21.80803
G1 X106.982 Y76.969 E21.83943
G1 X107.531 Y76.967 E21.87076
G1 X108.065 Y76.822 E21.90233
G1 X108.6 Y76.497 E21.93805
G1 X108.977 Y76.083 E21.97
G1 X109.229 Y75.595 E22.00134
G1 X109.347 Y75.05 E22.03315
G1 X109.285 Y74.345 E22.07354
G0 F3600 X109.132 Y73.976
G0 X109.843 Y73.681
G0 X110.006 Y74.697
G0 X110.021 Y108.165
G0 X109.924 Y108.188
;TYPE:WALL-INNER
G1 F1800 X109.635 Y107.495 E22.11638
G1 X109.188 Y106.917 E22.15807
G1 X108.533 Y106.437 E22.2044
G1 X107.839 Y106.188 E22.24647
G1 X107.121 Y106.126 E22.28759
G1 X106.412 Y106.254 E22.3287
G1 X105.761 Y106.559 E22.36972
G1 X105.21 Y107.025 E22.4109
G1 X104.8 Y107.616 E22.45194
G1 X104.551 Y108.302 E22.49358
G1 X104.498 Y109.122 E22.54047
G1 X104.695 Y109.929 E22.58787
G1 X105.066 Y110.567 E22.62998
G1 X105.576 Y111.076 E22.67109
G1 X106.201 Y111.434 E22.71219
G1 X106.898 Y111.619 E22.75333
G1 X107.619 Y111.617 E22.79447
G1 X108.324 Y111.425 E22.83617
G1 X109.018 Y111.004 E22.88248
G1 X109.515 Y110.457 E22.92465
G1 X109.846 Y109.817 E22.96576
G1 X110.003 Y109.091 E23.00815
G1 X109.924 Y108.188 E23.05987
G0 F3600 X109.285 Y108.345
;TYPE:WALL-OUTER
G1 F1800 X109.068 Y107.824 E23.09207
G1 X108.73 Y107.387 E23.12359
G1 X108.225 Y107.017 E23.15931
G1 X107.699 Y106.828 E23.1912
G1 X107.152 Y106.781 E23.22253
G1 X106.611 Y106.879 E23.2539
G1 X106.115 Y107.111 E23.28515
G1 X105.695 Y107.466 E23.31652
G1 X105.382 Y107.917 E23.34785
G1 X105.194 Y108.436 E23.37934
G1 X105.153 Y109.065 E23.41531
G1 X105.304 Y109.684 E23.45167
G1 X105.585 Y110.167 E23.48355
G1 X105.974 Y110.555 E23.5149
G1 X106.45 Y110.828 E23.54621
G1 X106.982 Y110.969 E23.57761
G1 X107.531 Y110.967 E23.60894
G1 X108.065 Y110.822 E23.64051
G1 X108.6 Y110.497 E23.67623
G1 X108.977 Y110.083 E23.70818
G1 X109.229 Y109.595 E23.73951
G1 X109.347 Y109.05 E23.77133
G1 X109.285 Y108.345 E23.81171
G0 F3600 X109.132 Y107.976
G0 X109.843 Y107.681
G0 X109.214 Y106.889
G0 X107.851 Y106.149
G0 X76.021 Y108.165
G0 X75.924 Y108.188
;TYPE:WALL-INNER
G1 F1800 X75.635 Y107.495 E23.85456
G1 X75.188 Y106.917 E23.89625
G1 X74.533 Y106.437 E23.94258
G1 X73.839 Y106.188 E23.98465
G1 X73.121 Y106.126 E24.02577
G1 X72.412 Y106.254 E24.06688
G1 X71.761 Y106.559 E24.1079
G1 X71.21 Y107.025 E24.14908
G1 X70.8 Y107.616 E24.19012
G1 X70.551 Y108.302 E24.23176
G1 X70.498 Y109.122 E24.27865
G1 X70.695 Y109.929 E24.32604
G1 X71.066 Y110.567 E24.36815
G1 X71.576 Y111.076 E24.40927
G1 X72.201 Y111.434 E24.45037
G1 X72.898 Y111.619 E24.49151
G1 X73.619 Y111.617 E24.53265
G1 X74.324 Y111.425 E24.57434
G1 X75.018 Y111.004 E24.62066
G1 X75.515 Y110.457 E24.66283
G1 X75.846 Y109.817 E24.70394
G1 X76.003 Y109.091 E24.74632
G1 X75.924 Y108.188 E24.79804
G0 F3600 X75.285 Y108.345
;TYPE:WALL-OUTER
G1 F1800 X75.068 Y107.824 E24.83025
G1 X74.73 Y107.387 E24.86177
G1 X74.225 Y107.017 E24.89749
G1 X73.699 Y106.828 E24.92938
G1 X73.152 Y106.781 E24.96071
G1 X72.611 Y106.879 E24.99208
G1 X72.115 Y107.111 E25.02332
G1 X71.695 Y107.466 E25.0547
G1 X71.382 Y107.917 E25.08603
G1 X71.194 Y108.436 E25.11752
G1 X71.153 Y109.065 E25.15349
G1 X71.304 Y109.684 E25.18984
G1 X71.585 Y110.167 E25.22173
G1 X71.974 Y110.555 E25.25308
G1 X72.45 Y110.828 E25.28439
G1 X72.982 Y110.969 E25.31579
G1 X73.531 Y110.967 E25.34712
G1 X74.065 Y110.822 E25.37869
G1 X74.6 Y110.497 E25.41441
G1 X74.977 Y110.083 E25.44635
G1 X75.229 Y109.595 E25.47769
G1 X75.347 Y109.05 E25.50951
G1 X75.285 Y108.345 E25.54989
G0 F3600 X75.132 Y107.976
G0 X75.843 Y107.681
G0 X71.213 Y94.783
G0 X71.122 Y94.745
;TYPE:WALL-INNER
G1 F1800 X71.302 Y93.986 E25.5944
G1 X71.25 Y93.208 E25.63889
G1 X70.965 Y92.482 E25.68339
G1 X70.473 Y91.877 E25.72789
G1 X69.827 Y91.445 E25.77223
G1 X69.075 Y91.23 E25.81686
G1 X68.298 Y91.25 E25.86121
G1 X67.56 Y91.5 E25.90567
G1 X66.936 Y91.963 E25.95
G1 X66.932 Y91.965 E25.95026
G1 X66.474 Y92.594 E25.99465
G1 X66.239 Y93.289 E26.03651
G1 X66.239 Y92.594 E26.04273
G1 X66.239 Y91.965 E26.06579
G1 X66.239 Y91.96 E26.06607
G1 X66.239 Y90.882 E26.12758
G1 X55.039 Y90.882 E26.76664
G1 X55.039 Y79.847 E27.39628
G1 X55.039 Y79.498 E27.41619
G1 X55.388 Y79.498 E27.42907
G1 X60.244 Y79.499 E27.70615
G1 X60.244 Y71.272 E28.17557
G1 X60.242 Y50.355 E29.36907
G1 X60.353 Y50.346 E29.37542
G1 X60.598 Y50.356 E29.38941
G1 X60.599 Y71.271 E29.99632
G1 X111.573 Y71.271 E32.90483
G1 X111.811 Y71.305 E32.91855
G1 X111.984 Y71.385 E32.92942
G1 X112.116 Y71.506 E32.93964
G1 X112.208 Y71.665 E32.95012
G1 X112.257 Y71.885 E32.96298
G1 X112.261 Y75.954 E33.19516
G1 X112.305 Y76.622 E33.23335
G1 X112.443 Y77.315 E33.27367
G1 X112.669 Y77.981 E33.3138
G1 X112.981 Y78.615 E33.35412
G1 X113.373 Y79.201 E33.39435
G1 X113.837 Y79.73 E33.4345
G1 X114.369 Y80.197 E33.47489
G1 X114.955 Y80.588 E33.51508
G1 X115.586 Y80.9 E33.55525
G1 X116.256 Y81.127 E33.59561
G1 X116.948 Y81.264 E33.63586
G1 X117.616 Y81.308 E33.67406
G1 X121.612 Y81.308 E33.90207
G1 X122.353 Y81.335 E33.94438
G1 X122.946 Y81.389 E33.97835
G1 X123.638 Y81.501 E34.01835
G1 X124.255 Y81.635 E34.05438
G1 X124.911 Y81.826 E34.09336
G1 X125.501 Y82.036 E34.1291
G1 X126.127 Y82.307 E34.16802
G1 X126.699 Y82.595 E34.20456
G1 X127.294 Y82.944 E34.24392
G1 X127.801 Y83.283 E34.27872
G1 X128.256 Y83.624 E34.31116
G1 X128.88 Y83.989 E34.35241
G1 X129.594 Y84.214 E34.39512
G1 X130.2 Y84.271 E34.42985
G1 X137.211 Y84.272 E34.82989
G1 X137.56 Y84.272 E34.84981
G1 X137.56 Y84.621 E34.86269
G1 X137.559 Y85.818 E34.93099
G1 X129.248 Y85.819 E35.4052
G1 X129.175 Y85.804 E35.40945
G1 X129.154 Y85.791 E35.41086
G1 X128.868 Y85.455 E35.43604
G1 X128.348 Y84.914 E35.47886
G1 X127.723 Y84.363 E35.5264
G1 X127.049 Y83.865 E35.57421
G1 X126.336 Y83.429 E35.6219
G1 X125.588 Y83.056 E35.66959
G1 X124.811 Y82.748 E35.71728
G1 X124.01 Y82.509 E35.76498
G1 X123.191 Y82.341 E35.81268
G1 X122.361 Y82.243 E35.86037
G1 X121.524 Y82.217 E35.90815
G1 X120.688 Y82.266 E35.95593
G1 X119.862 Y82.385 E36.00355
G1 X119.047 Y82.573 E36.05128
G1 X118.252 Y82.833 E36.099
G1 X117.482 Y83.162 E36.14678
G1 X116.745 Y83.553 E36.19438
G1 X116.044 Y84.009 E36.2421
G1 X115.383 Y84.523 E36.28988
G1 X114.771 Y85.093 E36.3376
G1 X114.21 Y85.711 E36.38522
G1 X113.704 Y86.379 E36.43304
G1 X113.258 Y87.088 E36.48083
G1 X112.877 Y87.829 E36.52837
G1 X112.557 Y88.602 E36.57611
G1 X112.308 Y89.4 E36.6238
G1 X112.129 Y90.218 E36.67158
G1 X112.021 Y91.047 E36.71928
