;FLAVOR:Marlin
;TIME:10035
;Filament used: 4.8627m
;Layer height: 0.4
;MINX:50.175
;MINY:37.64
;MINZ:0.52
;MAXX:141.961
;MAXY:135.882
;MAXZ:45.72
;Generated with Cura_SteamEngine 4.1.0
M82 ;absolute extrusion mode
M98 P0:/sys/startprint.g

G92 E0
G92 E0
G10
;LAYER_COUNT:114
;LAYER:0
M107
G0 F3600 X55.311 Y46.747 Z0.52
;TYPE:SKIRT
G11
G1 F1800 X55.65 Y46.357 E0.02948
G1 X56.045 Y46.023 E0.059
G1 X56.478 Y45.758 E0.08797
G1 X56.881 Y45.552 E0.11379
G1 X57.11 Y45.446 E0.12819
G1 X57.315 Y45.36 E0.14087
G1 X57.524 Y45.28 E0.15364
G1 X57.9 Y45.151 E0.17632
G1 X58.173 Y45.07 E0.19257
G1 X58.588 Y44.966 E0.21698
G1 X58.924 Y44.9 E0.23652
G1 X59.576 Y44.806 E0.27411
G1 X59.994 Y44.773 E0.29803
G1 X60.549 Y44.763 E0.32971
G1 X60.955 Y44.78 E0.35289
G1 X61.581 Y44.845 E0.3888
G1 X61.976 Y44.91 E0.41164
G1 X62.527 Y45.035 E0.44388
G1 X62.896 Y45.141 E0.46579
G1 X63.42 Y45.325 E0.49748
G1 X63.715 Y45.445 E0.51565
G1 X64.213 Y45.675 E0.54695
G1 X64.664 Y45.927 E0.57643
G1 X64.88 Y46.084 E0.59166
G1 X65.681 Y46.715 E0.64985
G1 X67.868 Y48.414 E0.80786
G1 X70.093 Y50.045 E0.96528
G1 X72.322 Y51.582 E1.11976
G1 X74.614 Y53.071 E1.27572
G1 X76.968 Y54.505 E1.43299
G1 X79.326 Y55.851 E1.58791
G1 X81.755 Y57.15 E1.74508
G1 X84.173 Y58.356 E1.89926
G1 X86.678 Y59.518 E2.05682
G1 X89.166 Y60.586 E2.21131
G1 X91.719 Y61.6 E2.36805
G1 X94.291 Y62.537 E2.52424
G1 X96.903 Y63.406 E2.68131
G1 X99.489 Y64.186 E2.83543
G1 X102.141 Y64.904 E2.9922
G1 X104.836 Y65.554 E3.15038
G1 X107.466 Y66.107 E3.30373
G1 X110.157 Y66.597 E3.45979
G1 X111.261 Y66.767 E3.52353
G1 X111.284 Y66.771 E3.52486
G1 X112.615 Y66.986 E3.60179
G1 X113.118 Y67.108 E3.63132
G1 X113.435 Y67.229 E3.65068
G1 X113.901 Y67.435 E3.67976
G1 X114.406 Y67.712 E3.71262
G1 X115.154 Y68.211 E3.76393
G1 X117.423 Y69.687 E3.91837
G1 X119.8 Y71.139 E4.07731
G1 X122.155 Y72.489 E4.23219
G1 X124.584 Y73.791 E4.38944
G1 X127.013 Y75.006 E4.54441
G1 X129.49 Y76.159 E4.70031
G1 X132.002 Y77.241 E4.85637
G1 X134.54 Y78.252 E5.01225
G1 X137.074 Y79.179 E5.16621
G1 X138.321 Y79.587 E5.24107
G1 X138.375 Y79.606 E5.24434
G1 X139.697 Y80.064 E5.32417
G1 X140.171 Y80.27 E5.35366
G1 X140.608 Y80.547 E5.38318
G1 X140.997 Y80.888 E5.4127
G1 X141.328 Y81.285 E5.44219
G1 X141.595 Y81.728 E5.4717
G1 X141.79 Y82.207 E5.50121
G1 X141.91 Y82.711 E5.53077
G1 X141.949 Y83.129 E5.55473
G1 X141.959 Y83.464 E5.57385
G1 X141.96 Y83.564 E5.57956
G1 X141.96 Y85.223 E5.67422
G1 X141.95 Y85.928 E5.71445
G1 X141.947 Y86.02 E5.7197
G1 X141.905 Y87.021 E5.77686
G1 X141.902 Y87.074 E5.77989
G1 X141.863 Y87.743 E5.81813
G1 X141.783 Y90.518 E5.97653
G1 X141.781 Y93.23 E6.13128
G1 X141.857 Y95.993 E6.28899
G1 X141.954 Y97.965 E6.40165
G1 X141.958 Y98.098 E6.40924
G1 X141.96 Y98.315 E6.42162
G1 X141.96 Y98.345 E6.42333
G1 X141.961 Y101.848 E6.62321
G1 X141.961 Y101.894 E6.62583
G1 X141.952 Y102.561 E6.6639
G1 X141.905 Y103.076 E6.6934
G1 X141.779 Y103.578 E6.72293
G1 X141.578 Y104.055 E6.75247
G1 X141.305 Y104.494 E6.78197
G1 X140.969 Y104.887 E6.81147
G1 X140.575 Y105.223 E6.84101
G1 X140.135 Y105.495 E6.87053
G1 X139.676 Y105.689 E6.89896
G1 X135.775 Y107.009 E7.13395
G1 X133.177 Y107.971 E7.29202
G1 X130.659 Y108.986 E7.44693
G1 X128.154 Y110.079 E7.60287
G1 X125.695 Y111.236 E7.75794
G1 X123.225 Y112.484 E7.91584
G1 X120.853 Y113.767 E8.06971
G1 X118.478 Y115.143 E8.22633
G1 X116.636 Y116.279 E8.34981
G1 X115.332 Y117.09 E8.43743
G1 X115.204 Y117.165 E8.4459
G1 X114.898 Y117.337 E8.46593
G1 X114.429 Y117.555 E8.49544
G1 X114.077 Y117.665 E8.51648
G1 X113.875 Y117.716 E8.52837
G1 X113.74 Y117.747 E8.53627
G1 X113.443 Y117.809 E8.55358
G1 X113.244 Y117.845 E8.56512
G1 X112.351 Y117.976 E8.61662
G1 X112.31 Y117.981 E8.61898
G1 X111.331 Y118.112 E8.67533
G1 X108.601 Y118.556 E8.83315
G1 X105.915 Y119.072 E8.98921
G1 X103.242 Y119.664 E9.14543
G1 X100.641 Y120.317 E9.29844
G1 X97.96 Y121.072 E9.45737
G1 X95.343 Y121.889 E9.6138
G1 X92.785 Y122.768 E9.76813
G1 X90.2 Y123.738 E9.92567
G1 X87.686 Y124.766 E10.08064
G1 X85.183 Y125.872 E10.23678
G1 X82.728 Y127.04 E10.39191
G1 X80.28 Y128.291 E10.54877
G1 X77.883 Y129.603 E10.70469
G1 X75.505 Y130.993 E10.86185
G1 X73.214 Y132.42 E11.01586
G1 X70.937 Y133.93 E11.17175
G1 X69.634 Y134.85 E11.26276
G1 X69.6 Y134.874 E11.26514
G1 X69.005 Y135.283 E11.30633
G1 X68.557 Y135.542 E11.33586
G1 X68.075 Y135.729 E11.36536
G1 X67.569 Y135.84 E11.39492
G1 X67.167 Y135.871 E11.41793
G1 X66.608 Y135.881 E11.44983
G1 X66.548 Y135.882 E11.45325
G1 X65.853 Y135.882 E11.49291
G1 X65.155 Y135.873 E11.53274
G1 X64.64 Y135.826 E11.56224
G1 X64.138 Y135.701 E11.59176
G1 X63.661 Y135.5 E11.6213
G1 X63.221 Y135.228 E11.65081
G1 X62.828 Y134.891 E11.68035
G1 X62.492 Y134.498 E11.70985
G1 X62.22 Y134.058 E11.73937
G1 X62.019 Y133.581 E11.7689
G1 X61.894 Y133.079 E11.79842
G1 X61.857 Y132.762 E11.81663
G1 X61.655 Y129.935 E11.97835
G1 X61.382 Y127.211 E12.13456
G1 X61.032 Y124.508 E12.29007
G1 X60.606 Y121.806 E12.44615
G1 X60.099 Y119.097 E12.60341
G1 X59.533 Y116.481 E12.75612
G1 X58.867 Y113.778 E12.91497
G1 X58.14 Y111.146 E13.07077
G1 X57.339 Y108.541 E13.22627
G1 X56.468 Y105.965 E13.38143
G1 X55.506 Y103.367 E13.53951
G1 X54.492 Y100.852 E13.69423
G1 X53.398 Y98.34 E13.85057
G1 X52.256 Y95.912 E14.00367
G1 X51.008 Y93.44 E14.16167
G1 X50.812 Y92.961 E14.1912
G1 X50.691 Y92.458 E14.22072
G1 X50.651 Y92.032 E14.24514
G1 X50.641 Y91.704 E14.26386
G1 X50.639 Y91.602 E14.26968
G1 X50.639 Y78.456 E15.01977
G1 X50.649 Y77.759 E15.05955
G1 X50.697 Y77.244 E15.08906
G1 X50.769 Y76.917 E15.10817
G1 X51.143 Y75.559 E15.18854
G1 X51.845 Y72.87 E15.34711
G1 X52.472 Y70.164 E15.5056
G1 X53.001 Y67.53 E15.65889
G1 X53.462 Y64.85 E15.81406
G1 X53.852 Y62.127 E15.97101
G1 X54.159 Y59.442 E16.12521
G1 X54.397 Y56.667 E16.28413
G1 X54.552 Y53.993 E16.43696
G1 X54.632 Y51.21 E16.59582
G1 X54.643 Y49.245 E16.70795
G1 X54.644 Y49.199 E16.71057
G1 X54.654 Y48.677 E16.74036
G1 X54.703 Y48.162 E16.76988
G1 X54.832 Y47.661 E16.7994
G1 X55.036 Y47.186 E16.8289
G1 X55.311 Y46.747 E16.85845
G10
;MESH:blowerfanmount_3mmthick.stl
G0 F3600 X61.53 Y47.316
G0 X62.865 Y47.746
G0 X63.732 Y50.002
G0 X61.779 Y50.004
G0 X61.772 Y71.299
G0 X112.218 Y71.89
G0 X111.945 Y91.882
G0 X112.09 Y93.55
G0 X112.518 Y95.171
G0 X113.222 Y96.695
G0 X114.18 Y98.077
G0 X115.356 Y99.27
G0 X116.724 Y100.245
G0 X118.233 Y100.966
G0 X119.86 Y101.42
G0 X122.598 Y101.493
;TYPE:WALL-INNER
G11
G1 F1800 X123.191 Y101.423 E16.89252
G1 X124.01 Y101.255 E16.94023
G1 X124.811 Y101.016 E16.98792
G1 X125.353 Y100.802 E17.02117
G1 X125.588 Y100.709 E17.03559
G1 X126.337 Y100.336 E17.08334
G1 X127.05 Y99.898 E17.13108
G1 X127.723 Y99.401 E17.17882
G1 X128.349 Y98.849 E17.22644
G1 X128.916 Y98.257 E17.27321
G1 X129.174 Y97.96 E17.29566
G1 X129.242 Y97.947 E17.29961
G1 X137.559 Y97.946 E17.77417
G1 X137.561 Y101.144 E17.95664
G1 X137.561 Y101.493 E17.97656
G1 X137.212 Y101.493 E17.98944
G1 X125.394 Y101.493 E18.66376
G1 X124.811 Y101.493 E18.69183
G1 X124.01 Y101.493 E18.71497
G1 X123.191 Y101.493 E18.72509
G1 X122.598 Y101.493 E18.72673
G0 F3600 X120.591 Y101.513
G0 X118.233 Y100.966
G0 X116.724 Y100.245
G0 X71.566 Y77.119
G0 X70.597 Y75.954
G0 X70.695 Y75.931
G1 F1800 X71.069 Y76.572 E18.76907
G1 X71.589 Y77.087 E18.81083
G1 X72.297 Y77.473 E18.85685
G1 X73.031 Y77.635 E18.89973
G1 X73.839 Y77.579 E18.94595
G1 X74.535 Y77.323 E18.98826
G1 X75.123 Y76.907 E19.02936
G1 X75.584 Y76.353 E19.07048
G1 X75.884 Y75.698 E19.11159
G1 X76.008 Y74.98 E19.15317
G1 X75.919 Y74.177 E19.19926
G1 X75.634 Y73.492 E19.2416
G1 X75.185 Y72.913 E19.2834
G1 X74.531 Y72.437 E19.32956
G1 X73.834 Y72.186 E19.37183
G1 X73.116 Y72.127 E19.41293
G1 X72.408 Y72.256 E19.454
G1 X71.748 Y72.566 E19.4956
G1 X71.142 Y73.101 E19.54173
G1 X70.745 Y73.727 E19.58402
G1 X70.531 Y74.416 E19.62519
G1 X70.502 Y75.145 E19.66682
G1 X70.695 Y75.931 E19.713
G0 F3600 X71.304 Y75.685
;TYPE:WALL-OUTER
G1 F1800 X71.587 Y76.17 E19.74504
G1 X71.981 Y76.56 E19.77667
G1 X72.527 Y76.858 E19.81216
G1 X73.08 Y76.98 E19.84447
G1 X73.702 Y76.937 E19.88005
G1 X74.23 Y76.743 E19.91215
G1 X74.678 Y76.426 E19.94346
G1 X75.029 Y76.004 E19.97478
G1 X75.258 Y75.504 E20.00616
G1 X75.352 Y74.96 E20.03766
G1 X75.283 Y74.341 E20.0732
G1 X75.067 Y73.822 E20.10527
G1 X74.728 Y73.384 E20.13688
G1 X74.224 Y73.017 E20.17245
G1 X73.695 Y72.827 E20.20452
G1 X73.148 Y72.782 E20.23584
G1 X72.608 Y72.88 E20.26715
G1 X72.108 Y73.115 E20.29868
G1 X71.641 Y73.527 E20.33421
G1 X71.34 Y74.002 E20.3663
G1 X71.177 Y74.527 E20.39766
G1 X71.155 Y75.079 E20.42918
G1 X71.304 Y75.685 E20.46479
G0 F3600 X71.505 Y76.03
G0 X70.84 Y76.417
G0 X71.566 Y77.119
G0 X72.955 Y77.657
G0 X104.597 Y75.954
G0 X104.695 Y75.931
;TYPE:WALL-INNER
G1 F1800 X105.069 Y76.572 E20.50714
G1 X105.589 Y77.087 E20.5489
G1 X106.297 Y77.473 E20.59491
G1 X107.031 Y77.635 E20.6378
G1 X107.839 Y77.579 E20.68401
G1 X108.535 Y77.323 E20.72632
G1 X109.123 Y76.907 E20.76742
G1 X109.584 Y76.353 E20.80855
G1 X109.884 Y75.698 E20.84965
G1 X110.008 Y74.98 E20.89123
G1 X109.919 Y74.177 E20.93733
G1 X109.634 Y73.492 E20.97966
G1 X109.185 Y72.913 E21.02147
G1 X108.531 Y72.437 E21.06762
G1 X107.834 Y72.186 E21.10989
G1 X107.116 Y72.127 E21.151
G1 X106.408 Y72.256 E21.19206
G1 X105.748 Y72.566 E21.23366
G1 X105.142 Y73.101 E21.27979
G1 X104.745 Y73.727 E21.32208
G1 X104.531 Y74.416 E21.36325
G1 X104.502 Y75.145 E21.40488
G1 X104.695 Y75.931 E21.45106
G0 F3600 X105.304 Y75.685
;TYPE:WALL-OUTER
G1 F1800 X105.587 Y76.17 E21.4831
G1 X105.981 Y76.56 E21.51473
G1 X106.527 Y76.858 E21.55022
G1 X107.08 Y76.98 E21.58254
G1 X107.702 Y76.937 E21.61811
G1 X108.23 Y76.743 E21.65021
G1 X108.678 Y76.426 E21.68152
G1 X109.029 Y76.004 E21.71284
G1 X109.258 Y75.504 E21.74422
G1 X109.352 Y74.96 E21.77572
G1 X109.283 Y74.341 E21.81126
G1 X109.067 Y73.822 E21.84333
G1 X108.728 Y73.384 E21.87494
G1 X108.224 Y73.017 E21.91051
G1 X107.695 Y72.827 E21.94258
G1 X107.148 Y72.782 E21.9739
G1 X106.608 Y72.88 E22.00521
G1 X106.108 Y73.115 E22.03674
G1 X105.641 Y73.527 E22.07227
G1 X105.34 Y74.002 E22.10436
G1 X105.177 Y74.527 E22.13572
G1 X105.155 Y75.079 E22.16725
G1 X105.304 Y75.685 E22.20285
G0 F3600 X105.505 Y76.03
G0 X104.84 Y76.417
G0 X104.463 Y109.151
G0 X104.695 Y109.931
;TYPE:WALL-INNER
G1 F1800 X105.069 Y110.572 E22.2452
G1 X105.589 Y111.087 E22.28696
G1 X106.297 Y111.473 E22.33297
G1 X107.031 Y111.635 E22.37586
G1 X107.839 Y111.579 E22.42207
G1 X108.535 Y111.323 E22.46439
G1 X109.123 Y110.907 E22.50548
G1 X109.584 Y110.353 E22.54661
G1 X109.884 Y109.698 E22.58771
G1 X110.008 Y108.98 E22.62929
G1 X109.919 Y108.177 E22.67539
G1 X109.634 Y107.492 E22.71772
G1 X109.185 Y106.913 E22.75953
G1 X108.531 Y106.437 E22.80568
G1 X107.834 Y106.186 E22.84795
G1 X107.116 Y106.127 E22.88906
G1 X106.408 Y106.256 E22.93012
G1 X105.748 Y106.566 E22.97173
G1 X105.142 Y107.101 E23.01785
G1 X104.745 Y107.727 E23.06015
G1 X104.531 Y108.416 E23.10131
G1 X104.502 Y109.145 E23.14294
G1 X104.695 Y109.931 E23.18912
G0 F3600 X105.304 Y109.685
;TYPE:WALL-OUTER
G1 F1800 X105.587 Y110.17 E23.22116
G1 X105.981 Y110.56 E23.25279
G1 X106.527 Y110.858 E23.28829
G1 X107.08 Y110.98 E23.3206
G1 X107.702 Y110.937 E23.35617
G1 X108.23 Y110.743 E23.38827
G1 X108.678 Y110.426 E23.41958
G1 X109.029 Y110.004 E23.4509
G1 X109.258 Y109.504 E23.48228
G1 X109.352 Y108.96 E23.51378
G1 X109.283 Y108.341 E23.54932
G1 X109.067 Y107.822 E23.5814
G1 X108.728 Y107.384 E23.613
G1 X108.224 Y107.017 E23.64857
G1 X107.695 Y106.827 E23.68064
G1 X107.148 Y106.782 E23.71196
G1 X106.608 Y106.88 E23.74328
G1 X106.108 Y107.115 E23.7748
G1 X105.641 Y107.527 E23.81033
G1 X105.34 Y108.002 E23.84242
G1 X105.177 Y108.527 E23.87379
G1 X105.155 Y109.079 E23.90531
G1 X105.304 Y109.685 E23.94092
G0 F3600 X105.505 Y110.03
G0 X104.84 Y110.417
G0 X73.03 Y111.674
G0 X71.566 Y111.119
G0 X70.597 Y109.954
G0 X70.695 Y109.931
;TYPE:WALL-INNER
G1 F1800 X71.069 Y110.572 E23.98326
G1 X71.589 Y111.087 E24.02502
G1 X72.297 Y111.473 E24.07103
G1 X73.031 Y111.635 E24.11392
G1 X73.839 Y111.579 E24.16013
G1 X74.535 Y111.323 E24.20245
G1 X75.123 Y110.907 E24.24355
G1 X75.584 Y110.353 E24.28467
G1 X75.884 Y109.698 E24.32578
G1 X76.008 Y108.98 E24.36735
G1 X75.919 Y108.177 E24.41345
G1 X75.634 Y107.492 E24.45578
G1 X75.185 Y106.913 E24.49759
G1 X74.531 Y106.437 E24.54374
G1 X73.834 Y106.186 E24.58601
G1 X73.116 Y106.127 E24.62712
G1 X72.408 Y106.256 E24.66818
G1 X71.748 Y106.566 E24.70979
G1 X71.142 Y107.101 E24.75591
G1 X70.745 Y107.727 E24.79821
G1 X70.531 Y108.416 E24.83937
G1 X70.502 Y109.145 E24.881
G1 X70.695 Y109.931 E24.92718
G0 F3600 X71.304 Y109.685
;TYPE:WALL-OUTER
G1 F1800 X71.587 Y110.17 E24.95922
G1 X71.981 Y110.56 E24.99086
G1 X72.527 Y110.858 E25.02635
G1 X73.08 Y110.98 E25.05866
G1 X73.702 Y110.937 E25.09424
G1 X74.23 Y110.743 E25.12633
G1 X74.678 Y110.426 E25.15765
G1 X75.029 Y110.004 E25.18897
G1 X75.258 Y109.504 E25.22034
G1 X75.352 Y108.96 E25.25184
G1 X75.283 Y108.341 E25.28738
G1 X75.067 Y107.822 E25.31946
G1 X74.728 Y107.384 E25.35106
G1 X74.224 Y107.017 E25.38663
G1 X73.695 Y106.827 E25.41871
G1 X73.148 Y106.782 E25.45002
G1 X72.608 Y106.88 E25.48134
G1 X72.108 Y107.115 E25.51286
G1 X71.641 Y107.527 E25.5484
G1 X71.34 Y108.002 E25.58048
G1 X71.177 Y108.527 E25.61185
G1 X71.155 Y109.079 E25.64337
G1 X71.304 Y109.685 E25.67898
G0 F3600 X71.505 Y110.03
G0 X70.84 Y110.417
G0 X70.483 Y109.231
G0 X71.219 Y94.765
G0 X71.123 Y94.741
;TYPE:WALL-INNER
G1 F1800 X71.303 Y93.981 E25.72354
G1 X71.248 Y93.204 E25.76799
G1 X70.963 Y92.48 E25.81238
G1 X70.472 Y91.873 E25.85693
G1 X69.821 Y91.442 E25.90148
G1 X69.072 Y91.23 E25.94589
G1 X68.294 Y91.25 E25.9903
G1 X67.557 Y91.503 E26.03476
G1 X66.935 Y91.963 E26.0789
G1 X66.929 Y91.967 E26.07931
G1 X66.471 Y92.598 E26.1238
G1 X66.239 Y93.292 E26.16556
G1 X66.239 Y92.598 E26.17168
G1 X66.239 Y91.967 E26.19464
G1 X66.239 Y91.959 E26.1951
G1 X66.239 Y90.882 E26.25655
G1 X55.039 Y90.882 E26.89561
G1 X55.039 Y79.196 E27.56239
G1 X55.039 Y78.847 E27.58231
G1 X55.388 Y78.847 E27.59519
G1 X58.695 Y78.848 E27.78388
G1 X59.044 Y78.848 E27.8038
G1 X59.044 Y78.499 E27.81668
G1 X59.043 Y49.406 E29.47669
G1 X59.318 Y49.307 E29.49336
G1 X59.771 Y49.201 E29.51991
G1 X60.238 Y49.149 E29.54672
G1 X60.703 Y49.156 E29.57325
G1 X61.16 Y49.217 E29.59956
G1 X61.61 Y49.333 E29.62608
G1 X61.798 Y49.407 E29.63761
G1 X61.799 Y50.005 E29.67173
G1 X61.8 Y71.271 E30.88514
G1 X111.573 Y71.271 E33.72512
G1 X111.811 Y71.305 E33.73884
G1 X111.984 Y71.385 E33.74971
G1 X112.116 Y71.506 E33.75993
G1 X112.208 Y71.665 E33.77041
G1 X112.257 Y71.885 E33.78327
G1 X112.261 Y75.954 E34.01544
G1 X112.305 Y76.622 E34.05364
G1 X112.443 Y77.315 E34.09396
G1 X112.669 Y77.981 E34.13409
G1 X112.981 Y78.615 E34.17441
G1 X113.373 Y79.201 E34.21463
G1 X113.837 Y79.73 E34.25478
G1 X114.369 Y80.197 E34.29518
G1 X114.955 Y80.588 E34.33537
G1 X115.586 Y80.9 E34.37554
G1 X116.256 Y81.127 E34.4159
G1 X116.948 Y81.264 E34.45615
G1 X117.616 Y81.308 E34.49435
G1 X121.612 Y81.308 E34.72236
G1 X122.353 Y81.335 E34.76466
G1 X122.947 Y81.389 E34.7987
G1 X123.638 Y81.501 E34.83864
G1 X124.255 Y81.635 E34.87467
G1 X124.911 Y81.826 E34.91365
G1 X125.501 Y82.036 E34.94938
G1 X126.127 Y82.307 E34.98831
G1 X126.699 Y82.595 E35.02485
G1 X127.294 Y82.944 E35.06421
G1 X127.801 Y83.283 E35.09901
G1 X128.256 Y83.624 E35.13145
G1 X128.88 Y83.989 E35.1727
G1 X129.594 Y84.214 E35.21541
G1 X130.2 Y84.271 E35.25014
G1 X137.211 Y84.272 E35.65018
G1 X137.56 Y84.272 E35.67009
G1 X137.56 Y84.621 E35.68298
G1 X137.559 Y85.818 E35.75127
G1 X129.248 Y85.819 E36.22549
G1 X129.175 Y85.804 E36.22974
G1 X129.154 Y85.791 E36.23115
G1 X128.868 Y85.455 E36.25633
G1 X128.348 Y84.914 E36.29914
G1 X127.723 Y84.363 E36.34669
G1 X127.049 Y83.865 E36.3945
G1 X126.336 Y83.429 E36.44219
G1 X125.588 Y83.056 E36.48988
G1 X124.811 Y82.748 E36.53757
G1 X124.01 Y82.509 E36.58527
G1 X123.191 Y82.341 E36.63297
G1 X122.361 Y82.243 E36.68066
G1 X121.524 Y82.217 E36.72844
G1 X120.688 Y82.266 E36.77622
G1 X119.862 Y82.385 E36.82384
G1 X119.047 Y82.573 E36.87156
G1 X118.252 Y82.833 E36.91929
G1 X117.482 Y83.162 E36.96707
G1 X116.745 Y83.553 E37.01467
