;FLAVOR:Marlin
;TIME:11156
;Filament used: 5.5879m
;Layer height: 0.4
;MINX:50.203
;MINY:37.156
;MINZ:0.52
;MAXX:141.961
;MAXY:136.364
;MAXZ:46.92
;Generated with Cura_SteamEngine 4.1.0
M82 ;absolute extrusion mode
M98 P0:/sys/startprint.g

G92 E0
G92 E0
G10
;LAYER_COUNT:117
;LAYER:0
M107
G0 F3600 X56.19 Y46.764 Z0.52
;TYPE:SKIRT
M220 S50
G11
G1 F1800 X56.528 Y46.373 E0.02949
G1 X56.922 Y46.038 E0.059
G1 X57.363 Y45.768 E0.0885
G1 X57.783 Y45.588 E0.11458
G1 X58.227 Y45.433 E0.14141
G1 X58.611 Y45.324 E0.16419
G1 X59.056 Y45.226 E0.19019
G1 X59.428 Y45.166 E0.21169
G1 X60.107 Y45.095 E0.25064
G1 X60.565 Y45.079 E0.27679
G1 X61.144 Y45.098 E0.30984
G1 X61.551 Y45.136 E0.33317
G1 X62.172 Y45.233 E0.36903
G1 X62.499 Y45.301 E0.38809
G1 X62.741 Y45.364 E0.40236
G1 X62.94 Y45.423 E0.4142
G1 X63.352 Y45.558 E0.43894
G1 X63.83 Y45.756 E0.46846
G1 X64.335 Y46.073 E0.50248
G1 X64.543 Y46.231 E0.51738
G1 X64.598 Y46.274 E0.52137
G1 X66.311 Y47.632 E0.6461
G1 X68.525 Y49.289 E0.80389
G1 X70.749 Y50.856 E0.95912
G1 X73.032 Y52.371 E1.11546
G1 X75.36 Y53.823 E1.27201
G1 X77.689 Y55.183 E1.4259
G1 X80.119 Y56.515 E1.58401
G1 X82.523 Y57.744 E1.73807
G1 X85.022 Y58.933 E1.89598
G1 X87.508 Y60.032 E2.05107
G1 X90.054 Y61.072 E2.20799
G1 X92.616 Y62.033 E2.36412
G1 X95.179 Y62.913 E2.51874
G1 X97.771 Y63.724 E2.67371
G1 X100.441 Y64.476 E2.83198
G1 X103.078 Y65.138 E2.98711
G1 X105.749 Y65.732 E3.14324
G1 X108.453 Y66.249 E3.30032
G1 X111.106 Y66.681 E3.45369
G1 X111.912 Y66.792 E3.50012
G1 X111.978 Y66.802 E3.50393
G1 X112.604 Y66.901 E3.54009
G1 X113.107 Y67.021 E3.56959
G1 X113.435 Y67.146 E3.58962
G1 X113.901 Y67.352 E3.61869
G1 X114.403 Y67.627 E3.65135
G1 X115.165 Y68.134 E3.70358
G1 X117.437 Y69.612 E3.85823
G1 X119.814 Y71.064 E4.01716
G1 X122.155 Y72.405 E4.1711
G1 X124.609 Y73.721 E4.32999
G1 X127.026 Y74.929 E4.48416
G1 X129.486 Y76.074 E4.63899
G1 X132.021 Y77.165 E4.79646
G1 X134.565 Y78.179 E4.95272
G1 X137.098 Y79.104 E5.10658
G1 X138.3 Y79.499 E5.17878
G1 X138.351 Y79.516 E5.18184
G1 X139.688 Y79.979 E5.26258
G1 X140.163 Y80.186 E5.29214
G1 X140.599 Y80.463 E5.32162
G1 X140.988 Y80.804 E5.35113
G1 X141.32 Y81.201 E5.38066
G1 X141.587 Y81.644 E5.41017
G1 X141.782 Y82.123 E5.43968
G1 X141.902 Y82.626 E5.46919
G1 X141.937 Y82.962 E5.48846
G1 X141.955 Y83.291 E5.50727
G1 X141.96 Y83.474 E5.51771
G1 X141.96 Y85.14 E5.61277
G1 X141.95 Y85.845 E5.653
G1 X141.947 Y85.937 E5.65825
G1 X141.905 Y86.938 E5.71542
G1 X141.902 Y86.991 E5.71845
G1 X141.863 Y87.66 E5.75669
G1 X141.783 Y90.435 E5.91509
G1 X141.781 Y93.147 E6.06983
G1 X141.857 Y95.91 E6.22754
G1 X141.954 Y97.882 E6.3402
G1 X141.958 Y98.015 E6.34779
G1 X141.96 Y98.232 E6.36018
G1 X141.96 Y98.262 E6.36189
G1 X141.961 Y101.765 E6.56176
G1 X141.961 Y101.811 E6.56439
G1 X141.952 Y102.478 E6.60245
G1 X141.905 Y102.993 E6.63196
G1 X141.779 Y103.495 E6.66149
G1 X141.578 Y103.972 E6.69102
G1 X141.305 Y104.411 E6.72052
G1 X140.969 Y104.804 E6.75002
G1 X140.575 Y105.14 E6.77957
G1 X140.135 Y105.412 E6.80908
G1 X139.676 Y105.606 E6.83752
G1 X135.775 Y106.926 E7.0725
G1 X133.177 Y107.888 E7.23058
G1 X130.659 Y108.903 E7.38548
G1 X128.154 Y109.996 E7.54143
G1 X125.695 Y111.153 E7.69649
G1 X123.225 Y112.401 E7.85439
G1 X120.853 Y113.684 E8.00827
G1 X118.478 Y115.06 E8.16488
G1 X116.636 Y116.196 E8.28837
G1 X115.332 Y117.007 E8.37599
G1 X115.204 Y117.082 E8.38445
G1 X114.898 Y117.254 E8.40448
G1 X114.429 Y117.472 E8.43399
G1 X114.077 Y117.582 E8.45503
G1 X113.875 Y117.633 E8.46692
G1 X113.733 Y117.666 E8.47524
G1 X113.433 Y117.728 E8.49272
G1 X113.246 Y117.761 E8.50355
G1 X112.307 Y117.9 E8.55771
G1 X109.544 Y118.349 E8.71744
G1 X106.884 Y118.86 E8.87199
G1 X104.199 Y119.454 E9.02889
G1 X101.578 Y120.112 E9.18309
G1 X98.933 Y120.855 E9.33985
G1 X96.299 Y121.678 E9.49731
G1 X93.741 Y122.557 E9.65164
G1 X91.143 Y123.532 E9.80997
G1 X88.653 Y124.549 E9.96344
G1 X86.155 Y125.653 E10.11927
G1 X83.668 Y126.835 E10.27639
G1 X81.221 Y128.087 E10.43323
G1 X78.842 Y129.387 E10.58791
G1 X76.481 Y130.769 E10.74401
G1 X74.159 Y132.214 E10.90006
G1 X71.892 Y133.717 E11.05526
G1 X69.497 Y135.408 E11.22255
G1 X69.099 Y135.698 E11.25064
G1 X68.659 Y135.969 E11.28013
G1 X68.182 Y136.17 E11.30966
G1 X67.68 Y136.294 E11.33917
G1 X67.266 Y136.337 E11.36292
G1 X66.687 Y136.361 E11.39598
G1 X66.548 Y136.364 E11.40392
G1 X65.848 Y136.364 E11.44386
G1 X65.15 Y136.354 E11.48369
G1 X64.635 Y136.306 E11.5132
G1 X64.133 Y136.18 E11.54273
G1 X63.657 Y135.978 E11.57224
G1 X63.217 Y135.706 E11.60175
G1 X62.825 Y135.369 E11.63125
G1 X62.489 Y134.975 E11.6608
G1 X62.218 Y134.534 E11.69033
G1 X62.018 Y134.057 E11.71984
G1 X61.894 Y133.555 E11.74935
G1 X61.857 Y133.243 E11.76727
G1 X61.655 Y130.417 E11.92893
G1 X61.382 Y127.693 E12.08514
G1 X61.032 Y124.99 E12.24066
G1 X60.606 Y122.288 E12.39673
G1 X60.099 Y119.579 E12.55399
G1 X59.533 Y116.963 E12.70671
G1 X58.867 Y114.26 E12.86555
G1 X58.14 Y111.628 E13.02135
G1 X57.339 Y109.023 E13.17686
G1 X56.468 Y106.447 E13.33202
G1 X55.506 Y103.849 E13.49009
G1 X54.492 Y101.334 E13.64482
G1 X53.398 Y98.822 E13.80115
G1 X52.256 Y96.394 E13.95425
G1 X51.008 Y93.922 E14.11226
G1 X50.812 Y93.443 E14.14179
G1 X50.691 Y92.94 E14.17131
G1 X50.651 Y92.514 E14.19572
G1 X50.641 Y92.186 E14.21444
G1 X50.639 Y92.084 E14.22026
G1 X50.639 Y87.414 E14.48673
G1 X50.649 Y86.717 E14.5265
G1 X50.697 Y86.202 E14.55602
G1 X50.794 Y85.791 E14.58011
G1 X51.136 Y84.666 E14.6472
G1 X51.152 Y84.615 E14.65025
G1 X51.289 Y84.19 E14.67573
G1 X52.065 Y81.52 E14.83438
G1 X52.744 Y78.908 E14.98837
G1 X53.365 Y76.208 E15.14645
G1 X53.903 Y73.532 E15.3022
G1 X54.362 Y70.847 E15.45762
G1 X54.742 Y68.177 E15.6115
G1 X55.055 Y65.419 E15.76988
G1 X55.284 Y62.722 E15.92432
G1 X55.44 Y59.975 E16.08132
G1 X55.527 Y55.86 E16.31617
G1 X55.527 Y49.302 E16.69036
G1 X55.537 Y48.696 E16.72494
G1 X55.586 Y48.181 E16.75446
G1 X55.713 Y47.679 E16.784
G1 X55.916 Y47.203 E16.81353
G1 X56.19 Y46.764 E16.84306
G10
;MESH:blowerfanmount_4p2mmthick.stl
G0 F3600 X61.234 Y47.562
G0 X61.252 Y49.543
G0 X61.24 Y71.216
G0 X112.218 Y71.807
G0 X111.945 Y91.798
G0 X112.09 Y93.467
G0 X112.518 Y95.088
G0 X113.222 Y96.612
G0 X114.18 Y97.994
G0 X115.356 Y99.187
G0 X116.724 Y100.162
G0 X118.233 Y100.883
G0 X119.86 Y101.337
G0 X122.598 Y101.41
;TYPE:WALL-INNER
G11
G1 F1800 X123.191 Y101.34 E16.87713
G1 X124.01 Y101.172 E16.92483
G1 X124.811 Y100.933 E16.97253
G1 X125.353 Y100.719 E17.00578
G1 X125.588 Y100.626 E17.0202
G1 X126.337 Y100.253 E17.06794
G1 X127.05 Y99.815 E17.11568
G1 X127.723 Y99.318 E17.16342
G1 X128.349 Y98.766 E17.21104
G1 X128.916 Y98.174 E17.25782
G1 X129.173 Y97.877 E17.28023
G1 X129.243 Y97.864 E17.28429
G1 X137.559 Y97.863 E17.75879
G1 X137.561 Y101.061 E17.94126
G1 X137.561 Y101.41 E17.96118
G1 X137.212 Y101.41 E17.97406
G1 X125.394 Y101.41 E18.64838
G1 X124.811 Y101.41 E18.67645
G1 X124.01 Y101.41 E18.69959
G1 X123.191 Y101.41 E18.70971
G1 X122.598 Y101.41 E18.71135
G0 F3600 X120.591 Y101.43
G0 X118.233 Y100.883
G0 X117.011 Y100.3
G0 X76.021 Y74.081
G0 X75.924 Y74.105
G1 F1800 X75.635 Y73.412 E18.75419
G1 X75.188 Y72.834 E18.79588
G1 X74.533 Y72.354 E18.84222
G1 X73.839 Y72.105 E18.88429
G1 X73.121 Y72.043 E18.92541
G1 X72.412 Y72.172 E18.96653
G1 X71.761 Y72.477 E19.00755
G1 X71.21 Y72.942 E19.04869
G1 X70.8 Y73.533 E19.08973
G1 X70.551 Y74.219 E19.13137
G1 X70.498 Y75.039 E19.17826
G1 X70.695 Y75.846 E19.22565
G1 X71.066 Y76.484 E19.26776
G1 X71.576 Y76.993 E19.30888
G1 X72.201 Y77.351 E19.34998
G1 X72.898 Y77.536 E19.39112
G1 X73.619 Y77.534 E19.43226
G1 X74.324 Y77.342 E19.47395
G1 X75.018 Y76.921 E19.52027
G1 X75.515 Y76.375 E19.5624
G1 X75.846 Y75.736 E19.60346
G1 X76.004 Y75.009 E19.64591
G1 X75.924 Y74.105 E19.69769
G0 F3600 X75.285 Y74.262
;TYPE:WALL-OUTER
G1 F1800 X75.068 Y73.741 E19.72989
G1 X74.73 Y73.304 E19.76142
G1 X74.225 Y72.934 E19.79714
G1 X73.699 Y72.745 E19.82903
G1 X73.152 Y72.698 E19.86036
G1 X72.611 Y72.796 E19.89173
G1 X72.115 Y73.029 E19.92299
G1 X71.695 Y73.383 E19.95434
G1 X71.382 Y73.834 E19.98566
G1 X71.194 Y74.353 E20.01716
G1 X71.153 Y74.982 E20.05312
G1 X71.304 Y75.601 E20.08948
G1 X71.585 Y76.084 E20.12136
G1 X71.974 Y76.472 E20.15271
G1 X72.45 Y76.745 E20.18402
G1 X72.982 Y76.886 E20.21542
G1 X73.531 Y76.884 E20.24675
G1 X74.065 Y76.739 E20.27832
G1 X74.6 Y76.414 E20.31404
G1 X74.977 Y76 E20.34599
G1 X75.229 Y75.513 E20.37728
G1 X75.348 Y74.968 E20.40911
G1 X75.285 Y74.262 E20.44955
G0 F3600 X75.132 Y73.893
G0 X75.843 Y73.598
G0 X107.117 Y72.004
G0 X108.55 Y72.319
G0 X109.582 Y73.279
G0 X109.924 Y74.105
;TYPE:WALL-INNER
G1 F1800 X109.635 Y73.412 E20.49239
G1 X109.188 Y72.834 E20.53408
G1 X108.533 Y72.354 E20.58042
G1 X107.839 Y72.105 E20.62249
G1 X107.121 Y72.043 E20.66361
G1 X106.412 Y72.172 E20.70473
G1 X105.761 Y72.477 E20.74575
G1 X105.21 Y72.942 E20.78689
G1 X104.8 Y73.533 E20.82793
G1 X104.551 Y74.219 E20.86957
G1 X104.498 Y75.039 E20.91645
G1 X104.695 Y75.846 E20.96385
G1 X105.066 Y76.484 E21.00596
G1 X105.576 Y76.993 E21.04708
G1 X106.201 Y77.351 E21.08817
G1 X106.898 Y77.536 E21.12932
G1 X107.619 Y77.534 E21.17046
G1 X108.324 Y77.342 E21.21215
G1 X109.018 Y76.921 E21.25847
G1 X109.515 Y76.375 E21.3006
G1 X109.846 Y75.736 E21.34166
G1 X110.004 Y75.009 E21.38411
G1 X109.924 Y74.105 E21.43589
G0 F3600 X109.285 Y74.262
;TYPE:WALL-OUTER
G1 F1800 X109.068 Y73.741 E21.46809
G1 X108.73 Y73.304 E21.49962
G1 X108.225 Y72.934 E21.53534
G1 X107.699 Y72.745 E21.56723
G1 X107.152 Y72.698 E21.59855
G1 X106.611 Y72.796 E21.62993
G1 X106.115 Y73.029 E21.66119
G1 X105.695 Y73.383 E21.69254
G1 X105.382 Y73.834 E21.72386
G1 X105.194 Y74.353 E21.75536
G1 X105.153 Y74.982 E21.79132
G1 X105.304 Y75.601 E21.82768
G1 X105.585 Y76.084 E21.85956
G1 X105.974 Y76.472 E21.89091
G1 X106.45 Y76.745 E21.92222
G1 X106.982 Y76.886 E21.95362
G1 X107.531 Y76.884 E21.98495
G1 X108.065 Y76.739 E22.01652
G1 X108.6 Y76.414 E22.05224
G1 X108.977 Y76 E22.08419
G1 X109.229 Y75.513 E22.11548
G1 X109.348 Y74.968 E22.1473
G1 X109.285 Y74.262 E22.18775
G0 F3600 X109.132 Y73.893
G0 X109.843 Y73.598
G0 X110.006 Y74.614
G0 X110.021 Y108.081
G0 X109.924 Y108.105
;TYPE:WALL-INNER
G1 F1800 X109.635 Y107.412 E22.23059
G1 X109.188 Y106.834 E22.27228
G1 X108.533 Y106.354 E22.31862
G1 X107.839 Y106.105 E22.36069
G1 X107.121 Y106.043 E22.40181
G1 X106.412 Y106.172 E22.44293
G1 X105.761 Y106.477 E22.48395
G1 X105.21 Y106.942 E22.52509
G1 X104.8 Y107.533 E22.56613
G1 X104.551 Y108.219 E22.60777
G1 X104.498 Y109.039 E22.65465
G1 X104.695 Y109.846 E22.70205
G1 X105.066 Y110.484 E22.74416
G1 X105.576 Y110.993 E22.78528
G1 X106.201 Y111.351 E22.82637
G1 X106.898 Y111.536 E22.86752
G1 X107.619 Y111.534 E22.90866
G1 X108.324 Y111.342 E22.95035
G1 X109.018 Y110.921 E22.99667
G1 X109.515 Y110.375 E23.03879
G1 X109.846 Y109.736 E23.07986
G1 X110.004 Y109.009 E23.12231
G1 X109.924 Y108.105 E23.17409
G0 F3600 X109.285 Y108.262
;TYPE:WALL-OUTER
G1 F1800 X109.068 Y107.741 E23.20629
G1 X108.73 Y107.304 E23.23782
G1 X108.225 Y106.934 E23.27354
G1 X107.699 Y106.745 E23.30543
G1 X107.152 Y106.698 E23.33675
G1 X106.611 Y106.796 E23.36812
G1 X106.115 Y107.029 E23.39939
G1 X105.695 Y107.383 E23.43073
G1 X105.382 Y107.834 E23.46206
G1 X105.194 Y108.353 E23.49355
G1 X105.153 Y108.982 E23.52952
G1 X105.304 Y109.601 E23.56588
G1 X105.585 Y110.084 E23.59776
G1 X105.974 Y110.472 E23.62911
G1 X106.45 Y110.745 E23.66042
G1 X106.982 Y110.886 E23.69182
G1 X107.531 Y110.884 E23.72315
G1 X108.065 Y110.739 E23.75472
G1 X108.6 Y110.414 E23.79044
G1 X108.977 Y110 E23.82239
G1 X109.229 Y109.513 E23.85367
G1 X109.348 Y108.968 E23.8855
G1 X109.285 Y108.262 E23.92595
G0 F3600 X109.132 Y107.893
G0 X109.843 Y107.598
G0 X109.214 Y106.806
G0 X107.851 Y106.066
G0 X76.021 Y108.081
G0 X75.924 Y108.105
;TYPE:WALL-INNER
G1 F1800 X75.635 Y107.412 E23.96879
G1 X75.188 Y106.834 E24.01048
G1 X74.533 Y106.354 E24.05682
G1 X73.839 Y106.105 E24.09889
G1 X73.121 Y106.043 E24.14001
G1 X72.412 Y106.172 E24.18113
G1 X71.761 Y106.477 E24.22215
G1 X71.21 Y106.942 E24.26328
G1 X70.8 Y107.533 E24.30433
G1 X70.551 Y108.219 E24.34597
G1 X70.498 Y109.039 E24.39285
G1 X70.695 Y109.846 E24.44025
G1 X71.066 Y110.484 E24.48236
G1 X71.576 Y110.993 E24.52348
G1 X72.201 Y111.351 E24.56457
G1 X72.898 Y111.536 E24.60572
G1 X73.619 Y111.534 E24.64686
G1 X74.324 Y111.342 E24.68855
G1 X75.018 Y110.921 E24.73487
G1 X75.515 Y110.375 E24.77699
G1 X75.846 Y109.736 E24.81806
G1 X76.004 Y109.009 E24.86051
G1 X75.924 Y108.105 E24.91229
G0 F3600 X75.285 Y108.262
;TYPE:WALL-OUTER
G1 F1800 X75.068 Y107.741 E24.94449
G1 X74.73 Y107.304 E24.97601
G1 X74.225 Y106.934 E25.01174
G1 X73.699 Y106.745 E25.04363
G1 X73.152 Y106.698 E25.07495
G1 X72.611 Y106.796 E25.10632
G1 X72.115 Y107.029 E25.13759
G1 X71.695 Y107.383 E25.16893
G1 X71.382 Y107.834 E25.20026
G1 X71.194 Y108.353 E25.23175
G1 X71.153 Y108.982 E25.26772
G1 X71.304 Y109.601 E25.30407
G1 X71.585 Y110.084 E25.33596
G1 X71.974 Y110.472 E25.36731
G1 X72.45 Y110.745 E25.39862
G1 X72.982 Y110.886 E25.43002
G1 X73.531 Y110.884 E25.46135
G1 X74.065 Y110.739 E25.49292
G1 X74.6 Y110.414 E25.52864
G1 X74.977 Y110 E25.56059
G1 X75.229 Y109.513 E25.59187
G1 X75.348 Y108.968 E25.6237
G1 X75.285 Y108.262 E25.66415
G0 F3600 X75.132 Y107.893
G0 X75.843 Y107.598
G0 X66.567 Y96.302
G0 X66.295 Y95.545
;TYPE:WALL-INNER
G1 F1800 X66.602 Y96.283 E25.70975
G1 X66.903 Y96.676 E25.738
G1 X67.087 Y96.916 E25.75525
G1 X67.72 Y97.401 E25.80076
G1 X68.458 Y97.708 E25.84636
G1 X69.25 Y97.811 E25.89193
G1 X70.042 Y97.708 E25.93751
G1 X70.78 Y97.401 E25.98311
G1 X71.413 Y96.916 E26.02861
G1 X71.898 Y96.283 E26.07411
G1 X72.205 Y95.545 E26.11972
G1 X72.308 Y94.753 E26.16529
G1 X72.205 Y93.963 E26.21075
G1 X71.899 Y93.223 E26.25644
G1 X71.413 Y92.59 E26.30198
G1 X70.78 Y92.105 E26.34748
G1 X70.042 Y91.798 E26.39309
G1 X69.25 Y91.695 E26.43866
G1 X68.458 Y91.798 E26.48423
G1 X67.72 Y92.105 E26.52984
G1 X67.087 Y92.59 E26.57534
G1 X66.903 Y92.83 E26.59259
G1 X66.601 Y93.223 E26.62087
G1 X66.295 Y93.963 E26.66656
G1 X66.239 Y94.393 E26.69131
G1 X66.239 Y93.963 E26.69226
G1 X66.239 Y93.223 E26.70427
G1 X66.239 Y92.727 E26.72612
G1 X66.239 Y91.364 E26.80389
G1 X55.039 Y91.364 E27.44295
G1 X55.039 Y88.154 E27.6261
G1 X55.039 Y87.805 E27.64602
G1 X55.388 Y87.805 E27.6589
G1 X59.578 Y87.806 E27.89797
G1 X59.927 Y87.806 E27.91789
G1 X59.927 Y87.457 E27.93077
G1 X59.927 Y49.563 E30.09295
G1 X59.927 Y49.531 E30.09478
G1 X60.109 Y49.495 E30.10536
G1 X60.561 Y49.462 E30.13122
G1 X60.593 Y49.463 E30.13305
G1 X61.007 Y49.485 E30.1567
G1 X61.267 Y49.531 E30.17177
G1 X61.268 Y71.188 E31.40749
G1 X111.573 Y71.188 E34.27783
G1 X111.811 Y71.222 E34.29154
G1 X111.984 Y71.302 E34.30242
G1 X112.116 Y71.423 E34.31264
G1 X112.208 Y71.582 E34.32312
G1 X112.257 Y71.802 E34.33598
G1 X112.261 Y75.871 E34.56815
G1 X112.305 Y76.539 E34.60635
G1 X112.443 Y77.232 E34.64667
G1 X112.669 Y77.898 E34.6868
G1 X112.981 Y78.53 E34.72701
G1 X113.373 Y79.119 E34.76738
G1 X113.838 Y79.648 E34.80757
G1 X114.368 Y80.114 E34.84784
G1 X114.955 Y80.505 E34.88808
G1 X115.586 Y80.817 E34.92825
G1 X116.256 Y81.044 E34.96861
G1 X116.948 Y81.181 E35.00886
G1 X117.616 Y81.225 E35.04706
G1 X121.612 Y81.225 E35.27507
G1 X122.353 Y81.252 E35.31737
G1 X122.947 Y81.306 E35.35141
G1 X123.638 Y81.418 E35.39135
G1 X124.255 Y81.552 E35.42738
G1 X124.911 Y81.743 E35.46636
G1 X125.501 Y81.953 E35.50209
G1 X126.127 Y82.224 E35.54102
G1 X126.699 Y82.512 E35.57756
G1 X127.294 Y82.861 E35.61692
G1 X127.801 Y83.2 E35.65172
G1 X128.256 Y83.541 E35.68416
G1 X128.88 Y83.906 E35.72541
G1 X129.594 Y84.131 E35.76812
G1 X130.2 Y84.188 E35.80285
G1 X137.211 Y84.19 E36.20289
G1 X137.56 Y84.19 E36.2228
G1 X137.56 Y84.539 E36.23569
G1 X137.559 Y85.735 E36.30393
G1 X129.245 Y85.736 E36.77831
G1 X129.176 Y85.722 E36.78233
G1 X129.155 Y85.708 E36.78377
G1 X128.867 Y85.372 E36.80902
G1 X128.348 Y84.832 E36.85176
G1 X127.723 Y84.28 E36.89934
G1 X127.049 Y83.782 E36.94715
G1 X126.336 Y83.346 E36.99484
G1 X125.588 Y82.973 E37.04253
G1 X124.811 Y82.665 E37.09022
G1 X124.01 Y82.426 E37.13792
G1 X123.191 Y82.258 E37.18562
G1 X122.36 Y82.16 E37.23337
