;FLAVOR:Marlin
;TIME:19947
;Filament used: 10.5737m
;Layer height: 0.4
;MINX:8.489
;MINY:33.364
;MINZ:0.52
;MAXX:181.511
;MAXY:136.636
;MAXZ:42.52
;Generated with Cura_SteamEngine 4.1.0
M82 ;absolute extrusion mode
M98 P0:/sys/startprint.g

G92 E0
G92 E0
G10
;LAYER_COUNT:106
;LAYER:0
M107
G0 F3600 X30.373 Y34.472 Z0.52
;TYPE:SKIRT
G11
G1 F1800 X30.78 Y34.193 E0.02816
G1 X31.208 Y33.944 E0.05641
G1 X31.674 Y33.72 E0.08591
G1 X32.073 Y33.592 E0.10982
G1 X32.275 Y33.541 E0.12171
G1 X32.41 Y33.51 E0.12961
G1 X32.707 Y33.448 E0.14692
G1 X33.285 Y33.379 E0.18014
G1 X33.505 Y33.372 E0.1927
G1 X33.573 Y33.37 E0.19658
G1 X33.832 Y33.367 E0.21136
G1 X33.868 Y33.367 E0.21341
G1 X36.95 Y33.364 E0.38927
G1 X36.953 Y33.364 E0.38944
G1 X115.996 Y33.365 E4.89953
G1 X155.792 Y33.364 E7.17023
G1 X155.84 Y33.364 E7.17297
G1 X156.541 Y33.374 E7.21298
G1 X156.912 Y33.4 E7.2342
G1 X157.158 Y33.431 E7.24834
G1 X157.276 Y33.448 E7.25515
G1 X157.467 Y33.479 E7.26619
G1 X157.969 Y33.601 E7.29566
G1 X158.282 Y33.721 E7.31479
G1 X158.749 Y33.927 E7.34391
G1 X159.205 Y34.172 E7.37345
G1 X159.634 Y34.499 E7.40423
G1 X160.024 Y34.849 E7.43413
G1 X160.382 Y35.223 E7.46367
G1 X160.696 Y35.68 E7.49531
G1 X161.268 Y36.681 E7.56109
G1 X161.267 Y36.681 E7.56115
G1 X162.648 Y39.058 E7.71801
G1 X164.089 Y41.381 E7.87398
G1 X165.601 Y43.673 E8.03066
G1 X167.164 Y45.901 E8.18594
G1 X168.796 Y48.095 E8.34197
G1 X170.489 Y50.241 E8.49793
G1 X172.262 Y52.361 E8.65562
G1 X174.045 Y54.374 E8.80906
G1 X175.919 Y56.375 E8.96549
G1 X177.848 Y58.319 E9.12175
G1 X178.717 Y59.153 E9.19048
G1 X178.756 Y59.192 E9.19362
G1 X179.137 Y59.57 E9.22425
G1 X179.244 Y59.68 E9.233
G1 X179.519 Y59.979 E9.25618
G1 X179.667 Y60.152 E9.26917
G1 X179.796 Y60.313 E9.28094
G1 X179.887 Y60.432 E9.28949
G1 X180.066 Y60.677 E9.3068
G1 X180.241 Y60.941 E9.32488
G1 X180.502 Y61.38 E9.35402
G1 X180.673 Y61.708 E9.37512
G1 X180.878 Y62.16 E9.40344
G1 X181.006 Y62.489 E9.42359
G1 X181.165 Y62.968 E9.45238
G1 X181.261 Y63.316 E9.47298
G1 X181.373 Y63.835 E9.50328
G1 X181.43 Y64.199 E9.5243
G1 X181.464 Y64.529 E9.54323
G1 X181.481 Y64.803 E9.55889
G1 X181.505 Y65.973 E9.62567
G1 X181.506 Y66.04 E9.62949
G1 X181.511 Y74.547 E10.11489
G1 X181.511 Y74.598 E10.1178
G1 X181.502 Y75.211 E10.15278
G1 X181.499 Y75.301 E10.15792
G1 X181.483 Y75.686 E10.1799
G1 X181.477 Y75.786 E10.18562
G1 X181.462 Y75.996 E10.19763
G1 X181.427 Y76.297 E10.21492
G1 X181.344 Y76.805 E10.24429
G1 X181.259 Y77.186 E10.26657
G1 X181.122 Y77.665 E10.29499
G1 X181.012 Y77.987 E10.31441
G1 X180.825 Y78.455 E10.34316
G1 X180.694 Y78.742 E10.36117
G1 X180.599 Y78.927 E10.37303
G1 X180.549 Y79.021 E10.37911
G1 X180.401 Y79.288 E10.39653
G1 X180.216 Y79.584 E10.41644
G1 X179.211 Y81.021 E10.5165
G1 X177.531 Y83.462 E10.68558
G1 X176.062 Y85.74 E10.84024
G1 X174.632 Y88.102 E10.99779
G1 X173.297 Y90.454 E11.1521
G1 X172.001 Y92.896 E11.30984
G1 X170.804 Y95.313 E11.46374
G1 X169.659 Y97.801 E11.62002
G1 X168.573 Y100.348 E11.778
G1 X167.577 Y102.877 E11.93309
G1 X166.649 Y105.452 E12.08927
G1 X165.797 Y108.039 E12.24468
G1 X165.012 Y110.669 E12.40128
G1 X164.308 Y113.299 E12.55663
G1 X163.68 Y115.943 E12.71169
G1 X163.111 Y118.671 E12.8707
G1 X162.637 Y121.333 E13.02498
G1 X162.237 Y124.01 E13.17942
G1 X161.905 Y126.751 E13.33696
G1 X161.656 Y129.459 E13.49213
G1 X161.601 Y130.367 E13.54403
G1 X161.597 Y130.419 E13.54701
G1 X161.515 Y131.496 E13.60864
G1 X161.507 Y131.594 E13.61425
G1 X161.423 Y132.39 E13.65992
G1 X161.329 Y132.898 E13.6894
G1 X161.173 Y133.351 E13.71673
G1 X160.983 Y133.797 E13.7444
G1 X160.744 Y134.256 E13.77392
G1 X160.466 Y134.639 E13.80093
G1 X160.125 Y135.045 E13.83118
G1 X159.763 Y135.414 E13.86067
G1 X159.32 Y135.741 E13.89209
G1 X158.928 Y135.983 E13.91838
G1 X158.468 Y136.22 E13.9479
G1 X158.054 Y136.363 E13.97289
G1 X157.569 Y136.496 E14.00159
G1 X157.061 Y136.594 E14.03111
G1 X156.746 Y136.614 E14.04912
G1 X156.104 Y136.626 E14.08576
G1 X156.046 Y136.627 E14.08907
G1 X150.202 Y136.636 E14.42252
G1 X150.197 Y136.636 E14.4228
G1 X62.7 Y136.635 E19.41527
G1 X34.208 Y136.636 E21.04098
G1 X34.16 Y136.636 E21.04372
G1 X33.46 Y136.626 E21.08367
G1 X33.096 Y136.601 E21.10449
G1 X32.87 Y136.573 E21.11748
G1 X32.752 Y136.556 E21.12428
G1 X32.54 Y136.522 E21.13653
G1 X32.037 Y136.401 E21.16605
G1 X31.717 Y136.279 E21.18559
G1 X31.248 Y136.072 E21.21485
G1 X30.793 Y135.827 E21.24433
G1 X30.361 Y135.498 E21.27532
G1 X29.975 Y135.151 E21.30493
G1 X29.619 Y134.777 E21.33439
G1 X29.319 Y134.344 E21.36445
G1 X29.066 Y133.909 E21.39316
G1 X28.841 Y133.443 E21.42269
G1 X28.709 Y133.026 E21.44765
G1 X28.661 Y132.831 E21.45911
G1 X28.633 Y132.708 E21.4663
G1 X28.572 Y132.413 E21.48349
G1 X28.509 Y131.941 E21.51066
G1 X28.45 Y130.985 E21.56531
G1 X28.245 Y128.282 E21.71999
G1 X27.958 Y125.542 E21.87718
G1 X27.597 Y122.833 E22.03312
G1 X27.156 Y120.115 E22.19023
G1 X26.647 Y117.455 E22.34476
G1 X26.062 Y114.809 E22.49939
G1 X25.392 Y112.126 E22.65718
G1 X24.646 Y109.475 E22.81431
G1 X23.847 Y106.91 E22.96761
G1 X22.951 Y104.298 E23.12517
G1 X21.982 Y101.716 E23.28253
G1 X20.959 Y99.206 E23.43718
G1 X19.862 Y96.72 E23.59223
G1 X18.682 Y94.235 E23.74919
G1 X17.446 Y91.815 E23.90424
G1 X16.128 Y89.402 E24.06112
G1 X14.739 Y87.025 E24.21821
G1 X13.313 Y84.734 E24.37219
G1 X11.788 Y82.432 E24.52974
G1 X9.888 Y79.747 E24.71742
G1 X9.736 Y79.512 E24.73339
G1 X9.488 Y79.091 E24.76127
G1 X9.322 Y78.772 E24.78179
G1 X9.113 Y78.31 E24.81072
G1 X8.977 Y77.958 E24.83226
G1 X8.822 Y77.478 E24.86104
G1 X8.733 Y77.147 E24.88059
G1 X8.624 Y76.635 E24.91046
G1 X8.572 Y76.314 E24.92902
G1 X8.547 Y76.093 E24.94171
G1 X8.527 Y75.801 E24.95841
G1 X8.495 Y74.533 E25.03078
G1 X8.494 Y74.45 E25.03552
G1 X8.489 Y65.926 E25.52189
G1 X8.489 Y65.873 E25.52491
G1 X8.498 Y65.277 E25.55892
G1 X8.501 Y65.189 E25.56395
G1 X8.517 Y64.804 E25.58593
G1 X8.522 Y64.705 E25.59159
G1 X8.537 Y64.494 E25.60366
G1 X8.573 Y64.191 E25.62107
G1 X8.656 Y63.684 E25.65038
G1 X8.727 Y63.353 E25.6697
G1 X8.782 Y63.149 E25.68175
G1 X8.802 Y63.079 E25.68591
G1 X8.884 Y62.799 E25.70255
G1 X8.993 Y62.485 E25.72152
G1 X9.181 Y62.02 E25.75014
G1 X9.305 Y61.749 E25.76714
G1 X9.41 Y61.544 E25.78029
G1 X9.472 Y61.429 E25.78774
G1 X9.612 Y61.18 E25.80404
G1 X9.765 Y60.934 E25.82057
G1 X10.042 Y60.528 E25.84861
G1 X10.269 Y60.232 E25.8699
G1 X10.612 Y59.833 E25.89992
G1 X10.831 Y59.602 E25.91808
G1 X11.27 Y59.18 E25.95283
G1 X13.231 Y57.249 E26.10986
G1 X15.146 Y55.254 E26.26765
G1 X16.985 Y53.226 E26.42386
G1 X18.753 Y51.162 E26.57892
G1 X20.468 Y49.042 E26.73451
G1 X22.123 Y46.873 E26.89019
G1 X23.734 Y44.632 E27.04767
G1 X25.258 Y42.382 E27.20273
G1 X26.727 Y40.074 E27.35883
G1 X28.138 Y37.711 E27.51587
G1 X29.207 Y35.815 E27.64006
G1 X29.655 Y35.197 E27.68361
G1 X29.995 Y34.826 E27.71233
G1 X30.373 Y34.472 E27.74188
G10
;MESH:box_bbtskrminie3.stl
G0 F3600 X26.472 Y59.701
G0 X26.511 Y61.003
G0 X19.663 Y67.622
G0 X19.72 Y67.703
;TYPE:WALL-OUTER
G11
G1 F1800 X19.212 Y68.149 E27.78045
G1 X18.814 Y68.694 E27.81896
G1 X18.541 Y69.312 E27.85751
G1 X18.409 Y69.975 E27.89608
G1 X18.424 Y70.65 E27.9346
G1 X18.585 Y71.306 E27.97314
G1 X18.884 Y71.912 E28.0117
G1 X19.306 Y72.439 E28.05022
G1 X19.833 Y72.861 E28.08875
G1 X20.439 Y73.16 E28.1273
G1 X21.095 Y73.321 E28.16584
G1 X21.77 Y73.336 E28.20437
G1 X22.433 Y73.204 E28.24294
G1 X23.051 Y72.931 E28.28149
G1 X23.596 Y72.533 E28.32
G1 X24.042 Y72.025 E28.35857
G1 X24.366 Y71.432 E28.39713
G1 X24.554 Y70.788 E28.43541
G1 X24.602 Y70.241 E28.46674
G1 X24.529 Y69.574 E28.50502
G1 X24.312 Y68.934 E28.54358
G1 X23.961 Y68.356 E28.58217
G1 X23.495 Y67.869 E28.62063
G1 X22.933 Y67.493 E28.65921
G1 X22.303 Y67.248 E28.69778
G1 X21.636 Y67.146 E28.73628
G1 X20.961 Y67.19 E28.77487
G1 X20.313 Y67.379 E28.81339
G1 X19.72 Y67.703 E28.85195
G0 F3600 X19.42 Y67.966
G0 X18.913 Y67.387
G0 X30.019 Y59.828
G0 X30.924 Y58.961
G0 X31.622 Y57.92
G0 X38.82 Y42.178
G0 X38.878 Y41.055
G0 X38.782 Y41.08
G1 F1800 X38.571 Y40.573 E28.88328
G1 X38.237 Y40.138 E28.91457
G1 X37.802 Y39.804 E28.94587
G1 X37.293 Y39.593 E28.9773
G1 X36.749 Y39.522 E29.00861
G1 X36.205 Y39.593 E29.03991
G1 X35.698 Y39.804 E29.07125
G1 X35.263 Y40.138 E29.10254
G1 X34.929 Y40.573 E29.13383
G1 X34.718 Y41.082 E29.16527
G1 X34.647 Y41.626 E29.19657
G1 X34.718 Y42.17 E29.22788
G1 X34.929 Y42.677 E29.25921
G1 X35.263 Y43.112 E29.2905
G1 X35.698 Y43.446 E29.3218
G1 X36.207 Y43.657 E29.35324
G1 X36.751 Y43.728 E29.38454
G1 X37.295 Y43.657 E29.41584
G1 X37.802 Y43.446 E29.44718
G1 X38.237 Y43.112 E29.47847
G1 X38.571 Y42.677 E29.50976
G1 X38.782 Y42.168 E29.5412
G1 X38.853 Y41.625 E29.57245
G1 X38.782 Y41.08 E29.60381
G0 F3600 X38.629 Y40.711
G0 X39.34 Y40.417
G0 X55.384 Y50.822
G0 X56.015 Y51.842
G0 X55.957 Y53.326
G0 X55.866 Y53.286
G1 F1800 X56.031 Y52.706 E29.63822
G1 X56.052 Y52.401 E29.65566
G1 X55.977 Y51.852 E29.68728
G1 X55.726 Y51.288 E29.7225
G1 X55.358 Y50.851 E29.7551
G1 X54.841 Y50.509 E29.79047
G1 X54.298 Y50.341 E29.8229
G1 X53.746 Y50.321 E29.85442
G1 X53.147 Y50.47 E29.88964
G1 X52.653 Y50.758 E29.92226
G1 X52.227 Y51.206 E29.95754
G1 X51.969 Y51.711 E29.98989
G1 X51.852 Y52.252 E30.02148
G1 X51.895 Y52.868 E30.05671
G1 X52.092 Y53.401 E30.08913
G1 X52.413 Y53.852 E30.12072
G1 X52.896 Y54.236 E30.15593
G1 X53.421 Y54.45 E30.18828
G1 X53.971 Y54.519 E30.2199
G1 X54.58 Y54.422 E30.25509
G1 X55.097 Y54.179 E30.28769
G1 X55.559 Y53.77 E30.32289
G1 X55.866 Y53.286 E30.3556
G0 F3600 X55.975 Y52.902
G0 X56.715 Y53.113
G0 X46.663 Y67.622
G0 X46.72 Y67.703
G1 F1800 X46.212 Y68.149 E30.39417
G1 X45.814 Y68.694 E30.43268
G1 X45.541 Y69.312 E30.47123
G1 X45.409 Y69.975 E30.5098
G1 X45.424 Y70.65 E30.54832
G1 X45.585 Y71.306 E30.58686
G1 X45.884 Y71.912 E30.62542
G1 X46.306 Y72.439 E30.66394
G1 X46.833 Y72.861 E30.70247
G1 X47.439 Y73.16 E30.74102
G1 X48.095 Y73.321 E30.77956
G1 X48.77 Y73.336 E30.81809
G1 X49.433 Y73.204 E30.85666
G1 X50.051 Y72.931 E30.89521
G1 X50.596 Y72.533 E30.93372
G1 X51.042 Y72.025 E30.97229
G1 X51.366 Y71.432 E31.01085
G1 X51.554 Y70.788 E31.04912
G1 X51.602 Y70.241 E31.08046
G1 X51.529 Y69.574 E31.11874
G1 X51.312 Y68.934 E31.1573
G1 X50.961 Y68.356 E31.19589
G1 X50.495 Y67.869 E31.23435
G1 X49.933 Y67.493 E31.27293
G1 X49.303 Y67.248 E31.3115
G1 X48.636 Y67.146 E31.35
G1 X47.961 Y67.19 E31.38859
G1 X47.313 Y67.379 E31.42711
G1 X46.72 Y67.703 E31.46567
G0 F3600 X46.42 Y67.966
G0 X45.913 Y67.387
G0 X45.474 Y69.48
G0 X38.849 Y115.389
G0 X38.857 Y115.488
G1 F1800 X38.238 Y115.639 E31.50202
G1 X37.747 Y115.925 E31.53444
G1 X37.317 Y116.376 E31.57
G1 X37.06 Y116.877 E31.60213
G1 X36.942 Y117.417 E31.63366
G1 X36.985 Y118.038 E31.66918
G1 X37.18 Y118.566 E31.7013
G1 X37.498 Y119.014 E31.73265
G1 X37.923 Y119.368 E31.76421
G1 X38.492 Y119.616 E31.79962
G1 X39.052 Y119.689 E31.83185
G1 X39.596 Y119.613 E31.86319
G1 X40.101 Y119.4 E31.89446
G1 X40.539 Y119.061 E31.92606
G1 X40.905 Y118.56 E31.96146
G1 X41.095 Y118.034 E31.99338
G1 X41.143 Y117.579 E32.01948
G1 X41.068 Y117.03 E32.0511
G1 X40.855 Y116.524 E32.08242
G1 X40.519 Y116.089 E32.11379
G1 X40.079 Y115.755 E32.14531
G1 X39.495 Y115.53 E32.18102
G1 X38.857 Y115.488 E32.2175
G0 F3600 X38.469 Y115.582
G0 X38.288 Y114.834
G0 X37.285 Y116.353
G0 X36.903 Y117.415
G0 X38.878 Y127.805
G0 X38.782 Y127.83
G1 F1800 X38.571 Y127.323 E32.24883
G1 X38.237 Y126.888 E32.28012
G1 X37.802 Y126.554 E32.31142
G1 X37.293 Y126.343 E32.34286
G1 X36.749 Y126.272 E32.37416
G1 X36.205 Y126.343 E32.40546
G1 X35.698 Y126.554 E32.4368
G1 X35.263 Y126.888 E32.46809
G1 X34.929 Y127.323 E32.49938
G1 X34.718 Y127.832 E32.53082
G1 X34.647 Y128.376 E32.56213
G1 X34.718 Y128.92 E32.59343
G1 X34.929 Y129.427 E32.62476
G1 X35.263 Y129.862 E32.65606
G1 X35.698 Y130.196 E32.68735
G1 X36.207 Y130.407 E32.71879
G1 X36.751 Y130.478 E32.75009
G1 X37.295 Y130.407 E32.78139
G1 X37.802 Y130.196 E32.81273
G1 X38.237 Y129.862 E32.84402
G1 X38.571 Y129.427 E32.87531
G1 X38.782 Y128.918 E32.90675
G1 X38.853 Y128.375 E32.938
G1 X38.782 Y127.83 E32.96936
G0 F3600 X38.629 Y127.461
G0 X39.34 Y127.167
G0 X153.249 Y126.232
G0 X154.322 Y126.52
G0 X155.378 Y127.805
G0 X155.282 Y127.83
G1 F1800 X155.071 Y127.323 E33.00069
G1 X154.737 Y126.888 E33.03199
G1 X154.302 Y126.554 E33.06328
G1 X153.793 Y126.343 E33.09472
G1 X153.249 Y126.272 E33.12602
G1 X152.705 Y126.343 E33.15733
G1 X152.198 Y126.554 E33.18866
G1 X151.763 Y126.888 E33.21995
G1 X151.429 Y127.323 E33.25125
G1 X151.218 Y127.832 E33.28269
G1 X151.147 Y128.376 E33.31399
G1 X151.218 Y128.92 E33.34529
G1 X151.429 Y129.427 E33.37663
G1 X151.763 Y129.862 E33.40792
G1 X152.198 Y130.196 E33.43921
G1 X152.707 Y130.407 E33.47065
G1 X153.251 Y130.478 E33.50195
G1 X153.795 Y130.407 E33.53326
G1 X154.302 Y130.196 E33.56459
G1 X154.737 Y129.862 E33.59588
G1 X155.071 Y129.427 E33.62718
G1 X155.282 Y128.918 E33.65862
G1 X155.353 Y128.375 E33.68986
G1 X155.282 Y127.83 E33.72122
G0 F3600 X155.129 Y127.461
G0 X155.84 Y127.167
G0 X135.967 Y88.986
G0 X135.876 Y88.946
G1 F1800 X136.041 Y88.366 E33.75563
G1 X136.062 Y88.061 E33.77307
G1 X135.987 Y87.512 E33.80469
G1 X135.736 Y86.948 E33.83991
G1 X135.368 Y86.511 E33.87251
G1 X134.851 Y86.169 E33.90788
G1 X134.308 Y86.001 E33.94031
G1 X133.756 Y85.981 E33.97183
G1 X133.157 Y86.13 E34.00705
G1 X132.663 Y86.418 E34.03968
G1 X132.237 Y86.866 E34.07495
G1 X131.979 Y87.371 E34.10731
G1 X131.862 Y87.912 E34.13889
G1 X131.905 Y88.528 E34.17413
G1 X132.102 Y89.061 E34.20655
G1 X132.423 Y89.512 E34.23813
G1 X132.906 Y89.896 E34.27334
G1 X133.431 Y90.11 E34.30569
G1 X133.981 Y90.179 E34.33732
G1 X134.59 Y90.082 E34.37251
G1 X135.107 Y89.839 E34.4051
G1 X135.569 Y89.43 E34.44031
G1 X135.876 Y88.946 E34.47301
G0 F3600 X135.985 Y88.562
G0 X136.725 Y88.773
G0 X118.107 Y53.326
G0 X118.016 Y53.286
G1 F1800 X118.181 Y52.706 E34.50742
G1 X118.202 Y52.401 E34.52486
G1 X118.127 Y51.852 E34.55648
G1 X117.876 Y51.288 E34.5917
G1 X117.508 Y50.851 E34.6243
G1 X116.991 Y50.509 E34.65967
G1 X116.448 Y50.341 E34.6921
G1 X115.896 Y50.321 E34.72362
G1 X115.297 Y50.47 E34.75884
G1 X114.803 Y50.758 E34.79147
G1 X114.377 Y51.206 E34.82674
G1 X114.119 Y51.711 E34.8591
G1 X114.002 Y52.252 E34.89068
G1 X114.045 Y52.868 E34.92591
G1 X114.242 Y53.401 E34.95834
G1 X114.563 Y53.852 E34.98992
G1 X115.046 Y54.236 E35.02513
G1 X115.571 Y54.45 E35.05748
G1 X116.121 Y54.519 E35.08911
G1 X116.73 Y54.422 E35.1243
G1 X117.247 Y54.179 E35.15689
G1 X117.709 Y53.77 E35.1921
G1 X118.016 Y53.286 E35.2248
G0 F3600 X118.125 Y52.902
G0 X118.865 Y53.113
G0 X134.663 Y67.622
G0 X134.72 Y67.703
G1 F1800 X134.212 Y68.149 E35.26337
G1 X133.814 Y68.694 E35.30188
G1 X133.541 Y69.312 E35.34043
G1 X133.409 Y69.975 E35.379
G1 X133.424 Y70.65 E35.41753
G1 X133.585 Y71.306 E35.45607
G1 X133.884 Y71.912 E35.49462
G1 X134.306 Y72.439 E35.53315
G1 X134.833 Y72.861 E35.57167
G1 X135.439 Y73.16 E35.61023
G1 X136.095 Y73.321 E35.64877
G1 X136.77 Y73.336 E35.68729
G1 X137.433 Y73.204 E35.72586
G1 X138.051 Y72.931 E35.76441
G1 X138.596 Y72.533 E35.80292
G1 X139.042 Y72.025 E35.84149
G1 X139.366 Y71.432 E35.88005
G1 X139.554 Y70.788 E35.91833
G1 X139.602 Y70.241 E35.94966
G1 X139.529 Y69.574 E35.98795
G1 X139.312 Y68.934 E36.0265
G1 X138.961 Y68.356 E36.06509
G1 X138.495 Y67.869 E36.10355
G1 X137.933 Y67.493 E36.14213
G1 X137.303 Y67.248 E36.1807
G1 X136.636 Y67.146 E36.2192
G1 X135.961 Y67.19 E36.2578
G1 X135.313 Y67.379 E36.29631
G1 X134.72 Y67.703 E36.33487
G0 F3600 X134.42 Y67.966
G0 X133.913 Y67.387
G0 X155.105 Y42.697
G0 X155.378 Y41.055
G0 X155.282 Y41.08
G1 F1800 X155.071 Y40.573 E36.3662
G1 X154.737 Y40.138 E36.3975
G1 X154.302 Y39.804 E36.42879
G1 X153.793 Y39.593 E36.46023
G1 X153.249 Y39.522 E36.49153
G1 X152.705 Y39.593 E36.52283
G1 X152.198 Y39.804 E36.55417
G1 X151.763 Y40.138 E36.58546
G1 X151.429 Y40.573 E36.61675
G1 X151.218 Y41.082 E36.64819
G1 X151.147 Y41.626 E36.6795
G1 X151.218 Y42.17 E36.7108
G1 X151.429 Y42.677 E36.74213
G1 X151.763 Y43.112 E36.77343
G1 X152.198 Y43.446 E36.80472
G1 X152.707 Y43.657 E36.83616
G1 X153.251 Y43.728 E36.86746
G1 X153.795 Y43.657 E36.89877
G1 X154.302 Y43.446 E36.9301
