;FLAVOR:Marlin
;TIME:25512
;Filament used: 14.3088m
;Layer height: 0.4
;MINX:7.289
;MINY:30.964
;MINZ:0.52
;MAXX:182.711
;MAXY:139.036
;MAXZ:42.52
;Generated with Cura_SteamEngine 4.1.0
M82 ;absolute extrusion mode
M98 P0:/sys/startprint.g

G92 E0
G92 E0
G10
;LAYER_COUNT:106
;LAYER:0
M107
G0 F3600 X29.198 Y32.053 Z0.52
;TYPE:SKIRT
M220 S50
G11
G1 F1800 X29.58 Y31.793 E0.02637
G1 X30.008 Y31.544 E0.05462
G1 X30.474 Y31.32 E0.08412
G1 X30.873 Y31.192 E0.10803
G1 X31.075 Y31.141 E0.11992
G1 X31.21 Y31.11 E0.12782
G1 X31.507 Y31.048 E0.14513
G1 X32.084 Y30.979 E0.17829
G1 X32.302 Y30.972 E0.19074
G1 X32.383 Y30.97 E0.19536
G1 X32.627 Y30.968 E0.20928
G1 X32.652 Y30.968 E0.21071
G1 X40.341 Y30.964 E0.64943
G1 X40.343 Y30.964 E0.64955
G1 X116.516 Y30.965 E4.99588
G1 X156.992 Y30.964 E7.30539
G1 X157.04 Y30.964 E7.30812
G1 X157.741 Y30.974 E7.34813
G1 X158.112 Y31 E7.36935
G1 X158.358 Y31.031 E7.38349
G1 X158.476 Y31.048 E7.3903
G1 X158.667 Y31.079 E7.40134
G1 X159.169 Y31.201 E7.43081
G1 X159.482 Y31.321 E7.44994
G1 X159.949 Y31.527 E7.47907
G1 X160.405 Y31.772 E7.5086
G1 X160.834 Y32.099 E7.53938
G1 X161.224 Y32.449 E7.56928
G1 X161.582 Y32.823 E7.59882
G1 X161.883 Y33.258 E7.629
G1 X162.129 Y33.681 E7.65693
G1 X162.236 Y33.88 E7.66982
G1 X162.444 Y34.301 E7.69661
G1 X163.701 Y36.776 E7.855
G1 X165.005 Y39.172 E8.01065
G1 X166.389 Y41.551 E8.16769
G1 X167.832 Y43.877 E8.32387
G1 X169.334 Y46.154 E8.47952
G1 X170.901 Y48.387 E8.63517
G1 X172.525 Y50.568 E8.79033
G1 X174.224 Y52.722 E8.94686
G1 X175.98 Y54.822 E9.10306
G1 X177.795 Y56.871 E9.25924
G1 X179.501 Y58.69 E9.40154
G1 X180.485 Y59.722 E9.4829
G1 X180.542 Y59.785 E9.48775
G1 X180.735 Y59.998 E9.50415
G1 X180.867 Y60.152 E9.51572
G1 X180.996 Y60.313 E9.52749
G1 X181.087 Y60.432 E9.53604
G1 X181.266 Y60.677 E9.55335
G1 X181.441 Y60.941 E9.57142
G1 X181.702 Y61.38 E9.60057
G1 X181.873 Y61.708 E9.62167
G1 X182.078 Y62.16 E9.64999
G1 X182.206 Y62.489 E9.67013
G1 X182.365 Y62.968 E9.69893
G1 X182.461 Y63.316 E9.71953
G1 X182.573 Y63.835 E9.74982
G1 X182.63 Y64.199 E9.77085
G1 X182.664 Y64.529 E9.78978
G1 X182.681 Y64.803 E9.80544
G1 X182.705 Y65.973 E9.87221
G1 X182.706 Y66.04 E9.87604
G1 X182.711 Y74.547 E10.36143
G1 X182.711 Y74.598 E10.36434
G1 X182.702 Y75.211 E10.39932
G1 X182.699 Y75.301 E10.40446
G1 X182.683 Y75.686 E10.42645
G1 X182.677 Y75.786 E10.43217
G1 X182.662 Y75.996 E10.44418
G1 X182.627 Y76.297 E10.46147
G1 X182.544 Y76.805 E10.49084
G1 X182.459 Y77.186 E10.51311
G1 X182.322 Y77.665 E10.54154
G1 X182.212 Y77.987 E10.56096
G1 X182.025 Y78.455 E10.58971
G1 X181.894 Y78.742 E10.60771
G1 X181.799 Y78.927 E10.61958
G1 X181.749 Y79.021 E10.62565
G1 X181.601 Y79.288 E10.64307
G1 X181.415 Y79.585 E10.66307
G1 X180.376 Y81.069 E10.76643
G1 X178.831 Y83.324 E10.9224
G1 X177.342 Y85.634 E11.07922
G1 X175.917 Y87.988 E11.23623
G1 X174.578 Y90.348 E11.39105
G1 X173.303 Y92.752 E11.54632
G1 X172.077 Y95.23 E11.70407
G1 X170.948 Y97.683 E11.85815
G1 X169.876 Y100.199 E12.01419
G1 X168.864 Y102.774 E12.17206
G1 X167.945 Y105.319 E12.32645
G1 X167.081 Y107.941 E12.48397
G1 X166.308 Y110.535 E12.63841
G1 X165.599 Y113.184 E12.79488
G1 X164.96 Y115.872 E12.95253
G1 X164.415 Y118.504 E13.1059
G1 X163.929 Y121.225 E13.26361
G1 X163.529 Y123.904 E13.41816
G1 X163.2 Y126.63 E13.57483
G1 X162.948 Y129.364 E13.73149
G1 X162.775 Y132.095 E13.88763
G1 X162.693 Y134.217 E14.0088
G1 X162.633 Y134.735 E14.03856
G1 X162.533 Y135.243 E14.0681
G1 X162.394 Y135.741 E14.0976
G1 X162.199 Y136.178 E14.1249
G1 X162.034 Y136.486 E14.14484
G1 X161.747 Y136.932 E14.1751
G1 X161.569 Y137.166 E14.19188
G1 X161.198 Y137.579 E14.22356
G1 X160.981 Y137.783 E14.24055
G1 X160.577 Y138.107 E14.2701
G1 X160.259 Y138.3 E14.29132
G1 X159.789 Y138.55 E14.3217
G1 X159.315 Y138.757 E14.35121
G1 X158.788 Y138.893 E14.38227
G1 X158.315 Y138.975 E14.40966
G1 X157.795 Y139.024 E14.43946
G1 X157.092 Y139.035 E14.47958
G1 X157.04 Y139.035 E14.48254
G1 X116.518 Y139.036 E16.79468
G1 X62.18 Y139.035 E19.89513
G1 X33.008 Y139.036 E21.55965
G1 X32.96 Y139.036 E21.56239
G1 X32.265 Y139.026 E21.60205
G1 X31.908 Y139.001 E21.62247
G1 X31.678 Y138.973 E21.63569
G1 X31.557 Y138.957 E21.64265
G1 X31.343 Y138.923 E21.65501
G1 X30.84 Y138.802 E21.68453
G1 X30.514 Y138.678 E21.70444
G1 X30.046 Y138.471 E21.73363
G1 X29.59 Y138.226 E21.76317
G1 X29.161 Y137.898 E21.79398
G1 X28.773 Y137.549 E21.82376
G1 X28.416 Y137.174 E21.8533
G1 X28.115 Y136.738 E21.88353
G1 X27.864 Y136.305 E21.91209
G1 X27.64 Y135.839 E21.94159
G1 X27.507 Y135.418 E21.96678
G1 X27.458 Y135.217 E21.97859
G1 X27.433 Y135.107 E21.98503
G1 X27.373 Y134.819 E22.00181
G1 X27.305 Y134.248 E22.03462
G1 X27.282 Y133.558 E22.07401
G1 X27.151 Y130.828 E22.22996
G1 X26.943 Y128.115 E22.38522
G1 X26.656 Y125.365 E22.54298
G1 X26.3 Y122.7 E22.69639
G1 X25.856 Y119.964 E22.85455
G1 X25.343 Y117.291 E23.00985
G1 X24.753 Y114.621 E23.16587
G1 X24.09 Y111.983 E23.32107
G1 X23.353 Y109.356 E23.47675
G1 X22.528 Y106.713 E23.63474
G1 X21.662 Y104.189 E23.78699
G1 X20.679 Y101.569 E23.94666
G1 X19.635 Y99.011 E24.10431
G1 X18.568 Y96.595 E24.25501
G1 X17.366 Y94.067 E24.41473
G1 X16.131 Y91.647 E24.56975
G1 X14.828 Y89.266 E24.72462
G1 X13.435 Y86.882 E24.88217
G1 X11.997 Y84.572 E25.03742
G1 X10.491 Y82.3 E25.19295
G1 X8.635 Y79.665 E25.37686
G1 X8.472 Y79.41 E25.39413
G1 X8.273 Y79.065 E25.41685
G1 X8.124 Y78.774 E25.4355
G1 X7.915 Y78.313 E25.46439
G1 X7.78 Y77.965 E25.48568
G1 X7.624 Y77.485 E25.51448
G1 X7.533 Y77.146 E25.53451
G1 X7.424 Y76.633 E25.56443
G1 X7.372 Y76.314 E25.58288
G1 X7.347 Y76.093 E25.59557
G1 X7.327 Y75.801 E25.61227
G1 X7.295 Y74.533 E25.68464
G1 X7.294 Y74.45 E25.68938
G1 X7.289 Y65.926 E26.17575
G1 X7.289 Y65.873 E26.17877
G1 X7.298 Y65.277 E26.21278
G1 X7.301 Y65.189 E26.2178
G1 X7.317 Y64.804 E26.23979
G1 X7.322 Y64.705 E26.24545
G1 X7.337 Y64.494 E26.25752
G1 X7.373 Y64.191 E26.27493
G1 X7.456 Y63.684 E26.30424
G1 X7.527 Y63.353 E26.32356
G1 X7.582 Y63.149 E26.33561
G1 X7.602 Y63.079 E26.33977
G1 X7.684 Y62.799 E26.35641
G1 X7.793 Y62.485 E26.37538
G1 X7.981 Y62.02 E26.404
G1 X8.105 Y61.749 E26.421
G1 X8.21 Y61.544 E26.43414
G1 X8.272 Y61.429 E26.4416
G1 X8.412 Y61.18 E26.4579
G1 X8.565 Y60.934 E26.47443
G1 X8.842 Y60.528 E26.50247
G1 X9.072 Y60.229 E26.524
G1 X9.416 Y59.83 E26.55406
G1 X9.539 Y59.695 E26.56448
G1 X11.321 Y57.843 E26.71112
G1 X13.166 Y55.814 E26.8676
G1 X14.954 Y53.735 E27.02406
G1 X16.659 Y51.635 E27.17841
G1 X18.344 Y49.435 E27.33652
G1 X19.946 Y47.215 E27.49273
G1 X21.463 Y44.984 E27.64667
G1 X22.942 Y42.672 E27.80327
G1 X24.352 Y40.321 E27.95969
G1 X25.701 Y37.921 E28.11679
G1 X26.947 Y35.55 E28.26962
G1 X27.852 Y33.721 E28.38605
G1 X27.999 Y33.456 E28.40334
G1 X28.14 Y33.226 E28.41874
G1 X28.548 Y32.69 E28.45717
G1 X28.817 Y32.402 E28.47966
G1 X29.198 Y32.053 E28.50914
G10
;MESH:box_bbtskrminie3.stl
G0 F3600 X31.886 Y33.48
G0 X32.307 Y35.388
G0 X38.149 Y38.002
G0 X55.821 Y50.332
G0 X56.646 Y51.662
G0 X56.556 Y53.595
G0 X56.465 Y53.555
;TYPE:WALL-INNER
G11
G1 F1800 X56.675 Y52.818 E28.55287
G1 X56.705 Y52.379 E28.57797
G1 X56.608 Y51.672 E28.61869
G1 X56.282 Y50.94 E28.66441
G1 X55.795 Y50.361 E28.70758
G1 X55.122 Y49.916 E28.75362
G1 X54.408 Y49.695 E28.79627
G1 X53.678 Y49.668 E28.83795
G1 X52.9 Y49.862 E28.8837
G1 X52.246 Y50.243 E28.92688
G1 X51.691 Y50.826 E28.97281
G1 X51.352 Y51.491 E29.0154
G1 X51.197 Y52.205 E29.05709
G1 X51.253 Y53.006 E29.10291
G1 X51.512 Y53.707 E29.14555
G1 X51.937 Y54.304 E29.18736
G1 X52.564 Y54.803 E29.23308
G1 X53.255 Y55.084 E29.27565
G1 X53.982 Y55.175 E29.31745
G1 X54.773 Y55.049 E29.36316
G1 X55.458 Y54.728 E29.40632
G1 X56.059 Y54.196 E29.45212
G1 X56.465 Y53.555 E29.49541
G0 F3600 X55.866 Y53.286
;TYPE:WALL-OUTER
G1 F1800 X56.031 Y52.706 E29.52982
G1 X56.052 Y52.401 E29.54726
G1 X55.977 Y51.852 E29.57888
G1 X55.726 Y51.288 E29.6141
G1 X55.358 Y50.851 E29.6467
G1 X54.841 Y50.509 E29.68207
G1 X54.298 Y50.341 E29.7145
G1 X53.746 Y50.321 E29.74602
G1 X53.147 Y50.47 E29.78124
G1 X52.653 Y50.758 E29.81387
G1 X52.227 Y51.206 E29.84914
G1 X51.969 Y51.711 E29.8815
G1 X51.852 Y52.252 E29.91308
G1 X51.895 Y52.868 E29.94831
G1 X52.092 Y53.401 E29.98074
G1 X52.413 Y53.852 E30.01232
G1 X52.896 Y54.236 E30.04753
G1 X53.421 Y54.45 E30.07988
G1 X53.971 Y54.519 E30.11151
G1 X54.58 Y54.422 E30.14669
G1 X55.097 Y54.179 E30.17929
G1 X55.559 Y53.77 E30.2145
G1 X55.866 Y53.286 E30.2472
G0 F3600 X55.975 Y52.902
G0 X56.715 Y53.113
G0 X56.646 Y51.662
G0 X55.871 Y50.391
G0 X39.511 Y39.684
G0 X39.415 Y39.709
;TYPE:WALL-INNER
G1 F1800 X39.138 Y39.044 E30.2883
G1 X38.701 Y38.474 E30.32929
G1 X38.13 Y38.036 E30.37035
G1 X37.462 Y37.76 E30.41159
G1 X36.749 Y37.666 E30.45262
G1 X36.034 Y37.76 E30.49377
G1 X35.369 Y38.037 E30.53488
G1 X34.799 Y38.474 E30.57586
G1 X34.361 Y39.045 E30.61692
G1 X34.085 Y39.713 E30.65816
G1 X33.991 Y40.426 E30.69919
G1 X34.085 Y41.141 E30.74034
G1 X34.362 Y41.806 E30.78145
G1 X34.799 Y42.376 E30.82243
G1 X35.37 Y42.814 E30.86349
G1 X36.038 Y43.09 E30.90473
G1 X36.751 Y43.184 E30.94577
G1 X37.466 Y43.09 E30.98691
G1 X38.131 Y42.813 E31.02802
G1 X38.701 Y42.376 E31.069
G1 X39.139 Y41.805 E31.11006
G1 X39.415 Y41.138 E31.15125
G1 X39.509 Y40.425 E31.19228
G1 X39.415 Y39.709 E31.23349
G0 F3600 X38.782 Y39.879
;TYPE:WALL-OUTER
G1 F1800 X38.571 Y39.373 E31.26477
G1 X38.237 Y38.938 E31.29606
G1 X37.802 Y38.604 E31.32736
G1 X37.293 Y38.393 E31.3588
G1 X36.749 Y38.322 E31.3901
G1 X36.204 Y38.393 E31.42146
G1 X35.698 Y38.604 E31.45274
G1 X35.263 Y38.938 E31.48403
G1 X34.929 Y39.373 E31.51533
G1 X34.718 Y39.882 E31.54676
G1 X34.647 Y40.426 E31.57807
G1 X34.718 Y40.971 E31.60943
G1 X34.929 Y41.477 E31.64071
G1 X35.263 Y41.912 E31.672
G1 X35.698 Y42.246 E31.7033
G1 X36.207 Y42.457 E31.73473
G1 X36.751 Y42.528 E31.76604
G1 X37.296 Y42.457 E31.7974
G1 X37.802 Y42.246 E31.82868
G1 X38.237 Y41.912 E31.85997
G1 X38.571 Y41.477 E31.89126
G1 X38.782 Y40.968 E31.9227
G1 X38.853 Y40.425 E31.95395
G1 X38.782 Y39.879 E31.98537
G0 F3600 X38.628 Y39.51
G0 X39.338 Y39.214
G0 X39.549 Y40.425
G0 X39.173 Y41.824
G0 X30.998 Y58.223
G0 X30.222 Y59.38
G0 X28.828 Y60.593
G0 X18.088 Y67.086
G0 X18.145 Y67.167
;TYPE:WALL-INNER
G1 F1800 X17.529 Y67.708 E32.03215
G1 X17.048 Y68.367 E32.0787
G1 X16.717 Y69.115 E32.12537
G1 X16.558 Y69.918 E32.17208
G1 X16.576 Y70.736 E32.21876
G1 X16.771 Y71.53 E32.26541
G1 X17.132 Y72.263 E32.31204
G1 X17.644 Y72.901 E32.35871
G1 X18.282 Y73.413 E32.40539
G1 X19.015 Y73.774 E32.45201
G1 X19.809 Y73.969 E32.49866
G1 X20.627 Y73.987 E32.54535
G1 X21.43 Y73.828 E32.59205
G1 X22.178 Y73.497 E32.63872
G1 X22.837 Y73.016 E32.68528
G1 X23.378 Y72.4 E32.73206
G1 X23.77 Y71.682 E32.77873
G1 X23.996 Y70.909 E32.82469
G1 X24.055 Y70.234 E32.86335
G1 X23.967 Y69.433 E32.90933
G1 X23.705 Y68.658 E32.956
G1 X23.28 Y67.958 E33.00273
G1 X22.716 Y67.368 E33.0493
G1 X22.035 Y66.913 E33.09603
G1 X21.272 Y66.616 E33.14275
G1 X20.464 Y66.493 E33.18939
G1 X19.648 Y66.546 E33.23605
G1 X18.863 Y66.775 E33.2827
G1 X18.145 Y67.167 E33.32938
G0 F3600 X18.52 Y67.703
;TYPE:WALL-OUTER
G1 F1800 X18.012 Y68.149 E33.36795
G1 X17.614 Y68.694 E33.40646
G1 X17.341 Y69.312 E33.44501
G1 X17.209 Y69.975 E33.48358
G1 X17.224 Y70.65 E33.5221
G1 X17.385 Y71.306 E33.56065
G1 X17.684 Y71.912 E33.5992
G1 X18.106 Y72.439 E33.63772
G1 X18.633 Y72.861 E33.67625
G1 X19.239 Y73.16 E33.7148
G1 X19.895 Y73.321 E33.75335
G1 X20.57 Y73.336 E33.79187
G1 X21.233 Y73.204 E33.83044
G1 X21.851 Y72.931 E33.86899
G1 X22.396 Y72.533 E33.9075
G1 X22.842 Y72.025 E33.94607
G1 X23.166 Y71.432 E33.98463
G1 X23.354 Y70.788 E34.02291
G1 X23.402 Y70.241 E34.05424
G1 X23.329 Y69.574 E34.09252
G1 X23.112 Y68.934 E34.13108
G1 X22.761 Y68.356 E34.16967
G1 X22.295 Y67.869 E34.20813
G1 X21.733 Y67.493 E34.24671
G1 X21.103 Y67.248 E34.28528
G1 X20.436 Y67.146 E34.32378
G1 X19.761 Y67.19 E34.36238
G1 X19.113 Y67.379 E34.40089
G1 X18.52 Y67.703 E34.43945
G0 F3600 X18.22 Y67.966
G0 X17.713 Y67.387
G0 X17.014 Y68.348
G0 X16.519 Y69.915
G0 X16.734 Y71.543
G0 X22.804 Y78.82
G0 X25.607 Y78.823
G0 X26.978 Y79.038
G0 X28.898 Y79.916
G0 X29.961 Y80.816
G0 X30.81 Y81.93
G0 X31.492 Y83.604
G0 X38.792 Y114.734
G0 X38.8 Y114.833
;TYPE:WALL-INNER
G1 F1800 X37.992 Y115.03 E34.4869
G1 X37.34 Y115.41 E34.52996
G1 X36.782 Y115.996 E34.57613
G1 X36.443 Y116.656 E34.61847
G1 X36.287 Y117.369 E34.66011
G1 X36.343 Y118.176 E34.70627
G1 X36.6 Y118.872 E34.7486
G1 X37.017 Y119.459 E34.78969
G1 X37.578 Y119.927 E34.83137
G1 X38.317 Y120.249 E34.87737
G1 X39.055 Y120.345 E34.91983
G1 X39.77 Y120.245 E34.96103
G1 X40.432 Y119.966 E35.00202
G1 X41.01 Y119.519 E35.04371
G1 X41.485 Y118.868 E35.08969
G1 X41.733 Y118.181 E35.13137
G1 X41.798 Y117.569 E35.16648
G1 X41.7 Y116.857 E35.20749
G1 X41.421 Y116.194 E35.24853
G1 X40.981 Y115.623 E35.28967
G1 X40.399 Y115.182 E35.33133
G1 X39.636 Y114.888 E35.37799
G1 X38.8 Y114.833 E35.42579
G0 F3600 X38.857 Y115.488
;TYPE:WALL-OUTER
G1 F1800 X38.238 Y115.639 E35.46215
G1 X37.747 Y115.925 E35.49457
G1 X37.317 Y116.376 E35.53012
G1 X37.06 Y116.877 E35.56225
G1 X36.942 Y117.417 E35.59379
G1 X36.985 Y118.038 E35.62931
G1 X37.18 Y118.566 E35.66142
G1 X37.498 Y119.014 E35.69277
G1 X37.923 Y119.368 E35.72433
G1 X38.492 Y119.616 E35.75975
G1 X39.052 Y119.689 E35.79197
G1 X39.596 Y119.613 E35.82331
G1 X40.101 Y119.4 E35.85459
G1 X40.539 Y119.061 E35.88619
G1 X40.905 Y118.56 E35.92159
G1 X41.095 Y118.034 E35.9535
G1 X41.143 Y117.579 E35.97961
G1 X41.068 Y117.03 E36.01122
G1 X40.855 Y116.524 E36.04255
G1 X40.519 Y116.089 E36.07391
G1 X40.079 Y115.755 E36.10543
G1 X39.495 Y115.53 E36.14114
G1 X38.857 Y115.488 E36.17762
G0 F3600 X38.469 Y115.582
G0 X38.288 Y114.834
G0 X37.316 Y115.379
G0 X36.406 Y116.643
G0 X36.293 Y118.028
G0 X39.511 Y128.834
G0 X39.415 Y128.859
;TYPE:WALL-INNER
G1 F1800 X39.138 Y128.194 E36.21873
G1 X38.701 Y127.624 E36.25971
G1 X38.13 Y127.186 E36.30077
G1 X37.462 Y126.91 E36.34201
G1 X36.749 Y126.816 E36.38305
G1 X36.034 Y126.91 E36.42419
G1 X35.369 Y127.187 E36.4653
G1 X34.799 Y127.624 E36.50628
G1 X34.361 Y128.195 E36.54734
G1 X34.085 Y128.863 E36.58858
G1 X33.991 Y129.576 E36.62962
G1 X34.085 Y130.291 E36.67077
G1 X34.362 Y130.956 E36.71187
G1 X34.799 Y131.526 E36.75285
G1 X35.37 Y131.964 E36.79391
G1 X36.038 Y132.24 E36.83515
G1 X36.751 Y132.334 E36.87619
G1 X37.466 Y132.24 E36.91734
G1 X38.131 Y131.963 E36.95844
G1 X38.701 Y131.526 E36.99942
G1 X39.139 Y130.955 E37.04048
G1 X39.415 Y130.288 E37.08167
G1 X39.509 Y129.575 E37.12271
G1 X39.415 Y128.859 E37.16391
G0 F3600 X38.782 Y129.029
;TYPE:WALL-OUTER
G1 F1800 X38.571 Y128.523 E37.19519
G1 X38.237 Y128.088 E37.22649
G1 X37.802 Y127.754 E37.25778
G1 X37.293 Y127.543 E37.28922
G1 X36.749 Y127.472 E37.32052
G1 X36.204 Y127.543 E37.35188
G1 X35.698 Y127.754 E37.38316
G1 X35.263 Y128.088 E37.41446
G1 X34.929 Y128.523 E37.44575
G1 X34.718 Y129.032 E37.47719
G1 X34.647 Y129.576 E37.50849
G1 X34.718 Y130.121 E37.53985
G1 X34.929 Y130.627 E37.57113
G1 X35.263 Y131.062 E37.60242
G1 X35.698 Y131.396 E37.63372
G1 X36.207 Y131.607 E37.66516
G1 X36.751 Y131.678 E37.69646
G1 X37.296 Y131.607 E37.72782
G1 X37.802 Y131.396 E37.7591
G1 X38.237 Y131.062 E37.79039
G1 X38.571 Y130.627 E37.82169
G1 X38.782 Y130.118 E37.85313
G1 X38.853 Y129.575 E37.88437
G1 X38.782 Y129.029 E37.91579
G0 F3600 X38.628 Y128.66
G0 X39.338 Y128.364
G0 X153.249 Y126.776
G0 X154.649 Y127.152
G0 X155.587 Y128.064
G0 X155.915 Y128.859
;TYPE:WALL-INNER
G1 F1800 X155.638 Y128.194 E37.95689
G1 X155.201 Y127.624 E37.99788
G1 X154.63 Y127.186 E38.03894
G1 X153.962 Y126.91 E38.08018
G1 X153.249 Y126.816 E38.12121
G1 X152.534 Y126.91 E38.16236
G1 X151.869 Y127.187 E38.20347
G1 X151.299 Y127.624 E38.24445
G1 X150.861 Y128.195 E38.28551
G1 X150.585 Y128.863 E38.32675
G1 X150.491 Y129.576 E38.36778
G1 X150.585 Y130.291 E38.40893
G1 X150.862 Y130.956 E38.45004
G1 X151.299 Y131.526 E38.49102
G1 X151.87 Y131.964 E38.53208
G1 X152.538 Y132.24 E38.57332
G1 X153.251 Y132.334 E38.61436
G1 X153.966 Y132.24 E38.6555
G1 X154.631 Y131.963 E38.69661
G1 X155.201 Y131.526 E38.73759
G1 X155.639 Y130.955 E38.77865
