;FLAVOR:Marlin
;TIME:4061
;Filament used: 3.56704m
;Layer height: 0.4
;MINX:27.289
;MINY:30.964
;MINZ:0.52
;MAXX:162.711
;MAXY:139.036
;MAXZ:1.72
;Generated with Cura_SteamEngine 4.1.0
M82 ;absolute extrusion mode
M98 P0:/sys/startprint.g

G92 E0
G92 E0
G10
;LAYER_COUNT:4
;LAYER:0
M107
G0 F3600 X29.142 Y32.098 Z0.52
;TYPE:SKIRT
M220 S50
G11
G1 F1800 X29.58 Y31.793 E0.03045
G1 X30.008 Y31.544 E0.05871
G1 X30.474 Y31.32 E0.08821
G1 X30.873 Y31.192 E0.11212
G1 X31.075 Y31.141 E0.12401
G1 X31.213 Y31.109 E0.13209
G1 X31.511 Y31.047 E0.14946
G1 X32.084 Y30.979 E0.18238
G1 X32.299 Y30.972 E0.19465
G1 X32.379 Y30.97 E0.19922
G1 X32.614 Y30.968 E0.21263
G1 X32.643 Y30.968 E0.21428
G1 X86.64 Y30.965 E3.29528
G1 X156.993 Y30.964 E7.30953
G1 X157.041 Y30.964 E7.31227
G1 X157.741 Y30.974 E7.35222
G1 X158.105 Y30.999 E7.37303
G1 X158.331 Y31.027 E7.38603
G1 X158.449 Y31.044 E7.39283
G1 X158.661 Y31.078 E7.40508
G1 X159.164 Y31.199 E7.4346
G1 X159.485 Y31.322 E7.45422
G1 X159.951 Y31.528 E7.48329
G1 X160.407 Y31.773 E7.51282
G1 X160.834 Y32.099 E7.54348
G1 X161.224 Y32.449 E7.57338
G1 X161.582 Y32.823 E7.60292
G1 X161.883 Y33.258 E7.6331
G1 X162.129 Y33.681 E7.66102
G1 X162.354 Y34.147 E7.69055
G1 X162.5 Y34.623 E7.71896
G1 X162.614 Y35.125 E7.74833
G1 X162.695 Y35.743 E7.78389
G1 X162.703 Y35.959 E7.79623
G1 X162.705 Y36.051 E7.80148
G1 X162.707 Y36.263 E7.81357
G1 X162.707 Y36.295 E7.8154
G1 X162.71 Y78.456 E10.22105
G1 X162.711 Y133.283 E13.34941
G1 X162.711 Y133.328 E13.35198
G1 X162.702 Y133.999 E13.39027
G1 X162.673 Y134.395 E13.41292
G1 X162.605 Y134.907 E13.44239
G1 X162.497 Y135.413 E13.47191
G1 X162.407 Y135.679 E13.48794
G1 X162.32 Y135.903 E13.50165
G1 X162.227 Y136.12 E13.51512
G1 X162.126 Y136.334 E13.52862
G1 X161.869 Y136.783 E13.55814
G1 X161.646 Y137.076 E13.57915
G1 X161.393 Y137.373 E13.60141
G1 X160.955 Y137.801 E13.63635
G1 X160.731 Y137.983 E13.65282
G1 X160.334 Y138.261 E13.68048
G1 X160.089 Y138.407 E13.69675
G1 X159.625 Y138.636 E13.72627
G1 X159.267 Y138.758 E13.74785
G1 X158.775 Y138.894 E13.77698
G1 X158.267 Y138.993 E13.80651
G1 X157.931 Y139.015 E13.82572
G1 X157.184 Y139.026 E13.86835
G1 X157.136 Y139.026 E13.87109
G1 X103.361 Y139.035 E16.93942
G1 X33.008 Y139.036 E20.95367
G1 X32.959 Y139.036 E20.95647
G1 X32.259 Y139.026 E20.99641
G1 X31.899 Y139.001 E21.017
G1 X31.671 Y138.973 E21.03011
G1 X31.539 Y138.954 E21.03772
G1 X31.331 Y138.92 E21.04974
G1 X30.828 Y138.798 E21.07928
G1 X30.521 Y138.68 E21.09804
G1 X30.051 Y138.473 E21.12735
G1 X29.595 Y138.228 E21.15688
G1 X29.161 Y137.898 E21.18799
G1 X28.773 Y137.549 E21.21777
G1 X28.416 Y137.174 E21.24731
G1 X28.115 Y136.738 E21.27754
G1 X27.864 Y136.305 E21.3061
G1 X27.64 Y135.839 E21.3356
G1 X27.509 Y135.426 E21.36032
G1 X27.461 Y135.231 E21.37178
G1 X27.433 Y135.108 E21.37898
G1 X27.372 Y134.813 E21.39617
G1 X27.305 Y134.256 E21.42818
G1 X27.297 Y134.034 E21.44085
G1 X27.295 Y133.938 E21.44633
G1 X27.293 Y133.669 E21.46168
G1 X27.293 Y133.644 E21.46311
G1 X27.29 Y91.544 E23.86528
G1 X27.289 Y36.654 E26.99723
G1 X27.289 Y36.604 E27.00008
G1 X27.299 Y35.937 E27.03815
G1 X27.323 Y35.586 E27.05822
G1 X27.351 Y35.354 E27.07155
G1 X27.37 Y35.22 E27.07928
G1 X27.404 Y35.01 E27.09141
G1 X27.526 Y34.507 E27.12095
G1 X27.646 Y34.193 E27.14013
G1 X27.852 Y33.726 E27.16925
G1 X28.097 Y33.27 E27.19879
G1 X28.42 Y32.844 E27.22929
G1 X28.768 Y32.455 E27.25907
G1 X29.142 Y32.098 E27.28857
G10
;MESH:circuitboxlid.stl
G0 F3600 X32.09 Y35.435
G0 X37.939 Y37.89
G0 X39.115 Y38.929
G0 X39.544 Y40.388
G0 X39.356 Y41.605
G0 X39.265 Y41.565
;TYPE:WALL-INNER
G11
G1 F1800 X39.475 Y40.828 E27.3323
G1 X39.505 Y40.389 E27.35741
G1 X39.408 Y39.682 E27.39813
G1 X39.082 Y38.95 E27.44385
G1 X38.595 Y38.371 E27.48702
G1 X37.922 Y37.926 E27.53305
G1 X37.208 Y37.705 E27.5757
G1 X36.478 Y37.678 E27.61738
G1 X35.7 Y37.872 E27.66313
G1 X35.046 Y38.253 E27.70632
G1 X34.491 Y38.836 E27.75225
G1 X34.152 Y39.501 E27.79484
G1 X33.997 Y40.215 E27.83653
G1 X34.053 Y41.016 E27.88234
G1 X34.312 Y41.717 E27.92498
G1 X34.737 Y42.314 E27.9668
G1 X35.364 Y42.813 E28.01252
G1 X36.055 Y43.094 E28.05508
G1 X36.782 Y43.185 E28.09689
G1 X37.573 Y43.059 E28.14259
G1 X38.258 Y42.738 E28.18575
G1 X38.859 Y42.206 E28.23155
G1 X39.265 Y41.565 E28.27485
G0 F3600 X38.666 Y41.296
;TYPE:WALL-OUTER
G1 F1800 X38.831 Y40.716 E28.30925
G1 X38.852 Y40.411 E28.3267
G1 X38.777 Y39.862 E28.35831
G1 X38.526 Y39.298 E28.39354
G1 X38.158 Y38.861 E28.42614
G1 X37.641 Y38.519 E28.4615
G1 X37.098 Y38.351 E28.49394
G1 X36.546 Y38.331 E28.52545
G1 X35.947 Y38.48 E28.56067
G1 X35.453 Y38.768 E28.5933
G1 X35.027 Y39.216 E28.62857
G1 X34.769 Y39.721 E28.66093
G1 X34.652 Y40.262 E28.69251
G1 X34.695 Y40.878 E28.72775
G1 X34.892 Y41.411 E28.76017
G1 X35.213 Y41.862 E28.79176
G1 X35.696 Y42.246 E28.82697
G1 X36.221 Y42.46 E28.85931
G1 X36.771 Y42.529 E28.89094
G1 X37.38 Y42.432 E28.92613
G1 X37.897 Y42.189 E28.95872
G1 X38.359 Y41.78 E28.99393
G1 X38.666 Y41.296 E29.02663
G0 F3600 X38.775 Y40.912
G0 X39.515 Y41.123
G0 X39.514 Y129.984
G0 X39.265 Y130.715
;TYPE:WALL-INNER
G1 F1800 X39.475 Y129.978 E29.07036
G1 X39.505 Y129.539 E29.09547
G1 X39.408 Y128.832 E29.13619
G1 X39.082 Y128.1 E29.18191
G1 X38.595 Y127.521 E29.22508
G1 X37.922 Y127.076 E29.27111
G1 X37.208 Y126.855 E29.31376
G1 X36.478 Y126.828 E29.35544
G1 X35.7 Y127.022 E29.40119
G1 X35.046 Y127.403 E29.44438
G1 X34.491 Y127.986 E29.49031
G1 X34.152 Y128.651 E29.5329
G1 X33.997 Y129.365 E29.57459
G1 X34.053 Y130.166 E29.6204
G1 X34.312 Y130.867 E29.66304
G1 X34.737 Y131.464 E29.70486
G1 X35.364 Y131.963 E29.75058
G1 X36.055 Y132.244 E29.79314
G1 X36.782 Y132.335 E29.83495
G1 X37.573 Y132.209 E29.88065
G1 X38.258 Y131.888 E29.92381
G1 X38.859 Y131.356 E29.96961
G1 X39.265 Y130.715 E30.01291
G0 F3600 X38.666 Y130.446
;TYPE:WALL-OUTER
G1 F1800 X38.831 Y129.866 E30.04731
G1 X38.852 Y129.561 E30.06476
G1 X38.777 Y129.012 E30.09637
G1 X38.526 Y128.448 E30.1316
G1 X38.158 Y128.011 E30.1642
G1 X37.641 Y127.669 E30.19957
G1 X37.098 Y127.501 E30.232
G1 X36.546 Y127.481 E30.26351
G1 X35.947 Y127.63 E30.29873
G1 X35.453 Y127.918 E30.33136
G1 X35.027 Y128.366 E30.36664
G1 X34.769 Y128.871 E30.39899
G1 X34.652 Y129.412 E30.43057
G1 X34.695 Y130.028 E30.46581
G1 X34.892 Y130.561 E30.49823
G1 X35.213 Y131.012 E30.52982
G1 X35.696 Y131.396 E30.56503
G1 X36.221 Y131.61 E30.59737
G1 X36.771 Y131.679 E30.629
G1 X37.38 Y131.582 E30.66419
G1 X37.897 Y131.339 E30.69678
G1 X38.359 Y130.93 E30.73199
G1 X38.666 Y130.446 E30.7647
G0 F3600 X38.775 Y130.062
G0 X39.515 Y130.273
G0 X153.282 Y132.374
G0 X154.779 Y131.921
G0 X155.856 Y130.755
G0 X155.765 Y130.715
;TYPE:WALL-INNER
G1 F1800 X155.975 Y129.978 E30.80842
G1 X156.005 Y129.539 E30.83353
G1 X155.908 Y128.832 E30.87425
G1 X155.582 Y128.1 E30.91997
G1 X155.095 Y127.521 E30.96314
G1 X154.422 Y127.076 E31.00917
G1 X153.708 Y126.855 E31.05182
G1 X152.978 Y126.828 E31.0935
G1 X152.2 Y127.022 E31.13925
G1 X151.546 Y127.403 E31.18244
G1 X150.991 Y127.986 E31.22837
G1 X150.652 Y128.651 E31.27096
G1 X150.497 Y129.365 E31.31265
G1 X150.553 Y130.166 E31.35846
G1 X150.812 Y130.867 E31.4011
G1 X151.237 Y131.464 E31.44292
G1 X151.864 Y131.963 E31.48864
G1 X152.555 Y132.244 E31.5312
G1 X153.282 Y132.335 E31.57301
G1 X154.073 Y132.209 E31.61871
G1 X154.758 Y131.888 E31.66187
G1 X155.359 Y131.356 E31.70767
G1 X155.765 Y130.715 E31.75097
G0 F3600 X155.166 Y130.446
;TYPE:WALL-OUTER
G1 F1800 X155.331 Y129.866 E31.78537
G1 X155.352 Y129.561 E31.80282
G1 X155.277 Y129.012 E31.83443
G1 X155.026 Y128.448 E31.86966
G1 X154.658 Y128.011 E31.90226
G1 X154.141 Y127.669 E31.93763
G1 X153.598 Y127.501 E31.97006
G1 X153.046 Y127.481 E32.00157
G1 X152.447 Y127.63 E32.03679
G1 X151.953 Y127.918 E32.06942
G1 X151.527 Y128.366 E32.1047
G1 X151.269 Y128.871 E32.13705
G1 X151.152 Y129.412 E32.16864
G1 X151.195 Y130.028 E32.20387
G1 X151.392 Y130.561 E32.23629
G1 X151.713 Y131.012 E32.26788
G1 X152.196 Y131.396 E32.30309
G1 X152.721 Y131.61 E32.33543
G1 X153.271 Y131.679 E32.36706
G1 X153.88 Y131.582 E32.40225
G1 X154.397 Y131.339 E32.43484
G1 X154.859 Y130.93 E32.47005
G1 X155.166 Y130.446 E32.50276
G0 F3600 X155.275 Y130.062
G0 X156.015 Y130.273
G0 X155.856 Y41.605
G0 X155.765 Y41.565
;TYPE:WALL-INNER
G1 F1800 X155.975 Y40.828 E32.54648
G1 X156.005 Y40.389 E32.57159
G1 X155.908 Y39.682 E32.61231
G1 X155.582 Y38.95 E32.65803
G1 X155.095 Y38.371 E32.7012
G1 X154.422 Y37.926 E32.74723
G1 X153.708 Y37.705 E32.78988
G1 X152.978 Y37.678 E32.83156
G1 X152.2 Y37.872 E32.87731
G1 X151.546 Y38.253 E32.9205
G1 X150.991 Y38.836 E32.96643
G1 X150.652 Y39.501 E33.00902
G1 X150.497 Y40.215 E33.05071
G1 X150.553 Y41.016 E33.09652
G1 X150.812 Y41.717 E33.13916
G1 X151.237 Y42.314 E33.18098
G1 X151.864 Y42.813 E33.2267
G1 X152.555 Y43.094 E33.26926
G1 X153.282 Y43.185 E33.31107
G1 X154.073 Y43.059 E33.35677
G1 X154.758 Y42.738 E33.39994
G1 X155.359 Y42.206 E33.44573
G1 X155.765 Y41.565 E33.48903
G0 F3600 X155.166 Y41.296
;TYPE:WALL-OUTER
G1 F1800 X155.331 Y40.716 E33.52343
G1 X155.352 Y40.411 E33.54088
G1 X155.277 Y39.862 E33.57249
G1 X155.026 Y39.298 E33.60772
G1 X154.658 Y38.861 E33.64032
G1 X154.141 Y38.519 E33.67569
G1 X153.598 Y38.351 E33.70812
G1 X153.046 Y38.331 E33.73963
G1 X152.447 Y38.48 E33.77485
G1 X151.953 Y38.768 E33.80748
G1 X151.527 Y39.216 E33.84276
G1 X151.269 Y39.721 E33.87511
G1 X151.152 Y40.262 E33.9067
G1 X151.195 Y40.878 E33.94193
G1 X151.392 Y41.411 E33.97435
G1 X151.713 Y41.862 E34.00594
G1 X152.196 Y42.246 E34.04115
G1 X152.721 Y42.46 E34.07349
G1 X153.271 Y42.529 E34.10512
G1 X153.88 Y42.432 E34.14031
G1 X154.397 Y42.189 E34.17291
G1 X154.859 Y41.78 E34.20811
G1 X155.166 Y41.296 E34.24082
G0 F3600 X155.275 Y40.912
G0 X156.015 Y41.123
G0 X157.979 Y35.561
G0 X158.034 Y35.478
;TYPE:WALL-INNER
G1 F1800 X158.166 Y35.599 E34.25103
G1 X158.258 Y35.758 E34.26151
G1 X158.307 Y35.978 E34.27437
G1 X158.31 Y78.463 E36.69851
G1 X158.311 Y133.946 E39.8643
G1 X158.272 Y134.204 E39.87919
G1 X158.205 Y134.348 E39.88825
G1 X158.085 Y134.485 E39.89864
G1 X157.939 Y134.575 E39.90843
G1 X157.744 Y134.626 E39.91993
G1 X103.36 Y134.635 E43.02301
G1 X32.377 Y134.636 E47.07321
G1 X32.139 Y134.602 E47.08692
G1 X31.966 Y134.522 E47.0978
G1 X31.834 Y134.401 E47.10802
G1 X31.742 Y134.242 E47.1185
G1 X31.693 Y134.022 E47.13136
G1 X31.69 Y91.537 E49.5555
G1 X31.689 Y36.05 E52.72151
G1 X31.723 Y35.814 E52.73512
G1 X31.803 Y35.641 E52.74599
G1 X31.924 Y35.509 E52.75621
G1 X32.083 Y35.417 E52.76669
G1 X32.303 Y35.368 E52.77955
G1 X86.64 Y35.365 E55.87995
G1 X157.623 Y35.364 E59.93015
G1 X157.861 Y35.398 E59.94387
G1 X158.034 Y35.478 E59.95474
G0 F3600 X158.399 Y34.931
;TYPE:WALL-OUTER
G1 F1800 X158.678 Y35.187 E59.97635
G1 X158.87 Y35.518 E59.99818
G1 X158.957 Y35.909 E60.02104
G1 X158.96 Y78.463 E62.44911
G1 X158.961 Y133.998 E65.61787
G1 X158.901 Y134.393 E65.64066
G1 X158.758 Y134.704 E65.66019
G1 X158.509 Y134.987 E65.6817
G1 X158.196 Y135.18 E65.70268
G1 X157.827 Y135.276 E65.72444
G1 X103.36 Y135.285 E68.83225
G1 X32.328 Y135.286 E72.88525
G1 X31.953 Y135.233 E72.90686
G1 X31.601 Y135.069 E72.92901
G1 X31.322 Y134.813 E72.95062
G1 X31.13 Y134.482 E72.97245
G1 X31.043 Y134.091 E72.99531
G1 X31.04 Y91.537 E75.42338
G1 X31.039 Y36.003 E78.59208
G1 X31.092 Y35.628 E78.61369
G1 X31.256 Y35.276 E78.63585
G1 X31.512 Y34.997 E78.65745
G1 X31.843 Y34.805 E78.67929
G1 X32.234 Y34.718 E78.70214
G1 X86.64 Y34.715 E81.80648
G1 X157.672 Y34.714 E85.85947
G1 X158.047 Y34.767 E85.88108
G1 X158.399 Y34.931 E85.90324
G0 F3600 X158.678 Y35.187
G0 X158.689 Y35.206
G0 X158.021 Y35.592
G0 X157.617 Y36.06
;TYPE:SKIN
G1 F1800 X157.62 Y78.463 E88.3227
G1 X157.621 Y133.897 E91.48569
G1 X157.615 Y133.936 E91.48794
G1 X103.36 Y133.945 E94.58366
G1 X32.424 Y133.946 E98.63117
G1 X32.383 Y133.94 E98.63354
G1 X32.38 Y91.537 E101.053
G1 X32.379 Y36.099 E104.21622
G1 X32.385 Y36.058 E104.21858
G1 X86.64 Y36.055 E107.3143
G1 X157.576 Y36.054 E111.36182
G1 X157.617 Y36.06 E111.36418
G0 F3600 X155.558 Y37.85
G1 F1800 X154.72 Y37.296 E111.4215
G1 X153.825 Y37.019 E111.47496
G1 X152.906 Y36.984 E111.52743
G1 X151.938 Y37.226 E111.58437
G1 X151.114 Y37.707 E111.63881
G1 X150.422 Y38.433 E111.69603
G1 X149.997 Y39.267 E111.74944
G1 X149.801 Y40.165 E111.80189
G1 X149.871 Y41.162 E111.85892
G1 X150.197 Y42.042 E111.91246
G1 X150.731 Y42.793 E111.96504
G1 X151.512 Y43.414 E112.02197
G1 X152.379 Y43.768 E112.07541
G1 X153.294 Y43.881 E112.12801
G1 X154.278 Y43.725 E112.18486
G1 X155.141 Y43.321 E112.23923
G1 X155.889 Y42.658 E112.29626
G1 X156.401 Y41.851 E112.3508
G1 X156.659 Y40.948 E112.40438
G1 X156.699 Y40.365 E112.43773
G1 X156.578 Y39.491 E112.48807
G1 X156.173 Y38.58 E112.54496
G1 X155.558 Y37.85 E112.59942
G0 F3600 X156.044 Y40.388
G0 X153.825 Y126.169
G1 F1800 X152.906 Y126.134 E112.6519
G1 X151.938 Y126.376 E112.70883
G1 X151.114 Y126.857 E112.76327
G1 X150.422 Y127.583 E112.8205
G1 X149.997 Y128.417 E112.87391
G1 X149.801 Y129.315 E112.92635
G1 X149.871 Y130.312 E112.98338
G1 X150.197 Y131.192 E113.03692
G1 X150.731 Y131.943 E113.0895
G1 X151.512 Y132.564 E113.14644
G1 X152.379 Y132.918 E113.19987
G1 X153.294 Y133.031 E113.25248
G1 X154.278 Y132.875 E113.30932
G1 X155.141 Y132.471 E113.36369
G1 X155.889 Y131.808 E113.42073
G1 X156.401 Y131.001 E113.47526
G1 X156.659 Y130.098 E113.52884
G1 X156.699 Y129.515 E113.56219
G1 X156.578 Y128.641 E113.61253
G1 X156.173 Y127.73 E113.66942
G1 X155.558 Y127 E113.72388
G1 X154.72 Y126.446 E113.7812
G1 X153.825 Y126.169 E113.83466
G0 F3600 X39.673 Y127.73
G1 F1800 X39.058 Y127 E113.88912
G1 X38.22 Y126.446 E113.94644
G1 X37.325 Y126.169 E113.9999
G1 X36.406 Y126.134 E114.05238
G1 X35.438 Y126.376 E114.10931
G1 X34.614 Y126.857 E114.16375
G1 X33.922 Y127.583 E114.22098
G1 X33.497 Y128.417 E114.27439
G1 X33.301 Y129.315 E114.32683
G1 X33.371 Y130.312 E114.38386
G1 X33.697 Y131.192 E114.4374
G1 X34.231 Y131.943 E114.48998
G1 X35.012 Y132.564 E114.54692
G1 X35.879 Y132.918 E114.60035
G1 X36.794 Y133.031 E114.65296
G1 X37.778 Y132.875 E114.7098
G1 X38.641 Y132.471 E114.76417
G1 X39.389 Y131.808 E114.82121
G1 X39.901 Y131.001 E114.87574
G1 X40.159 Y130.098 E114.92932
G1 X40.199 Y129.515 E114.96267
G1 X40.078 Y128.641 E115.01301
G1 X39.673 Y127.73 E115.0699
G0 F3600 X40.199 Y40.365
G1 F1800 X40.078 Y39.491 E115.12024
G1 X39.673 Y38.58 E115.17713
G1 X39.058 Y37.85 E115.23159
G1 X38.22 Y37.296 E115.28891
G1 X37.325 Y37.019 E115.34237
G1 X36.406 Y36.984 E115.39485
G1 X35.438 Y37.226 E115.45178
G1 X34.614 Y37.707 E115.50622
G1 X33.922 Y38.433 E115.56345
G1 X33.497 Y39.267 E115.61686
G1 X33.301 Y40.165 E115.6693
G1 X33.371 Y41.162 E115.72633
G1 X33.697 Y42.042 E115.77987
G1 X34.231 Y42.793 E115.83245
G1 X35.012 Y43.414 E115.88939
G1 X35.879 Y43.768 E115.94282
G1 X36.794 Y43.881 E115.99543
G1 X37.778 Y43.725 E116.05227
G1 X38.641 Y43.321 E116.10664
G1 X39.389 Y42.658 E116.16368
G1 X39.901 Y41.851 E116.21821
G1 X40.159 Y40.948 E116.27179
G1 X40.199 Y40.365 E116.30514
G0 F3600 X33.644 Y133.629
G1 F1800 X32.697 Y132.682 E116.38155
G0 F3600 X32.697 Y131.692
G1 F1800 X34.634 Y133.629 E116.53786
G0 F3600 X34.762 Y132.767
G1 F1800 X35.624 Y133.629 E116.60741
G0 F3600 X36.267 Y133.282
G1 F1800 X36.614 Y133.629 E116.63541
G0 F3600 X37.251 Y133.276
G1 F1800 X37.604 Y133.629 E116.6639
G0 F3600 X38.057 Y133.092
G1 F1800 X38.594 Y133.629 E116.70723
G0 F3600 X38.731 Y132.776
G1 F1800 X39.584 Y133.629 E116.77606
G0 F3600 X40.574 Y133.629
G1 F1800 X39.274 Y132.33 E116.88092
G0 F3600 X39.753 Y131.818
G1 F1800 X41.564 Y133.629 E117.02706
G0 F3600 X42.554 Y133.629
G1 F1800 X40.137 Y131.212 E117.22209
G0 F3600 X40.38 Y130.466
G1 F1800 X43.544 Y133.629 E117.47737
G0 F3600 X44.534 Y133.629
G1 F1800 X40.509 Y129.604 E117.80216
G0 F3600 X40.333 Y128.438
G1 F1800 X45.524 Y133.629 E118.22104
G0 F3600 X46.514 Y133.629
G1 F1800 X32.696 Y119.812 E119.33601
G0 F3600 X32.696 Y118.822
G1 F1800 X47.504 Y133.629 E120.53088
G0 F3600 X48.494 Y133.629
G1 F1800 X32.696 Y117.832 E121.80563
G0 F3600 X32.696 Y116.842
G1 F1800 X49.484 Y133.629 E123.16026
G0 F3600 X50.473 Y133.629
G1 F1800 X32.696 Y115.852 E124.59475
