;FLAVOR:Marlin
;TIME:3852
;Filament used: 3.333m
;Layer height: 0.4
;MINX:28.489
;MINY:33.364
;MINZ:0.52
;MAXX:161.511
;MAXY:136.636
;MAXZ:1.72
;Generated with Cura_SteamEngine 4.1.0
M82 ;absolute extrusion mode
M98 P0:/sys/startprint.g

G92 E0
G92 E0
G10
;LAYER_COUNT:4
;LAYER:0
M107
G0 F3600 X30.342 Y34.498 Z0.52
;TYPE:SKIRT
G11
G1 F1800 X30.78 Y34.193 E0.03045
G1 X31.208 Y33.944 E0.05871
G1 X31.674 Y33.72 E0.08821
G1 X32.073 Y33.592 E0.11212
G1 X32.275 Y33.541 E0.12401
G1 X32.413 Y33.509 E0.13209
G1 X32.711 Y33.447 E0.14946
G1 X33.284 Y33.379 E0.18238
G1 X33.499 Y33.372 E0.19465
G1 X33.579 Y33.37 E0.19922
G1 X33.814 Y33.368 E0.21263
G1 X33.843 Y33.368 E0.21428
G1 X86.8 Y33.365 E3.23594
G1 X155.793 Y33.364 E7.17259
G1 X155.841 Y33.364 E7.17533
G1 X156.541 Y33.374 E7.21528
G1 X156.905 Y33.399 E7.23609
G1 X157.131 Y33.427 E7.24909
G1 X157.249 Y33.444 E7.25589
G1 X157.461 Y33.478 E7.26814
G1 X157.964 Y33.599 E7.29766
G1 X158.285 Y33.722 E7.31727
G1 X158.751 Y33.928 E7.34635
G1 X159.207 Y34.173 E7.37588
G1 X159.634 Y34.499 E7.40654
G1 X160.024 Y34.849 E7.43644
G1 X160.382 Y35.223 E7.46598
G1 X160.683 Y35.658 E7.49616
G1 X160.929 Y36.081 E7.52408
G1 X161.154 Y36.547 E7.55361
G1 X161.3 Y37.023 E7.58202
G1 X161.414 Y37.525 E7.61139
G1 X161.495 Y38.143 E7.64695
G1 X161.503 Y38.359 E7.65929
G1 X161.505 Y38.451 E7.66454
G1 X161.507 Y38.663 E7.67663
G1 X161.507 Y38.695 E7.67846
G1 X161.51 Y78.776 E9.96543
G1 X161.511 Y130.883 E12.93859
G1 X161.511 Y130.928 E12.94115
G1 X161.502 Y131.599 E12.97944
G1 X161.473 Y131.995 E13.0021
G1 X161.405 Y132.507 E13.03157
G1 X161.297 Y133.013 E13.06109
G1 X161.207 Y133.279 E13.07711
G1 X161.12 Y133.503 E13.09083
G1 X161.027 Y133.72 E13.1043
G1 X160.926 Y133.934 E13.1178
G1 X160.669 Y134.383 E13.14732
G1 X160.446 Y134.676 E13.16833
G1 X160.193 Y134.973 E13.19059
G1 X159.755 Y135.401 E13.22553
G1 X159.531 Y135.583 E13.242
G1 X159.134 Y135.861 E13.26965
G1 X158.889 Y136.007 E13.28593
G1 X158.425 Y136.236 E13.31545
G1 X158.067 Y136.358 E13.33703
G1 X157.575 Y136.494 E13.36616
G1 X157.067 Y136.593 E13.39569
G1 X156.731 Y136.615 E13.4149
G1 X155.984 Y136.626 E13.45753
G1 X155.936 Y136.626 E13.46027
G1 X103.201 Y136.635 E16.46926
G1 X34.208 Y136.636 E20.40591
G1 X34.159 Y136.636 E20.4087
G1 X33.459 Y136.626 E20.44865
G1 X33.099 Y136.601 E20.46924
G1 X32.871 Y136.573 E20.48235
G1 X32.739 Y136.554 E20.48996
G1 X32.531 Y136.52 E20.50198
G1 X32.028 Y136.398 E20.53151
G1 X31.721 Y136.28 E20.55028
G1 X31.251 Y136.073 E20.57958
G1 X30.795 Y135.828 E20.60912
G1 X30.361 Y135.498 E20.64023
G1 X29.973 Y135.149 E20.67001
G1 X29.616 Y134.774 E20.69955
G1 X29.315 Y134.338 E20.72978
G1 X29.064 Y133.905 E20.75834
G1 X28.84 Y133.439 E20.78784
G1 X28.709 Y133.026 E20.81256
G1 X28.661 Y132.831 E20.82402
G1 X28.633 Y132.708 E20.83122
G1 X28.572 Y132.413 E20.8484
G1 X28.505 Y131.856 E20.88042
G1 X28.497 Y131.634 E20.89309
G1 X28.495 Y131.538 E20.89857
G1 X28.493 Y131.269 E20.91392
G1 X28.493 Y131.244 E20.91535
G1 X28.49 Y91.224 E23.19883
G1 X28.489 Y39.054 E26.17559
G1 X28.489 Y39.004 E26.17844
G1 X28.499 Y38.337 E26.2165
G1 X28.523 Y37.986 E26.23658
G1 X28.551 Y37.754 E26.24991
G1 X28.57 Y37.62 E26.25763
G1 X28.604 Y37.41 E26.26977
G1 X28.726 Y36.907 E26.2993
G1 X28.846 Y36.593 E26.31848
G1 X29.052 Y36.126 E26.34761
G1 X29.297 Y35.67 E26.37714
G1 X29.62 Y35.244 E26.40765
G1 X29.968 Y34.855 E26.43743
G1 X30.342 Y34.498 E26.46693
G10
;MESH:circuitboxlid.stl
G0 F3600 X32.724 Y37.412
G0 X37.658 Y39.683
G0 X38.559 Y40.477
G0 X38.883 Y41.554
G0 X38.666 Y42.496
;TYPE:WALL-OUTER
G11
G1 F1800 X38.831 Y41.916 E26.50134
G1 X38.852 Y41.611 E26.51878
G1 X38.777 Y41.062 E26.5504
G1 X38.526 Y40.498 E26.58562
G1 X38.158 Y40.061 E26.61822
G1 X37.641 Y39.719 E26.65359
G1 X37.098 Y39.551 E26.68602
G1 X36.546 Y39.531 E26.71754
G1 X35.947 Y39.68 E26.75276
G1 X35.453 Y39.968 E26.78538
G1 X35.027 Y40.416 E26.82066
G1 X34.769 Y40.921 E26.85302
G1 X34.652 Y41.462 E26.8846
G1 X34.695 Y42.078 E26.91983
G1 X34.892 Y42.611 E26.95226
G1 X35.211 Y43.058 E26.98359
G1 X35.638 Y43.41 E27.01516
G1 X36.203 Y43.657 E27.05035
G1 X36.77 Y43.729 E27.08296
G1 X37.38 Y43.632 E27.1182
G1 X37.897 Y43.389 E27.1508
G1 X38.359 Y42.98 E27.18601
G1 X38.666 Y42.496 E27.21871
G0 F3600 X38.775 Y42.112
G0 X39.515 Y42.323
G0 X38.87 Y128.672
G0 X38.666 Y129.246
G1 F1800 X38.831 Y128.666 E27.25312
G1 X38.852 Y128.361 E27.27056
G1 X38.777 Y127.812 E27.30218
G1 X38.526 Y127.248 E27.3374
G1 X38.158 Y126.811 E27.37
G1 X37.641 Y126.469 E27.40537
G1 X37.098 Y126.301 E27.4378
G1 X36.546 Y126.281 E27.46932
G1 X35.947 Y126.43 E27.50454
G1 X35.453 Y126.718 E27.53716
G1 X35.027 Y127.166 E27.57244
G1 X34.769 Y127.671 E27.6048
G1 X34.652 Y128.212 E27.63638
G1 X34.695 Y128.828 E27.67161
G1 X34.892 Y129.361 E27.70404
G1 X35.213 Y129.812 E27.73562
G1 X35.696 Y130.196 E27.77083
G1 X36.221 Y130.41 E27.80318
G1 X36.771 Y130.479 E27.83481
G1 X37.38 Y130.382 E27.86999
G1 X37.897 Y130.139 E27.90259
G1 X38.359 Y129.73 E27.9378
G1 X38.666 Y129.246 E27.9705
G0 F3600 X38.775 Y128.862
G0 X39.515 Y129.073
G0 X153.271 Y130.518
G0 X154.418 Y130.172
G0 X155.257 Y129.286
G0 X155.166 Y129.246
G1 F1800 X155.331 Y128.666 E28.00491
G1 X155.352 Y128.361 E28.02235
G1 X155.277 Y127.812 E28.05397
G1 X155.026 Y127.248 E28.08919
G1 X154.658 Y126.811 E28.12179
G1 X154.141 Y126.469 E28.15716
G1 X153.598 Y126.301 E28.18959
G1 X153.046 Y126.281 E28.22111
G1 X152.447 Y126.43 E28.25633
G1 X151.953 Y126.718 E28.28895
G1 X151.527 Y127.166 E28.32423
G1 X151.269 Y127.671 E28.35659
G1 X151.152 Y128.212 E28.38817
G1 X151.195 Y128.828 E28.4234
G1 X151.392 Y129.361 E28.45582
G1 X151.713 Y129.812 E28.48741
G1 X152.196 Y130.196 E28.52262
G1 X152.721 Y130.41 E28.55497
G1 X153.271 Y130.479 E28.5866
G1 X153.88 Y130.382 E28.62178
G1 X154.397 Y130.139 E28.65438
G1 X154.859 Y129.73 E28.68958
G1 X155.166 Y129.246 E28.72229
G0 F3600 X155.275 Y128.862
G0 X156.015 Y129.073
G0 X155.257 Y42.536
G0 X155.166 Y42.496
G1 F1800 X155.331 Y41.916 E28.75669
G1 X155.352 Y41.611 E28.77414
G1 X155.277 Y41.062 E28.80576
G1 X155.026 Y40.498 E28.84098
G1 X154.658 Y40.061 E28.87358
G1 X154.141 Y39.719 E28.90895
G1 X153.598 Y39.551 E28.94138
G1 X153.046 Y39.531 E28.9729
G1 X152.447 Y39.68 E29.00812
G1 X151.953 Y39.968 E29.04074
G1 X151.527 Y40.416 E29.07602
G1 X151.269 Y40.921 E29.10837
G1 X151.152 Y41.462 E29.13996
G1 X151.195 Y42.078 E29.17519
G1 X151.392 Y42.611 E29.20761
G1 X151.711 Y43.058 E29.23895
G1 X152.138 Y43.41 E29.27052
G1 X152.703 Y43.657 E29.30571
G1 X153.27 Y43.729 E29.33832
G1 X153.88 Y43.632 E29.37356
G1 X154.397 Y43.389 E29.40616
G1 X154.859 Y42.98 E29.44136
G1 X155.166 Y42.496 E29.47407
G0 F3600 X155.275 Y42.112
G0 X156.015 Y42.323
G0 X157.144 Y37.414
G0 X157.199 Y37.331
G1 F1800 X157.478 Y37.587 E29.49567
G1 X157.67 Y37.918 E29.51751
G1 X157.757 Y38.309 E29.54036
G1 X157.76 Y78.783 E31.84976
G1 X157.761 Y131.598 E34.86331
G1 X157.701 Y131.993 E34.88611
G1 X157.558 Y132.304 E34.90564
G1 X157.309 Y132.587 E34.92715
G1 X156.996 Y132.78 E34.94813
G1 X156.627 Y132.876 E34.96988
G1 X103.2 Y132.885 E38.01836
G1 X33.528 Y132.886 E41.99375
G1 X33.153 Y132.833 E42.01536
G1 X32.801 Y132.669 E42.03752
G1 X32.522 Y132.413 E42.05912
G1 X32.33 Y132.082 E42.08096
G1 X32.243 Y131.691 E42.10381
G1 X32.24 Y91.217 E44.41321
G1 X32.239 Y38.403 E47.4267
G1 X32.292 Y38.028 E47.44831
G1 X32.456 Y37.676 E47.47047
G1 X32.712 Y37.397 E47.49208
G1 X33.043 Y37.205 E47.51391
G1 X33.434 Y37.118 E47.53677
G1 X86.8 Y37.115 E50.58176
G1 X156.472 Y37.114 E54.55715
G1 X156.847 Y37.167 E54.57876
G1 X157.199 Y37.331 E54.60092
G0 F3600 X157.478 Y37.587
G0 X157.489 Y37.606
G0 X156.821 Y37.992
G0 X156.809 Y37.91
;TYPE:SKIN
G1 F1800 X156.934 Y38.026 E54.61065
G1 X157.019 Y38.172 E54.62029
G1 X157.067 Y38.387 E54.63286
G1 X157.07 Y78.783 E56.9378
G1 X157.071 Y131.546 E59.94839
G1 X157.033 Y131.795 E59.96276
G1 X156.975 Y131.923 E59.97078
G1 X156.858 Y132.055 E59.98085
G1 X156.724 Y132.137 E59.98981
G1 X156.537 Y132.186 E60.00084
G1 X103.2 Y132.195 E63.04418
G1 X33.583 Y132.196 E67.01643
G1 X33.349 Y132.163 E67.02992
G1 X33.191 Y132.09 E67.03985
G1 X33.066 Y131.974 E67.04958
G1 X32.981 Y131.828 E67.05922
G1 X32.933 Y131.613 E67.07179
G1 X32.93 Y91.217 E69.37673
G1 X32.929 Y38.458 E72.38709
G1 X32.962 Y38.224 E72.40057
G1 X33.035 Y38.066 E72.4105
G1 X33.151 Y37.941 E72.42023
G1 X33.297 Y37.856 E72.42987
G1 X33.512 Y37.808 E72.44244
G1 X86.8 Y37.805 E75.48299
G1 X156.417 Y37.804 E79.45524
G1 X156.651 Y37.837 E79.46873
G1 X156.809 Y37.91 E79.47866
G0 F3600 X155.121 Y39.54
G1 F1800 X154.439 Y39.089 E79.52531
G1 X153.714 Y38.865 E79.56861
G1 X152.974 Y38.837 E79.61086
G1 X152.185 Y39.034 E79.65726
G1 X151.521 Y39.422 E79.70114
G1 X150.958 Y40.013 E79.74772
G1 X150.614 Y40.687 E79.79089
G1 X150.456 Y41.412 E79.83323
G1 X150.513 Y42.224 E79.87968
G1 X150.777 Y42.937 E79.92306
G1 X151.202 Y43.533 E79.96483
G1 X151.773 Y44.004 E80.00706
G1 X152.518 Y44.329 E80.05344
G1 X153.281 Y44.426 E80.09733
G1 X154.085 Y44.298 E80.14378
G1 X154.78 Y43.971 E80.1876
G1 X155.389 Y43.432 E80.23401
G1 X155.802 Y42.782 E80.27795
G1 X156.015 Y42.036 E80.32222
G1 X156.046 Y41.587 E80.3479
G1 X155.947 Y40.871 E80.38914
G1 X155.617 Y40.128 E80.43553
G1 X155.121 Y39.54 E80.47942
G0 F3600 X155.364 Y41.403
G0 X153.714 Y125.615
G1 F1800 X152.974 Y125.587 E80.52167
G1 X152.185 Y125.784 E80.56808
G1 X151.521 Y126.172 E80.61196
G1 X150.958 Y126.763 E80.65853
G1 X150.614 Y127.437 E80.70171
G1 X150.456 Y128.162 E80.74405
G1 X150.513 Y128.974 E80.79049
G1 X150.777 Y129.686 E80.83382
G1 X151.208 Y130.291 E80.8762
G1 X151.843 Y130.797 E80.92253
G1 X152.545 Y131.084 E80.96581
G1 X153.283 Y131.175 E81.00823
G1 X154.085 Y131.048 E81.05457
G1 X154.78 Y130.721 E81.09839
G1 X155.389 Y130.182 E81.1448
G1 X155.802 Y129.532 E81.18874
G1 X156.015 Y128.786 E81.233
G1 X156.046 Y128.337 E81.25868
G1 X155.947 Y127.621 E81.29993
G1 X155.617 Y126.878 E81.34632
G1 X155.121 Y126.29 E81.39021
G1 X154.439 Y125.839 E81.43686
G1 X153.714 Y125.615 E81.48016
G0 F3600 X39.117 Y126.878
G1 F1800 X38.621 Y126.29 E81.52405
G1 X37.939 Y125.839 E81.5707
G1 X37.214 Y125.615 E81.614
G1 X36.474 Y125.587 E81.65625
G1 X35.685 Y125.784 E81.70266
G1 X35.021 Y126.172 E81.74654
G1 X34.458 Y126.763 E81.79311
G1 X34.114 Y127.437 E81.83629
G1 X33.956 Y128.162 E81.87863
G1 X34.013 Y128.974 E81.92507
G1 X34.277 Y129.686 E81.9684
G1 X34.708 Y130.291 E82.01079
G1 X35.343 Y130.797 E82.05711
G1 X36.045 Y131.084 E82.10039
G1 X36.783 Y131.175 E82.14282
G1 X37.585 Y131.048 E82.18915
G1 X38.28 Y130.721 E82.23297
G1 X38.889 Y130.182 E82.27938
G1 X39.302 Y129.532 E82.32332
G1 X39.515 Y128.786 E82.36758
G1 X39.546 Y128.337 E82.39327
G1 X39.447 Y127.621 E82.43451
G1 X39.117 Y126.878 E82.4809
G0 F3600 X39.546 Y41.587
G1 F1800 X39.447 Y40.871 E82.52214
G1 X39.117 Y40.128 E82.56853
G1 X38.621 Y39.54 E82.61242
G1 X37.939 Y39.089 E82.65907
G1 X37.214 Y38.865 E82.70237
G1 X36.474 Y38.837 E82.74462
G1 X35.685 Y39.034 E82.79102
G1 X35.021 Y39.422 E82.83491
G1 X34.458 Y40.013 E82.88148
G1 X34.114 Y40.687 E82.92466
G1 X33.956 Y41.412 E82.96699
G1 X34.013 Y42.224 E83.01344
G1 X34.277 Y42.937 E83.05682
G1 X34.702 Y43.533 E83.09859
G1 X35.273 Y44.004 E83.14082
G1 X36.018 Y44.329 E83.1872
G1 X36.781 Y44.426 E83.23109
G1 X37.585 Y44.298 E83.27754
G1 X38.28 Y43.971 E83.32137
G1 X38.889 Y43.432 E83.36777
G1 X39.302 Y42.782 E83.41171
G1 X39.515 Y42.036 E83.45598
G1 X39.546 Y41.587 E83.48166
G0 F3600 X33.246 Y131.251
G1 F1800 X33.874 Y131.879 E83.53233
G0 F3600 X34.864 Y131.879
G1 F1800 X33.246 Y130.261 E83.6629
G0 F3600 X33.246 Y129.271
G1 F1800 X34.46 Y130.485 E83.76086
G0 F3600 X34.512 Y130.537
G1 F1800 X35.854 Y131.879 E83.86915
G0 F3600 X36.409 Y131.444
G1 F1800 X36.844 Y131.879 E83.90425
G0 F3600 X37.356 Y131.401
G1 F1800 X37.834 Y131.879 E83.94282
G0 F3600 X38.098 Y131.153
G1 F1800 X38.824 Y131.879 E84.0014
G0 F3600 X39.814 Y131.879
G1 F1800 X38.702 Y130.767 E84.09114
G0 F3600 X39.2 Y130.275
G1 F1800 X40.804 Y131.879 E84.22057
G0 F3600 X41.794 Y131.879
G1 F1800 X39.585 Y129.67 E84.39882
G0 F3600 X39.808 Y128.904
G1 F1800 X42.784 Y131.879 E84.63892
G0 F3600 X43.774 Y131.879
G1 F1800 X39.804 Y127.909 E84.95927
G1 X39.681 Y127.786
G0 F3600 X37.192 Y125.297
G1 F1800 X33.246 Y121.351 E85.27769
G0 F3600 X33.246 Y120.361
G1 F1800 X44.764 Y131.879 E86.20711
G0 F3600 X45.754 Y131.879
G1 F1800 X33.246 Y119.371 E87.21642
G0 F3600 X33.246 Y118.381
G1 F1800 X46.744 Y131.879 E88.30562
G0 F3600 X47.733 Y131.879
G1 F1800 X33.246 Y117.391 E89.47466
G0 F3600 X33.246 Y116.401
G1 F1800 X48.723 Y131.879 E90.72359
G0 F3600 X49.713 Y131.879
G1 F1800 X33.246 Y115.411 E92.0524
G0 F3600 X33.246 Y114.421
G1 F1800 X50.703 Y131.879 E93.46111
G0 F3600 X51.693 Y131.879
G1 F1800 X33.246 Y113.431 E94.94969
G0 F3600 X33.246 Y112.441
G1 F1800 X52.683 Y131.879 E96.51817
G0 F3600 X53.673 Y131.879
G1 F1800 X33.246 Y111.452 E98.16649
G0 F3600 X33.245 Y110.461
G1 F1800 X54.663 Y131.879 E99.89477
G0 F3600 X55.653 Y131.879
G1 F1800 X33.245 Y109.471 E101.70294
G0 F3600 X33.245 Y108.481
G1 F1800 X56.643 Y131.879 E103.591
G0 F3600 X57.633 Y131.879
G1 F1800 X33.245 Y107.491 E105.55895
G0 F3600 X33.245 Y106.501
G1 F1800 X58.623 Y131.879 E107.60678
G0 F3600 X59.613 Y131.879
G1 F1800 X33.245 Y105.511 E109.7345
G0 F3600 X33.245 Y104.521
G1 F1800 X60.603 Y131.879 E111.9421
G0 F3600 X61.593 Y131.879
G1 F1800 X33.245 Y103.531 E114.22959
G0 F3600 X33.245 Y102.541
G1 F1800 X62.583 Y131.879 E116.59697
G0 F3600 X63.573 Y131.879
G1 F1800 X33.245 Y101.551 E119.04423
G0 F3600 X33.244 Y100.561
G1 F1800 X64.563 Y131.879 E121.57142
G0 F3600 X65.553 Y131.879
G1 F1800 X33.244 Y99.571 E124.17849
G0 F3600 X33.244 Y98.581
G1 F1800 X66.542 Y131.879 E126.86541
G0 F3600 X67.532 Y131.879
G1 F1800 X33.244 Y97.591 E129.63222
G0 F3600 X33.244 Y96.601
G1 F1800 X68.522 Y131.878 E132.47888
G0 F3600 X69.512 Y131.878
G1 F1800 X33.244 Y95.611 E135.40542
G0 F3600 X33.244 Y94.621
G1 F1800 X70.502 Y131.878 E138.41184
G0 F3600 X71.492 Y131.878
G1 F1800 X33.244 Y93.631 E141.49815
G0 F3600 X33.244 Y92.641
G1 F1800 X72.481 Y131.878 E144.66431
G0 F3600 X73.471 Y131.878
G1 F1800 X33.244 Y91.651 E147.91036
G0 F3600 X33.243 Y90.66
G1 F1800 X74.461 Y131.878 E151.23637
G0 F3600 X75.451 Y131.878
G1 F1800 X33.243 Y89.671 E154.64222
G0 F3600 X33.243 Y88.681
G1 F1800 X76.441 Y131.878 E158.12797
G0 F3600 X77.431 Y131.878
G1 F1800 X33.243 Y87.691 E161.6936
G0 F3600 X33.243 Y86.701
G1 F1800 X78.421 Y131.878 E165.33911
G0 F3600 X79.411 Y131.878
G1 F1800 X33.243 Y85.711 E169.06451
G0 F3600 X33.243 Y84.721
G1 F1800 X80.401 Y131.878 E172.8698
G0 F3600 X81.391 Y131.878
G1 F1800 X33.243 Y83.731 E176.75498
G0 F3600 X33.243 Y82.741
G1 F1800 X82.381 Y131.878 E180.72004
G0 F3600 X83.371 Y131.878
G1 F1800 X33.243 Y81.751 E184.76498
G0 F3600 X33.243 Y80.761
G1 F1800 X84.361 Y131.878 E188.88982
G0 F3600 X85.351 Y131.878
G1 F1800 X33.243 Y79.771 E193.09454
G0 F3600 X33.243 Y78.781
G1 F1800 X86.341 Y131.878 E197.37914
G0 F3600 X87.331 Y131.878
G1 F1800 X33.243 Y77.791 E201.74363
G0 F3600 X33.243 Y76.801
G1 F1800 X88.321 Y131.878 E206.18801
G0 F3600 X89.311 Y131.878
G1 F1800 X33.243 Y75.811 E210.71228
G0 F3600 X33.243 Y74.821
G1 F1800 X90.301 Y131.878 E215.31643
G0 F3600 X91.291 Y131.878
G1 F1800 X33.243 Y73.831 E220.00046
G0 F3600 X33.243 Y72.841
G1 F1800 X92.28 Y131.878 E224.76435
G0 F3600 X93.27 Y131.878
G1 F1800 X33.243 Y71.851 E229.60812
G0 F3600 X33.243 Y70.861
G1 F1800 X94.26 Y131.878 E234.53177
G0 F3600 X95.25 Y131.878
G1 F1800 X33.243 Y69.872 E239.53527
G0 F3600 X33.243 Y68.882
G1 F1800 X96.24 Y131.878 E244.61866
G0 F3600 X97.23 Y131.878
G1 F1800 X33.243 Y67.892 E249.78193
G0 F3600 X33.243 Y66.902
G1 F1800 X98.22 Y131.878 E255.02509
G0 F3600 X99.21 Y131.878
G1 F1800 X33.243 Y65.912 E260.34814
G0 F3600 X33.243 Y64.922
G1 F1800 X100.2 Y131.878 E265.75107
G0 F3600 X101.19 Y131.878
G1 F1800 X33.243 Y63.932 E271.23389
G0 F3600 X33.243 Y62.942
G1 F1800 X102.18 Y131.878 E276.79659
G0 F3600 X103.17 Y131.878
G1 F1800 X33.243 Y61.952 E282.43918
G0 F3600 X33.243 Y60.962
G1 F1800 X104.159 Y131.878 E288.16162
G0 F3600 X105.149 Y131.878
G1 F1800 X33.243 Y59.972 E293.96394
