;FLAVOR:Marlin
;TIME:5952
;Filament used: 3.01826m
;Layer height: 0.4
;MINX:7.533
;MINY:66.989
;MINZ:0.52
;MAXX:146.011
;MAXY:103.011
;MAXZ:23.72
;Generated with Cura_SteamEngine 4.1.0
M82 ;absolute extrusion mode
M98 P0:/sys/startprint.g

G92 E0
G92 E0
G10
;LAYER_COUNT:59
;LAYER:0
M107
G0 F3600 X11.68 Y67.088 Z0.52
;TYPE:SKIRT
G11
G1 F1800 X12.315 Y67.005 E0.03654
G1 X12.523 Y66.998 E0.04842
G1 X12.602 Y66.996 E0.05292
G1 X12.9 Y66.993 E0.06993
G1 X12.933 Y66.993 E0.07181
G1 X31.808 Y66.989 E1.14879
G1 X71.885 Y66.989 E3.43554
G1 X72.64 Y67 E3.47862
G1 X72.687 Y67.001 E3.4813
G1 X75.351 Y67.077 E3.63337
G1 X78.08 Y67.077 E3.78908
G1 X80.044 Y67.03 E3.90118
G1 X81.023 Y66.997 E3.95707
G1 X81.105 Y66.995 E3.96175
G1 X81.317 Y66.993 E3.97385
G1 X81.348 Y66.993 E3.97561
G1 X95.731 Y66.989 E4.79629
G1 X140.341 Y66.989 E7.34168
G1 X141.039 Y66.999 E7.38151
G1 X141.408 Y67.025 E7.40262
G1 X141.639 Y67.054 E7.4159
G1 X141.747 Y67.069 E7.42212
G1 X141.955 Y67.102 E7.43414
G1 X142.458 Y67.223 E7.46366
G1 X142.782 Y67.346 E7.48343
G1 X143.249 Y67.552 E7.51256
G1 X143.705 Y67.797 E7.54209
G1 X144.134 Y68.124 E7.57287
G1 X144.524 Y68.474 E7.60277
G1 X144.882 Y68.848 E7.63231
G1 X145.183 Y69.283 E7.66249
G1 X145.429 Y69.706 E7.69041
G1 X145.654 Y70.172 E7.71994
G1 X145.776 Y70.551 E7.74266
G1 X145.829 Y70.756 E7.75474
G1 X145.868 Y70.921 E7.76441
G1 X145.929 Y71.218 E7.78172
G1 X145.995 Y71.769 E7.81338
G1 X146.003 Y71.986 E7.82577
G1 X146.005 Y72.077 E7.83096
G1 X146.007 Y72.288 E7.843
G1 X146.007 Y72.318 E7.84471
G1 X146.011 Y80.564 E8.31522
G1 X146.011 Y97.324 E9.27152
G1 X146.001 Y98.033 E9.31198
G1 X145.976 Y98.395 E9.33269
G1 X145.947 Y98.631 E9.34625
G1 X145.93 Y98.749 E9.35306
G1 X145.897 Y98.956 E9.36502
G1 X145.777 Y99.459 E9.39452
G1 X145.656 Y99.778 E9.41399
G1 X145.455 Y100.235 E9.44248
G1 X145.21 Y100.691 E9.47201
G1 X144.897 Y101.106 E9.50167
G1 X144.543 Y101.506 E9.53215
G1 X144.171 Y101.866 E9.56169
G1 X143.722 Y102.18 E9.59295
G1 X143.295 Y102.429 E9.62115
G1 X142.829 Y102.654 E9.65068
G1 X142.427 Y102.783 E9.67477
G1 X142.225 Y102.834 E9.68666
G1 X142.083 Y102.867 E9.69498
G1 X141.788 Y102.928 E9.71216
G1 X141.233 Y102.995 E9.74406
G1 X141.015 Y103.003 E9.75651
G1 X140.92 Y103.005 E9.76193
G1 X140.681 Y103.007 E9.77557
G1 X140.654 Y103.007 E9.77711
G1 X121.735 Y103.011 E10.8566
G1 X81.66 Y103.011 E13.14323
G1 X80.875 Y103 E13.18803
G1 X80.826 Y102.999 E13.19082
G1 X78.176 Y102.923 E13.34209
G1 X75.448 Y102.923 E13.49775
G1 X73.467 Y102.971 E13.61081
G1 X72.549 Y103.002 E13.66322
G1 X72.47 Y103.004 E13.66773
G1 X72.186 Y103.007 E13.68394
G1 X72.152 Y103.007 E13.68588
G1 X57.813 Y103.011 E14.50404
G1 X13.203 Y103.011 E17.04943
G1 X12.506 Y103.001 E17.0892
G1 X12.138 Y102.975 E17.11025
G1 X11.906 Y102.946 E17.12359
G1 X11.797 Y102.931 E17.12987
G1 X11.589 Y102.898 E17.14189
G1 X11.086 Y102.777 E17.17141
G1 X10.761 Y102.654 E17.19124
G1 X10.292 Y102.447 E17.22049
G1 X9.837 Y102.202 E17.24997
G1 X9.409 Y101.877 E17.28064
G1 X9.024 Y101.532 E17.31013
G1 X8.667 Y101.158 E17.33963
G1 X8.367 Y100.726 E17.36964
G1 X8.113 Y100.291 E17.39839
G1 X7.887 Y99.826 E17.42789
G1 X7.736 Y99.328 E17.45758
G1 X7.627 Y98.837 E17.48628
G1 X7.549 Y98.226 E17.52142
G1 X7.541 Y97.993 E17.53473
G1 X7.539 Y97.907 E17.53963
G1 X7.537 Y97.675 E17.55287
G1 X7.537 Y97.648 E17.55441
G1 X7.533 Y89.436 E18.02298
G1 X7.533 Y72.629 E18.98196
G1 X7.543 Y71.96 E19.02014
G1 X7.569 Y71.594 E19.04108
G1 X7.598 Y71.362 E19.05442
G1 X7.613 Y71.253 E19.0607
G1 X7.646 Y71.045 E19.07271
G1 X7.767 Y70.542 E19.10223
G1 X7.89 Y70.218 E19.12201
G1 X8.096 Y69.751 E19.15113
G1 X8.341 Y69.295 E19.18067
G1 X8.664 Y68.87 E19.21112
G1 X9.01 Y68.483 E19.24074
G1 X9.383 Y68.125 E19.27024
G1 X9.817 Y67.823 E19.30041
G1 X10.245 Y67.573 E19.32869
G1 X10.711 Y67.348 E19.35822
G1 X11.187 Y67.201 E19.38665
G1 X11.68 Y67.088 E19.41551
G10
;MESH:dragchainanchor.stl
G0 F3600 X12.553 Y71.412
G0 X16.865 Y83.84
G0 X16.96 Y83.87
;TYPE:WALL-INNER
G11
G1 F1800 X16.802 Y84.674 E19.46226
G1 X16.82 Y85.489 E19.50877
G1 X17.013 Y86.283 E19.5554
G1 X17.375 Y87.018 E19.60215
G1 X17.888 Y87.657 E19.6489
G1 X18.526 Y88.167 E19.69551
G1 X19.258 Y88.529 E19.7421
G1 X20.052 Y88.724 E19.78875
G1 X20.871 Y88.742 E19.8355
G1 X21.673 Y88.583 E19.88215
G1 X22.422 Y88.253 E19.92885
G1 X23.082 Y87.77 E19.97551
G1 X23.621 Y87.155 E20.02218
G1 X24.014 Y86.437 E20.06888
G1 X24.243 Y85.652 E20.11554
G1 X24.296 Y84.836 E20.16219
G1 X24.173 Y84.028 E20.20883
G1 X23.875 Y83.265 E20.25557
G1 X23.421 Y82.584 E20.30227
G1 X22.83 Y82.02 E20.34888
G1 X22.132 Y81.596 E20.39548
G1 X21.366 Y81.336 E20.44164
G1 X20.684 Y81.248 E20.48087
G1 X19.891 Y81.301 E20.52622
G1 X19.106 Y81.53 E20.57288
G1 X18.389 Y81.922 E20.61951
G1 X17.774 Y82.463 E20.66624
G1 X17.291 Y83.122 E20.71286
G1 X16.96 Y83.87 E20.75953
G0 F3600 X17.584 Y84.067
;TYPE:WALL-OUTER
G1 F1800 X17.453 Y84.73 E20.79809
G1 X17.468 Y85.404 E20.83656
G1 X17.628 Y86.06 E20.87509
G1 X17.927 Y86.667 E20.9137
G1 X18.35 Y87.194 E20.95226
G1 X18.877 Y87.616 E20.99078
G1 X19.482 Y87.915 E21.02929
G1 X20.138 Y88.076 E21.06783
G1 X20.814 Y88.091 E21.10641
G1 X21.476 Y87.959 E21.14492
G1 X22.095 Y87.687 E21.1835
G1 X22.64 Y87.288 E21.22204
G1 X23.085 Y86.78 E21.26058
G1 X23.41 Y86.187 E21.29916
G1 X23.599 Y85.539 E21.33768
G1 X23.643 Y84.864 E21.37627
G1 X23.541 Y84.197 E21.41477
G1 X23.295 Y83.567 E21.45336
G1 X22.92 Y83.005 E21.49191
G1 X22.432 Y82.539 E21.53041
G1 X21.855 Y82.188 E21.56895
G1 X21.219 Y81.972 E21.60728
G1 X20.664 Y81.901 E21.6392
G1 X20.005 Y81.945 E21.67689
G1 X19.356 Y82.134 E21.71546
G1 X18.764 Y82.458 E21.75396
G1 X18.256 Y82.904 E21.79253
G1 X17.857 Y83.449 E21.83107
G1 X17.584 Y84.067 E21.86962
G0 F3600 X17.507 Y84.459
G0 X16.751 Y84.309
G0 X17.257 Y83.102
G0 X18.367 Y81.89
G0 X19.885 Y81.262
G0 X42.888 Y82.156
G0 X42.878 Y82.255
;TYPE:WALL-INNER
G1 F1800 X41.86 Y82.321 E21.92783
G1 X41.146 Y82.621 E21.97202
G1 X40.578 Y83.065 E22.01316
G1 X40.137 Y83.647 E22.05482
G1 X39.85 Y84.396 E22.10059
G1 X39.788 Y85.14 E22.14319
G1 X39.92 Y85.86 E22.18496
G1 X40.279 Y86.578 E22.23076
G1 X40.793 Y87.133 E22.27392
G1 X41.488 Y87.553 E22.32026
G1 X42.303 Y87.752 E22.36812
G1 X43.132 Y87.697 E22.41553
G1 X43.845 Y87.434 E22.45889
G1 X44.491 Y86.958 E22.50468
G1 X44.95 Y86.354 E22.54796
G1 X45.237 Y85.604 E22.59378
G1 X45.299 Y84.86 E22.63638
G1 X45.167 Y84.14 E22.67815
G1 X44.808 Y83.422 E22.72395
G1 X44.302 Y82.873 E22.76655
G1 X43.68 Y82.484 E22.80841
G1 X42.878 Y82.255 E22.856
G0 F3600 X42.808 Y82.911
;TYPE:WALL-OUTER
G1 F1800 X42.011 Y82.963 E22.90158
G1 X41.478 Y83.187 E22.93457
G1 X41.045 Y83.525 E22.96591
G1 X40.711 Y83.966 E22.99747
G1 X40.49 Y84.542 E23.03268
G1 X40.443 Y85.108 E23.06508
G1 X40.543 Y85.652 E23.09664
G1 X40.819 Y86.205 E23.13191
G1 X41.207 Y86.624 E23.16449
G1 X41.739 Y86.945 E23.19994
G1 X42.36 Y87.097 E23.23642
G1 X42.995 Y87.055 E23.27273
G1 X43.533 Y86.856 E23.30546
G1 X44.03 Y86.49 E23.34068
G1 X44.376 Y86.035 E23.3733
G1 X44.597 Y85.458 E23.40855
G1 X44.644 Y84.892 E23.44096
G1 X44.544 Y84.348 E23.47252
G1 X44.268 Y83.795 E23.50778
G1 X43.883 Y83.378 E23.54017
G1 X43.413 Y83.084 E23.5718
G1 X42.808 Y82.911 E23.6077
G0 F3600 X42.409 Y82.937
G0 X42.359 Y82.168
G0 X50.888 Y82.156
G0 X50.878 Y82.255
;TYPE:WALL-INNER
G1 F1800 X49.86 Y82.321 E23.66591
G1 X49.146 Y82.621 E23.7101
G1 X48.578 Y83.065 E23.75124
G1 X48.137 Y83.647 E23.7929
G1 X47.85 Y84.396 E23.83867
G1 X47.788 Y85.14 E23.88127
G1 X47.92 Y85.86 E23.92304
G1 X48.279 Y86.578 E23.96884
G1 X48.793 Y87.133 E24.012
G1 X49.488 Y87.553 E24.05834
G1 X50.303 Y87.752 E24.10621
G1 X51.132 Y87.697 E24.15361
G1 X51.845 Y87.434 E24.19697
G1 X52.491 Y86.958 E24.24276
G1 X52.95 Y86.354 E24.28604
G1 X53.237 Y85.604 E24.33186
G1 X53.299 Y84.86 E24.37446
G1 X53.167 Y84.14 E24.41623
G1 X52.808 Y83.422 E24.46203
G1 X52.302 Y82.873 E24.50463
G1 X51.68 Y82.484 E24.54649
G1 X50.878 Y82.255 E24.59408
G0 F3600 X50.808 Y82.911
;TYPE:WALL-OUTER
G1 F1800 X50.011 Y82.963 E24.63966
G1 X49.478 Y83.187 E24.67265
G1 X49.045 Y83.525 E24.70399
G1 X48.711 Y83.966 E24.73555
G1 X48.49 Y84.542 E24.77076
G1 X48.443 Y85.108 E24.80316
G1 X48.543 Y85.652 E24.83472
G1 X48.819 Y86.205 E24.86999
G1 X49.207 Y86.624 E24.90257
G1 X49.739 Y86.945 E24.93802
G1 X50.36 Y87.097 E24.9745
G1 X50.995 Y87.055 E25.01081
G1 X51.533 Y86.856 E25.04354
G1 X52.03 Y86.49 E25.07876
G1 X52.376 Y86.035 E25.11138
G1 X52.597 Y85.458 E25.14663
G1 X52.644 Y84.892 E25.17904
G1 X52.544 Y84.348 E25.2106
G1 X52.268 Y83.795 E25.24586
G1 X51.883 Y83.378 E25.27825
G1 X51.413 Y83.084 E25.30988
G1 X50.808 Y82.911 E25.34578
G0 F3600 X50.409 Y82.937
G0 X50.359 Y82.168
G0 X58.78 Y82.146
G0 X58.773 Y82.245
;TYPE:WALL-INNER
G1 F1800 X57.849 Y82.326 E25.39871
G1 X57.146 Y82.621 E25.44221
G1 X56.578 Y83.065 E25.48335
G1 X56.137 Y83.647 E25.52501
G1 X55.85 Y84.396 E25.57078
G1 X55.788 Y85.14 E25.61338
G1 X55.92 Y85.86 E25.65514
G1 X56.279 Y86.578 E25.70095
G1 X56.793 Y87.133 E25.74411
G1 X57.488 Y87.553 E25.79044
G1 X58.303 Y87.752 E25.83831
G1 X59.132 Y87.697 E25.88572
G1 X59.835 Y87.438 E25.92847
G1 X60.431 Y87.014 E25.9702
G1 X60.931 Y86.386 E26.016
G1 X61.218 Y85.686 E26.05917
G1 X61.302 Y84.887 E26.10501
G1 X61.168 Y84.142 E26.1482
G1 X60.808 Y83.421 E26.19419
G1 X60.294 Y82.867 E26.23731
G1 X59.599 Y82.447 E26.28364
G1 X58.773 Y82.245 E26.33216
G0 F3600 X58.723 Y82.902
;TYPE:WALL-OUTER
G1 F1800 X58.007 Y82.965 E26.37317
G1 X57.478 Y83.187 E26.40591
G1 X57.045 Y83.525 E26.43725
G1 X56.711 Y83.966 E26.46881
G1 X56.49 Y84.542 E26.50402
G1 X56.443 Y85.108 E26.53642
G1 X56.543 Y85.652 E26.56798
G1 X56.819 Y86.205 E26.60325
G1 X57.207 Y86.624 E26.63583
G1 X57.739 Y86.945 E26.67128
G1 X58.36 Y87.097 E26.70776
G1 X58.995 Y87.055 E26.74408
G1 X59.529 Y86.858 E26.77655
G1 X59.98 Y86.537 E26.80814
G1 X60.365 Y86.054 E26.84338
G1 X60.581 Y85.526 E26.87593
G1 X60.646 Y84.911 E26.91122
G1 X60.545 Y84.349 E26.9438
G1 X60.268 Y83.795 E26.97914
G1 X59.88 Y83.376 E27.01172
G1 X59.348 Y83.055 E27.04718
G1 X58.723 Y82.902 E27.08389
G0 F3600 X58.325 Y82.937
G0 X58.259 Y82.17
G0 X66.888 Y82.156
G0 X66.878 Y82.255
;TYPE:WALL-INNER
G1 F1800 X65.86 Y82.321 E27.1421
G1 X65.146 Y82.621 E27.18629
G1 X64.578 Y83.065 E27.22743
G1 X64.137 Y83.647 E27.26909
G1 X63.85 Y84.396 E27.31486
G1 X63.788 Y85.14 E27.35746
G1 X63.92 Y85.86 E27.39922
G1 X64.279 Y86.578 E27.44503
G1 X64.793 Y87.133 E27.48819
G1 X65.488 Y87.553 E27.53452
G1 X66.303 Y87.752 E27.58239
G1 X67.132 Y87.697 E27.6298
G1 X67.845 Y87.434 E27.67316
G1 X68.491 Y86.958 E27.71895
G1 X68.95 Y86.354 E27.76223
G1 X69.237 Y85.604 E27.80805
G1 X69.299 Y84.86 E27.85065
G1 X69.167 Y84.14 E27.89242
G1 X68.808 Y83.422 E27.93822
G1 X68.302 Y82.873 E27.98082
G1 X67.68 Y82.484 E28.02268
G1 X66.878 Y82.255 E28.07027
G0 F3600 X66.808 Y82.911
;TYPE:WALL-OUTER
G1 F1800 X66.011 Y82.963 E28.11584
G1 X65.478 Y83.187 E28.14883
G1 X65.045 Y83.525 E28.18018
G1 X64.711 Y83.966 E28.21174
G1 X64.49 Y84.542 E28.24694
G1 X64.443 Y85.108 E28.27935
G1 X64.543 Y85.652 E28.31091
G1 X64.819 Y86.205 E28.34617
G1 X65.207 Y86.624 E28.37876
G1 X65.739 Y86.945 E28.41421
G1 X66.36 Y87.097 E28.45069
G1 X66.995 Y87.055 E28.487
G1 X67.533 Y86.856 E28.51973
G1 X68.03 Y86.49 E28.55495
G1 X68.376 Y86.035 E28.58757
G1 X68.597 Y85.458 E28.62282
G1 X68.644 Y84.892 E28.65523
G1 X68.544 Y84.348 E28.68679
G1 X68.268 Y83.795 E28.72205
G1 X67.883 Y83.378 E28.75444
G1 X67.413 Y83.084 E28.78607
G1 X66.808 Y82.911 E28.82197
G0 F3600 X66.409 Y82.937
G0 X66.359 Y82.168
G0 X72.82 Y71.585
G0 X72.875 Y71.502
;TYPE:WALL-INNER
G1 F1800 X73.012 Y71.627 E28.83255
G1 X73.099 Y71.778 E28.8425
G1 X73.15 Y72.007 E28.85588
G1 X73.155 Y78.12 E29.20468
G1 X73.155 Y97.921 E30.3345
G1 X73.114 Y98.183 E30.34963
G1 X73.045 Y98.328 E30.3588
G1 X72.918 Y98.467 E30.36954
G1 X72.764 Y98.556 E30.37969
G1 X72.535 Y98.607 E30.39308
G1 X57.812 Y98.611 E31.23315
G1 X12.621 Y98.611 E33.81169
G1 X12.383 Y98.577 E33.82541
G1 X12.211 Y98.498 E33.83621
G1 X12.075 Y98.373 E33.84675
G1 X11.988 Y98.222 E33.85669
G1 X11.937 Y97.994 E33.87002
G1 X11.933 Y89.388 E34.36107
G1 X11.933 Y72.074 E35.34898
G1 X11.967 Y71.839 E35.36253
G1 X12.046 Y71.667 E35.37333
G1 X12.17 Y71.533 E35.38375
G1 X12.323 Y71.444 E35.39385
G1 X12.551 Y71.393 E35.40718
G1 X31.81 Y71.389 E36.50607
G1 X72.467 Y71.389 E38.82591
G1 X72.705 Y71.423 E38.83963
G1 X72.875 Y71.502 E38.85032
G0 F3600 X73.242 Y70.956
;TYPE:WALL-OUTER
G1 F1800 X73.523 Y71.213 E38.87205
G1 X73.713 Y71.541 E38.89368
G1 X73.8 Y71.934 E38.91664
G1 X73.805 Y78.119 E39.26955
G1 X73.805 Y97.97 E40.40222
G1 X73.741 Y98.379 E40.42585
G1 X73.59 Y98.696 E40.44588
G1 X73.332 Y98.978 E40.46769
G1 X73.001 Y99.17 E40.48952
G1 X72.609 Y99.257 E40.51243
G1 X57.812 Y99.261 E41.35673
G1 X12.572 Y99.261 E43.93807
G1 X12.197 Y99.208 E43.95968
G1 X11.845 Y99.044 E43.98183
G1 X11.564 Y98.787 E44.00356
G1 X11.374 Y98.459 E44.02519
G1 X11.287 Y98.066 E44.04816
G1 X11.283 Y89.388 E44.54331
G1 X11.283 Y72.028 E45.53385
G1 X11.336 Y71.653 E45.55546
G1 X11.5 Y71.301 E45.57762
G1 X11.755 Y71.022 E45.59919
G1 X12.086 Y70.83 E45.62102
G1 X12.478 Y70.743 E45.64393
G1 X31.81 Y70.739 E46.74699
G1 X72.516 Y70.739 E49.06962
G1 X72.891 Y70.792 E49.09123
G1 X73.242 Y70.956 E49.11334
G0 F3600 X73.523 Y71.213
G0 X73.533 Y71.23
G0 X72.866 Y71.615
G0 X72.459 Y72.084
;TYPE:SKIN
G1 F1800 X72.465 Y97.867 E50.58448
G1 X72.457 Y97.917 E50.58737
G1 X57.812 Y97.921 E51.42299
G1 X12.627 Y97.916 E54.00119
G1 X12.623 Y89.388 E54.48779
G1 X12.628 Y72.083 E55.47519
G1 X31.81 Y72.079 E56.56969
G1 X72.459 Y72.084 E58.88907
G0 F3600 X67.964 Y81.847
G1 F1800 X66.953 Y81.559 E58.94905
G1 X65.7 Y81.64 E59.02069
G1 X64.793 Y82.02 E59.0768
G1 X64.083 Y82.576 E59.12826
G1 X63.528 Y83.308 E59.18067
G1 X63.17 Y84.24 E59.23764
G1 X63.092 Y85.174 E59.29112
G1 X63.259 Y86.081 E59.34374
G1 X63.706 Y86.974 E59.40072
G1 X64.353 Y87.673 E59.45507
G1 X65.222 Y88.198 E59.513
G1 X66.242 Y88.448 E59.57292
G1 X67.278 Y88.379 E59.63216
G1 X68.176 Y88.047 E59.68679
G1 X68.98 Y87.455 E59.74376
G1 X69.559 Y86.693 E59.79837
G1 X69.917 Y85.759 E59.85544
G1 X69.995 Y84.826 E59.90886
G1 X69.828 Y83.919 E59.96149
G1 X69.382 Y83.026 E60.01844
G1 X68.746 Y82.337 E60.07194
G1 X67.964 Y81.847 E60.1246
G0 F3600 X60.734 Y82.327
G1 F1800 X59.865 Y81.802 E60.18253
G1 X58.826 Y81.547 E60.24357
G1 X57.681 Y81.648 E60.30916
G1 X56.793 Y82.02 E60.36409
G1 X56.083 Y82.576 E60.41555
G1 X55.528 Y83.308 E60.46796
G1 X55.17 Y84.24 E60.52493
G1 X55.092 Y85.174 E60.57841
G1 X55.259 Y86.081 E60.63103
G1 X55.706 Y86.974 E60.68801
G1 X56.353 Y87.673 E60.74236
G1 X57.222 Y88.198 E60.80029
G1 X58.242 Y88.448 E60.86021
G1 X59.278 Y88.379 E60.91945
G1 X60.16 Y88.053 E60.97311
G1 X60.91 Y87.52 E61.02561
G1 X61.532 Y86.739 E61.08258
G1 X61.894 Y85.856 E61.13703
G1 X61.998 Y84.861 E61.19411
G1 X61.83 Y83.923 E61.24848
G1 X61.381 Y83.024 E61.30582
G1 X60.734 Y82.327 E61.36008
G0 F3600 X58.776 Y82.206
G0 X53.382 Y83.026
G1 F1800 X52.746 Y82.337 E61.41359
G1 X51.964 Y81.847 E61.46624
G1 X50.953 Y81.559 E61.52622
G1 X49.7 Y81.64 E61.59787
G1 X48.793 Y82.02 E61.65398
G1 X48.083 Y82.576 E61.70543
G1 X47.528 Y83.308 E61.75785
G1 X47.17 Y84.24 E61.81481
G1 X47.092 Y85.174 E61.86829
G1 X47.259 Y86.081 E61.92091
G1 X47.706 Y86.974 E61.9779
G1 X48.353 Y87.673 E62.03224
G1 X49.222 Y88.198 E62.09017
G1 X50.242 Y88.448 E62.1501
G1 X51.278 Y88.379 E62.20934
G1 X52.176 Y88.047 E62.26397
G1 X52.98 Y87.455 E62.32094
G1 X53.559 Y86.693 E62.37554
G1 X53.917 Y85.759 E62.43262
G1 X53.995 Y84.826 E62.48604
G1 X53.828 Y83.919 E62.53866
G1 X53.382 Y83.026 E62.59562
G0 F3600 X50.882 Y82.216
G0 X45.828 Y83.919
G1 F1800 X45.382 Y83.026 E62.65257
G1 X44.746 Y82.337 E62.70607
G1 X43.964 Y81.847 E62.75873
G1 X42.953 Y81.559 E62.81871
G1 X41.7 Y81.64 E62.89035
G1 X40.793 Y82.02 E62.94646
G1 X40.083 Y82.576 E62.99792
G1 X39.528 Y83.308 E63.05033
G1 X39.17 Y84.24 E63.1073
G1 X39.092 Y85.174 E63.16078
G1 X39.259 Y86.081 E63.2134
G1 X39.706 Y86.974 E63.27038
G1 X40.353 Y87.673 E63.32473
G1 X41.222 Y88.198 E63.38266
G1 X42.242 Y88.448 E63.44258
G1 X43.278 Y88.379 E63.50183
G1 X44.176 Y88.047 E63.55645
