;FLAVOR:Marlin
;TIME:33242
;Filament used: 15.973m
;Layer height: 0.4
;MINX:53.94
;MINY:43.94
;MINZ:0.52
;MAXX:136.06
;MAXY:126.06
;MAXZ:114.52
;Generated with Cura_SteamEngine 4.1.0
M82 ;absolute extrusion mode
M98 P0:/sys/startprint.g

G92 E0
G92 E0
G10
;LAYER_COUNT:286
;LAYER:0
M107
G0 F3600 X55.351 Y64.823 Z0.52
;TYPE:SKIRT
G11
G1 F1800 X55.807 Y64.482 E0.03249
G1 X56.371 Y64.179 E0.06902
G1 X56.833 Y63.976 E0.09781
G1 X56.923 Y63.938 E0.10339
G1 X104.253 Y44.5 E3.02286
G1 X104.302 Y44.48 E3.02588
G1 X104.916 Y44.237 E3.06355
G1 X105.458 Y44.066 E3.09598
G1 X106.019 Y43.972 E3.12844
G1 X106.31 Y43.954 E3.14507
G1 X106.86 Y43.941 E3.17647
G1 X106.956 Y43.94 E3.18194
G1 X111.361 Y43.94 E3.43329
G1 X112.062 Y43.95 E3.47329
G1 X112.629 Y43.998 E3.50576
G1 X113.183 Y44.125 E3.53819
G1 X113.714 Y44.329 E3.57064
G1 X114.212 Y44.605 E3.60313
G1 X114.666 Y44.948 E3.6356
G1 X115.221 Y45.54 E3.6819
G1 X115.686 Y46.148 E3.72557
G1 X117.412 Y48.346 E3.88504
G1 X119.127 Y50.406 E4.03798
G1 X120.926 Y52.446 E4.19317
G1 X122.768 Y54.423 E4.34735
G1 X124.7 Y56.378 E4.50418
G1 X126.647 Y58.242 E4.65798
G1 X128.657 Y60.06 E4.81262
G1 X130.722 Y61.826 E4.96766
G1 X132.839 Y63.531 E5.12276
G1 X133.886 Y64.329 E5.19787
G1 X133.933 Y64.366 E5.20129
G1 X134.501 Y64.812 E5.24249
G1 X134.923 Y65.194 E5.27497
G1 X135.287 Y65.631 E5.30742
G1 X135.586 Y66.115 E5.33988
G1 X135.814 Y66.636 E5.37233
G1 X135.967 Y67.183 E5.40474
G1 X136.048 Y67.872 E5.44433
G1 X136.058 Y68.195 E5.46277
G1 X136.06 Y68.32 E5.4699
G1 X136.06 Y72.936 E5.73328
G1 X136.05 Y73.634 E5.77311
G1 X136.002 Y74.201 E5.80558
G1 X135.874 Y74.755 E5.83802
G1 X135.781 Y75.028 E5.85448
G1 X135.584 Y75.541 E5.88583
G1 X135.549 Y75.628 E5.89119
G1 X116.145 Y122.875 E8.80554
G1 X116.123 Y122.929 E8.80886
G1 X115.839 Y123.593 E8.85007
G1 X115.579 Y124.099 E8.88253
G1 X115.251 Y124.563 E8.91495
G1 X114.861 Y124.977 E8.94741
G1 X114.416 Y125.333 E8.97992
G1 X113.927 Y125.622 E9.01233
G1 X113.401 Y125.84 E9.04482
G1 X112.85 Y125.983 E9.0773
G1 X112.195 Y126.049 E9.11486
G1 X111.688 Y126.059 E9.1438
G1 X111.608 Y126.06 E9.14836
G1 X107.138 Y126.06 E9.40342
G1 X106.437 Y126.05 E9.44342
G1 X105.87 Y126.002 E9.47589
G1 X105.316 Y125.875 E9.50832
G1 X104.785 Y125.671 E9.54077
G1 X104.287 Y125.395 E9.57326
G1 X103.75 Y124.978 E9.61205
G1 X103.597 Y124.837 E9.62393
G1 X103.508 Y124.752 E9.63095
G1 X103.313 Y124.561 E9.64652
G1 X103.283 Y124.532 E9.6489
G1 X55.607 Y76.856 E13.49603
G1 X55.568 Y76.816 E13.49922
G1 X55.099 Y76.334 E13.53759
G1 X54.732 Y75.9 E13.57002
G1 X54.43 Y75.418 E13.60248
G1 X54.198 Y74.899 E13.63492
G1 X54.04 Y74.352 E13.6674
G1 X53.953 Y73.597 E13.71077
G1 X53.941 Y73.036 E13.74278
G1 X53.94 Y72.949 E13.74775
G1 X53.94 Y68.517 E14.00063
G1 X53.95 Y67.828 E14.03995
G1 X53.999 Y67.261 E14.07242
G1 X54.126 Y66.707 E14.10485
G1 X54.329 Y66.176 E14.13729
G1 X54.605 Y65.678 E14.16978
G1 X54.948 Y65.224 E14.20224
G1 X55.351 Y64.823 E14.23468
G0 F3600 X55.636 Y65.514
G1 F1800 X56.029 Y65.178 E14.26419
G1 X56.652 Y64.82 E14.30518
G1 X57.114 Y64.617 E14.33398
G1 X57.189 Y64.585 E14.33863
G1 X104.519 Y45.147 E17.2581
G1 X104.559 Y45.131 E17.26056
G1 X105.173 Y44.888 E17.29823
G1 X105.667 Y44.735 E17.32774
G1 X106.327 Y44.654 E17.36568
G1 X106.877 Y44.641 E17.39707
G1 X106.956 Y44.64 E17.40158
G1 X111.351 Y44.64 E17.65236
G1 X112.052 Y44.65 E17.69236
G1 X112.567 Y44.698 E17.72187
G1 X113.069 Y44.824 E17.7514
G1 X113.545 Y45.025 E17.78088
G1 X113.985 Y45.298 E17.81043
G1 X114.377 Y45.635 E17.83993
G1 X114.665 Y45.965 E17.86492
G1 X115.162 Y46.615 E17.91161
G1 X116.839 Y48.75 E18.06651
G1 X118.592 Y50.857 E18.2229
G1 X120.434 Y52.946 E18.38182
G1 X122.253 Y54.897 E18.53402
G1 X124.194 Y56.863 E18.69166
G1 X126.171 Y58.755 E18.84779
G1 X128.209 Y60.598 E19.00458
G1 X130.269 Y62.359 E19.15921
G1 X132.413 Y64.087 E19.31633
G1 X133.462 Y64.886 E19.39157
G1 X133.501 Y64.916 E19.39438
G1 X134.069 Y65.362 E19.43559
G1 X134.45 Y65.712 E19.46511
G1 X134.772 Y66.117 E19.49463
G1 X135.029 Y66.566 E19.52415
G1 X135.213 Y67.049 E19.55364
G1 X135.321 Y67.555 E19.58316
G1 X135.348 Y67.893 E19.60251
G1 X135.358 Y68.216 E19.62095
G1 X135.36 Y68.32 E19.62688
G1 X135.36 Y72.926 E19.8897
G1 X135.35 Y73.624 E19.92953
G1 X135.302 Y74.139 E19.95904
G1 X135.127 Y74.777 E19.99679
G1 X134.93 Y75.29 E20.02814
G1 X134.902 Y75.362 E20.03255
G1 X115.498 Y122.609 E22.9469
G1 X115.479 Y122.653 E22.94964
G1 X115.195 Y123.317 E22.99084
G1 X114.956 Y123.776 E23.02037
G1 X114.648 Y124.192 E23.0499
G1 X114.281 Y124.556 E23.0794
G1 X113.861 Y124.859 E23.10895
G1 X113.4 Y125.094 E23.13847
G1 X112.909 Y125.255 E23.16796
G1 X112.181 Y125.349 E23.20984
G1 X111.674 Y125.359 E23.23877
G1 X111.608 Y125.36 E23.24254
G1 X107.148 Y125.36 E23.49702
G1 X106.447 Y125.35 E23.53702
G1 X105.932 Y125.302 E23.56654
G1 X105.43 Y125.176 E23.59607
G1 X104.954 Y124.975 E23.62555
G1 X104.514 Y124.702 E23.6551
G1 X104.225 Y124.463 E23.67649
G1 X104.072 Y124.322 E23.68837
G1 X103.998 Y124.252 E23.69418
G1 X103.803 Y124.061 E23.70975
G1 X103.778 Y124.037 E23.71173
G1 X56.102 Y76.361 E27.55886
G1 X56.07 Y76.328 E27.56148
G1 X55.601 Y75.846 E27.59985
G1 X55.27 Y75.449 E27.62935
G1 X55.004 Y75.005 E27.65888
G1 X54.81 Y74.526 E27.68837
G1 X54.691 Y74.022 E27.71792
G1 X54.653 Y73.582 E27.74312
G1 X54.641 Y73.021 E27.77513
G1 X54.64 Y72.949 E27.77924
G1 X54.64 Y68.527 E28.03155
G1 X54.65 Y67.838 E28.07087
G1 X54.698 Y67.323 E28.10038
G1 X54.824 Y66.822 E28.12986
G1 X55.026 Y66.345 E28.15942
G1 X55.299 Y65.906 E28.18892
G1 X55.636 Y65.514 E28.21841
G10
;MESH:gantrybearingmnt_frontright.stl
G0 F3600 X58.315 Y66.789
G0 X59.056 Y68.592
G0 X110.89 Y69.11
G0 X110.96 Y69.04
;TYPE:WALL-INNER
G11
G1 F1800 X130.96 Y69.04 E29.35959
G1 X130.96 Y73.378 E29.60711
G1 X111.419 Y120.96 E32.54211
G1 X106.925 Y120.96 E32.79853
G1 X59.04 Y73.075 E36.66252
G1 X59.04 Y68.581 E36.91894
G1 X106.622 Y49.04 E39.85394
G1 X110.96 Y49.04 E40.10146
G1 X110.96 Y69.04 E41.24264
G0 F3600 X111.61 Y68.39
;TYPE:WALL-OUTER
G1 F1800 X131.61 Y68.39 E42.38381
G1 X131.61 Y73.506 E42.67572
G1 X111.854 Y121.61 E45.64294
G1 X106.655 Y121.61 E45.93959
G1 X58.39 Y73.345 E49.83424
G1 X58.39 Y68.146 E50.13089
G1 X106.494 Y48.39 E53.0981
G1 X111.61 Y48.39 E53.39002
G1 X111.61 Y68.39 E54.53119
G0 F3600 X112.01 Y68.39
G0 X112.01 Y69.16
G0 X110.27 Y69.73
;TYPE:SKIN
G1 F1800 X130.27 Y69.73 E55.67236
G1 X130.27 Y73.24 E55.87264
G1 X110.956 Y120.27 E58.77358
G1 X107.209 Y120.27 E58.98738
G1 X59.73 Y72.791 E62.81861
G1 X59.73 Y69.044 E63.03241
G1 X106.76 Y49.73 E65.93336
G1 X110.27 Y49.73 E66.13364
G1 X110.27 Y69.73 E67.27481
G0 F3600 X129.954 Y70.557
G1 F1800 X129.442 Y70.045 E67.31612
G0 F3600 X128.452 Y70.045
G1 F1800 X129.954 Y71.547 E67.43732
G0 F3600 X129.954 Y72.537
G1 F1800 X127.462 Y70.045 E67.63841
G0 F3600 X126.472 Y70.045
G1 F1800 X129.853 Y73.425 E67.9112
G0 F3600 X129.565 Y74.128
G1 F1800 X125.482 Y70.045 E68.24067
G0 F3600 X124.492 Y70.045
G1 F1800 X129.276 Y74.829 E68.6267
G0 F3600 X128.988 Y75.531
G1 F1800 X123.502 Y70.045 E69.06938
G0 F3600 X122.512 Y70.045
G1 F1800 X128.7 Y76.233 E69.56871
G0 F3600 X128.412 Y76.934
G1 F1800 X121.522 Y70.045 E70.12465
G0 F3600 X120.532 Y70.045
G1 F1800 X128.124 Y77.636 E70.73723
G0 F3600 X127.835 Y78.338
G1 F1800 X119.542 Y70.045 E71.40642
G0 F3600 X118.552 Y70.045
G1 F1800 X127.547 Y79.039 E72.13221
G0 F3600 X127.259 Y79.741
G1 F1800 X117.562 Y70.045 E72.91466
G0 F3600 X116.572 Y70.045
G1 F1800 X126.97 Y80.443 E73.7537
G0 F3600 X126.683 Y81.145
G1 F1800 X115.582 Y70.045 E74.64944
G0 F3600 X114.593 Y70.045
G1 F1800 X126.394 Y81.846 E75.6017
G0 F3600 X126.106 Y82.549
G1 F1800 X113.603 Y70.045 E76.61065
G0 F3600 X112.613 Y70.045
G1 F1800 X125.818 Y83.25 E77.6762
G0 F3600 X125.529 Y83.951
G1 F1800 X111.623 Y70.045 E78.79832
G0 F3600 X110.633 Y70.045
G1 F1800 X125.242 Y84.654 E79.97716
G0 F3600 X124.953 Y85.355
G1 F1800 X94.644 Y55.046 E82.42289
G0 F3600 X93.942 Y55.334
G1 F1800 X124.665 Y86.057 E84.90203
G0 F3600 X124.377 Y86.759
G1 F1800 X93.241 Y55.623 E87.41449
G0 F3600 X92.539 Y55.91
G1 F1800 X124.088 Y87.46 E89.96032
G0 F3600 X123.8 Y88.162
G1 F1800 X91.837 Y56.199 E92.53952
G0 F3600 X91.135 Y56.487
G1 F1800 X123.512 Y88.864 E95.15212
G0 F3600 X123.224 Y89.566
G1 F1800 X90.434 Y56.775 E97.79809
G0 F3600 X89.732 Y57.064
G1 F1800 X122.936 Y90.267 E100.47739
G0 F3600 X122.647 Y90.969
G1 F1800 X89.03 Y57.352 E103.19005
G0 F3600 X88.328 Y57.64
G1 F1800 X122.359 Y91.671 E105.93612
G0 F3600 X122.071 Y92.372
G1 F1800 X87.626 Y57.928 E108.71555
G0 F3600 X86.925 Y58.216
G1 F1800 X121.783 Y93.075 E111.5284
G0 F3600 X121.495 Y93.776
G1 F1800 X86.223 Y58.504 E114.37461
G0 F3600 X85.521 Y58.793
G1 F1800 X121.207 Y94.478 E117.25418
G0 F3600 X120.918 Y95.18
G1 F1800 X84.82 Y59.081 E120.16708
G0 F3600 X84.118 Y59.369
G1 F1800 X120.63 Y95.881 E123.11335
G0 F3600 X120.342 Y96.583
G1 F1800 X83.416 Y59.657 E126.09303
G0 F3600 X82.714 Y59.945
G1 F1800 X120.054 Y97.285 E129.10611
G0 F3600 X119.766 Y97.987
G1 F1800 X82.013 Y60.234 E132.15252
G0 F3600 X81.31 Y60.521
G1 F1800 X119.477 Y98.688 E135.23234
G0 F3600 X119.189 Y99.39
G1 F1800 X80.609 Y60.81 E138.34548
G0 F3600 X79.908 Y61.098
G1 F1800 X118.901 Y100.092 E141.49199
G0 F3600 X118.612 Y100.793
G1 F1800 X79.205 Y61.386 E144.67187
G0 F3600 X78.504 Y61.675
G1 F1800 X118.325 Y101.495 E147.88511
G0 F3600 X118.036 Y102.197
G1 F1800 X77.802 Y61.963 E151.13172
G0 F3600 X77.1 Y62.251
G1 F1800 X117.748 Y102.899 E154.41173
G0 F3600 X117.46 Y103.601
G1 F1800 X76.398 Y62.539 E157.72516
G0 F3600 X75.697 Y62.827
G1 F1800 X117.171 Y104.302 E161.07186
G0 F3600 X116.884 Y105.004
G1 F1800 X74.995 Y63.116 E164.45198
G0 F3600 X74.293 Y63.404
G1 F1800 X116.595 Y105.706 E167.86546
G0 F3600 X116.307 Y106.408
G1 F1800 X73.592 Y63.692 E171.31231
G0 F3600 X72.889 Y63.98
G1 F1800 X116.019 Y107.109 E174.79257
G0 F3600 X115.73 Y107.811
G1 F1800 X72.188 Y64.268 E178.30615
G0 F3600 X71.486 Y64.556
G1 F1800 X115.442 Y108.513 E181.85314
G0 F3600 X115.154 Y109.214
G1 F1800 X70.784 Y64.845 E185.43346
G0 F3600 X70.083 Y65.133
G1 F1800 X114.866 Y109.916 E189.04714
G0 F3600 X114.578 Y110.618
G1 F1800 X69.381 Y65.421 E192.69423
G0 F3600 X68.679 Y65.71
G1 F1800 X114.29 Y111.32 E196.37468
G0 F3600 X114.001 Y112.021
G1 F1800 X67.977 Y65.997 E200.08851
G0 F3600 X67.276 Y66.286
G1 F1800 X113.713 Y112.723 E203.83565
G0 F3600 X113.425 Y113.425
G1 F1800 X66.574 Y66.574 E207.61621
G0 F3600 X65.872 Y66.862
G1 F1800 X113.137 Y114.127 E211.43017
G0 F3600 X112.849 Y114.829
G1 F1800 X65.17 Y67.15 E215.27754
G0 F3600 X64.469 Y67.438
G1 F1800 X112.56 Y115.53 E219.1582
G0 F3600 X112.272 Y116.232
G1 F1800 X63.767 Y67.727 E223.07222
G0 F3600 X63.065 Y68.015
G1 F1800 X111.984 Y116.934 E227.01965
G0 F3600 X111.696 Y117.635
G1 F1800 X62.363 Y68.303 E231.00045
G0 F3600 X61.661 Y68.591
G1 F1800 X111.408 Y118.337 E235.01465
G0 F3600 X111.119 Y119.039
G1 F1800 X60.96 Y68.879 E239.06218
G0 F3600 X60.258 Y69.167
G1 F1800 X110.831 Y119.741 E243.14311
G0 F3600 X110.054 Y119.954
G1 F1800 X60.044 Y69.944 E247.17858
G0 F3600 X60.044 Y70.934
G1 F1800 X109.064 Y119.954 E251.13416
G0 F3600 X108.074 Y119.954
G1 F1800 X60.044 Y71.924 E255.00985
G1 X59.921 Y71.801
G0 F3600 X95.346 Y54.758
G1 F1800 X109.954 Y69.366 E256.18862
G0 F3600 X109.954 Y68.376
G1 F1800 X96.047 Y54.469 E257.31082
G0 F3600 X96.749 Y54.182
G1 F1800 X109.954 Y67.386 E258.37633
G0 F3600 X109.954 Y66.396
G1 F1800 X97.451 Y53.893 E259.38524
G0 F3600 X98.153 Y53.605
G1 F1800 X109.954 Y65.406 E260.3375
G0 F3600 X109.954 Y64.416
G1 F1800 X98.854 Y53.317 E261.23315
G0 F3600 X99.557 Y53.029
G1 F1800 X109.954 Y63.426 E262.07212
G0 F3600 X109.954 Y62.436
G1 F1800 X100.258 Y52.74 E262.85452
G0 F3600 X100.959 Y52.452
G1 F1800 X109.954 Y61.446 E263.58031
G0 F3600 X109.954 Y60.456
G1 F1800 X101.662 Y52.164 E264.24942
G0 F3600 X102.363 Y51.876
G1 F1800 X109.954 Y59.466 E264.86192
G0 F3600 X109.954 Y58.477
G1 F1800 X103.065 Y51.588 E265.41782
G0 F3600 X103.767 Y51.299
G1 F1800 X109.954 Y57.487 E265.91711
G0 F3600 X109.954 Y56.497
G1 F1800 X104.469 Y51.012 E266.35971
G0 F3600 X105.17 Y50.723
G1 F1800 X109.954 Y55.507 E266.74574
G0 F3600 X109.954 Y54.517
G1 F1800 X105.872 Y50.435 E267.07513
G0 F3600 X106.574 Y50.147
G1 F1800 X109.954 Y53.527 E267.34788
G0 F3600 X109.954 Y52.537
G1 F1800 X107.462 Y50.045 E267.54896
G0 F3600 X108.452 Y50.045
G1 F1800 X109.954 Y51.547 E267.67017
G0 F3600 X109.954 Y50.557
G1 F1800 X109.442 Y50.045 E267.71148
;MESH:NONMESH
G0 F3600 X110.599 Y67.722
;TIME_ELAPSED:253.801728
;LAYER:1
M106 S255
;MESH:gantrybearingmnt_frontright.stl
G0 F5400 X110.599 Y67.722 Z0.92
;TYPE:WALL-INNER
G1 F2700 X110.938 Y69.401 E267.78666
G1 X130.599 Y69.401 E268.64961
G1 X130.599 Y73.305 E268.82096
G1 X111.176 Y120.599 E271.06499
G1 X107.075 Y120.599 E271.24499
G1 X59.401 Y72.925 E274.20419
G1 X59.402 Y68.824 E274.38419
G1 X106.696 Y49.401 E276.62823
G1 X110.599 Y49.401 E276.79953
G1 X110.599 Y67.722 E277.60367
G0 F5400 X111.299 Y67.652
G1 F2700 X111.511 Y68.701 E277.65064
G1 X131.299 Y68.701 E278.51916
G1 X131.299 Y73.444 E278.72734
G1 X111.646 Y121.299 E280.99798
G1 X106.785 Y121.299 E281.21134
G1 X58.701 Y73.215 E284.19599
G1 X58.702 Y68.354 E284.40935
G1 X106.557 Y48.701 E286.67999
G1 X111.299 Y48.701 E286.88812
G1 X111.299 Y67.652 E287.71991
G0 F5400 X112.043 Y68.051
;TYPE:WALL-OUTER
G1 F1800 X131.949 Y68.051 E288.59361
G1 X131.949 Y73.572 E288.83593
G1 X112.081 Y121.949 E291.13135
G1 X106.515 Y121.949 E291.37565
G1 X58.051 Y73.485 E294.3839
G1 X58.052 Y67.918 E294.62824
G1 X106.429 Y48.051 E296.92364
G1 X111.949 Y48.051 E297.16592
G1 X111.949 Y67.587 E298.02339
G1 X112.043 Y68.051 E298.04416
G0 F5400 X112.443 Y68.051
G0 X112.443 Y68.821
G0 X110.374 Y70.091
;TYPE:SKIN
G1 F1800 X129.909 Y70.091 E298.90158
G1 X129.909 Y73.167 E299.03659
G1 X110.713 Y119.909 E301.25443
G1 X107.359 Y119.909 E301.40164
G1 X60.091 Y72.641 E304.33564
G1 X60.092 Y69.287 E304.48285
G1 X106.834 Y50.091 E306.70069
G1 X109.909 Y50.091 E306.83565
G1 X109.909 Y67.791 E307.61253
G1 X110.374 Y70.091 E307.71552
G0 F5400 X110.075 Y119.592
G1 F1800 X110.797 Y118.871 E307.76031
G0 F5400 X111.487 Y117.19
G1 F1800 X109.085 Y119.592 E307.9094
G0 F5400 X108.095 Y119.592
G1 F1800 X112.176 Y115.511 E308.16272
G1 X112.299 Y115.388
G0 F5400 X112.866 Y113.831
G1 F1800 X107.297 Y119.401 E308.50843
G0 F5400 X106.802 Y118.906
G1 F1800 X113.557 Y112.151 E308.92772
G1 X113.68 Y112.028
G0 F5400 X114.246 Y110.471
G1 F1800 X106.307 Y118.411 E309.42054
G0 F5400 X105.812 Y117.916
G1 F1800 X114.936 Y108.791 E309.98691
G1 X115.059 Y108.668
G0 F5400 X115.626 Y107.111
G1 F1800 X105.317 Y117.421 E310.62684
G0 F5400 X104.822 Y116.926
G1 F1800 X116.316 Y105.432 E311.34029
G1 X116.439 Y105.309
G0 F5400 X117.006 Y103.752
G1 F1800 X104.327 Y116.431 E312.1273
G0 F5400 X103.832 Y115.936
G1 F1800 X117.696 Y102.072 E312.98786
G1 X117.819 Y101.949
G0 F5400 X118.385 Y100.392
G1 F1800 X103.337 Y115.441 E313.92195
G0 F5400 X102.842 Y114.946
G1 F1800 X119.076 Y98.712 E314.92962
G1 X119.199 Y98.589
G0 F5400 X119.766 Y97.032
G1 F1800 X102.347 Y114.451 E316.01084
G0 F5400 X101.852 Y113.956
G1 F1800 X120.455 Y95.353 E317.16556
G1 X120.578 Y95.23
G0 F5400 X121.145 Y93.673
G1 F1800 X101.357 Y113.461 E318.39384
G0 F5400 X100.862 Y112.966
G1 F1800 X121.835 Y91.993 E319.69567
G1 X121.958 Y91.87
G0 F5400 X122.525 Y90.313
G1 F1800 X100.367 Y112.471 E321.07105
G0 F5400 X99.872 Y111.976
G1 F1800 X123.215 Y88.633 E322.51999
G1 X123.338 Y88.51
G0 F5400 X123.905 Y86.953
G1 F1800 X99.377 Y111.481 E324.04248
G0 F5400 X98.882 Y110.986
G1 F1800 X124.595 Y85.274 E325.6385
G1 X124.718 Y85.151
G0 F5400 X125.285 Y83.594
G1 F1800 X98.387 Y110.491 E327.30807
G0 F5400 X97.892 Y109.996
G1 F1800 X125.975 Y81.914 E329.0512
G1 X126.098 Y81.791
G0 F5400 X126.664 Y80.234
G1 F1800 X97.397 Y109.501 E330.86785
G0 F5400 X96.902 Y109.006
G1 F1800 X127.354 Y78.554 E332.75806
G1 X127.477 Y78.431
G0 F5400 X128.045 Y76.874
G1 F1800 X96.407 Y108.511 E334.72185
G0 F5400 X95.912 Y108.016
G1 F1800 X128.734 Y75.195 E336.75914
G1 X128.857 Y75.072
G0 F5400 X129.424 Y73.515
G1 F1800 X95.417 Y107.521 E338.86998
G0 F5400 X94.922 Y107.026
