;FLAVOR:Marlin
;TIME:34994
;Filament used: 16.4736m
;Layer height: 0.4
;MINX:48.589
;MINY:43.94
;MINZ:0.52
;MAXX:137.3
;MAXY:126.06
;MAXZ:114.52
;Generated with Cura_SteamEngine 4.1.0
M82 ;absolute extrusion mode
M98 P0:/sys/startprint.g

G92 E0
G92 E0
G10
;LAYER_COUNT:286
;LAYER:0
M107
G0 F3600 X69.071 Y45.901 Z0.52
;TYPE:SKIRT
G11
G1 F1800 X69.399 Y45.436 E0.03247
G1 X69.789 Y45.022 E0.06492
G1 X70.233 Y44.667 E0.09736
G1 X70.723 Y44.377 E0.12985
G1 X71.248 Y44.159 E0.16228
G1 X71.799 Y44.017 E0.19475
G1 X72.454 Y43.951 E0.23231
G1 X72.961 Y43.941 E0.26125
G1 X73.041 Y43.94 E0.26581
G1 X77.511 Y43.94 E0.52086
G1 X78.212 Y43.95 E0.56087
G1 X78.779 Y43.998 E0.59333
G1 X79.333 Y44.125 E0.62576
G1 X79.864 Y44.329 E0.65822
G1 X80.362 Y44.605 E0.69071
G1 X80.954 Y45.074 E0.7338
G1 X81.301 Y45.406 E0.76121
G1 X81.365 Y45.468 E0.76629
G1 X124.535 Y88.637 E4.24977
G1 X124.576 Y88.679 E4.25312
G1 X125.048 Y89.165 E4.29178
G1 X125.415 Y89.6 E4.32425
G1 X125.717 Y90.082 E4.35671
G1 X125.949 Y90.602 E4.3892
G1 X126.105 Y91.149 E4.42165
G1 X126.192 Y91.907 E4.46519
G1 X126.203 Y92.461 E4.4968
G1 X126.204 Y92.541 E4.50137
G1 X126.203 Y107.576 E5.35925
G1 X126.203 Y107.626 E5.3621
G1 X126.194 Y108.35 E5.40341
G1 X126.147 Y108.917 E5.43588
G1 X126.021 Y109.472 E5.46835
G1 X125.818 Y110.004 E5.50084
G1 X125.543 Y110.502 E5.5333
G1 X125.201 Y110.956 E5.56573
G1 X124.799 Y111.358 E5.59817
G1 X124.344 Y111.7 E5.63065
G1 X123.846 Y111.975 E5.66311
G1 X123.314 Y112.177 E5.69558
G1 X122.604 Y112.324 E5.73695
G1 X121.814 Y112.414 E5.78232
G1 X119.069 Y112.769 E5.94025
G1 X116.422 Y113.186 E6.09314
G1 X113.735 Y113.689 E6.24912
G1 X111.128 Y114.253 E6.40132
G1 X108.462 Y114.908 E6.55796
G1 X105.811 Y115.641 E6.7149
G1 X103.25 Y116.427 E6.86775
G1 X100.683 Y117.296 E7.02239
G1 X98.134 Y118.239 E7.17746
G1 X96.214 Y119.004 E7.29539
G1 X80.399 Y125.499 E8.27091
G1 X80.344 Y125.521 E8.27429
G1 X79.727 Y125.764 E8.31213
G1 X79.184 Y125.935 E8.34461
G1 X78.346 Y126.045 E8.39284
G1 X77.796 Y126.059 E8.42423
G1 X77.693 Y126.06 E8.43011
G1 X73.288 Y126.06 E8.68145
G1 X72.587 Y126.05 E8.72145
G1 X72.02 Y126.002 E8.75392
G1 X71.466 Y125.875 E8.78635
G1 X70.935 Y125.671 E8.81881
G1 X70.437 Y125.395 E8.85129
G1 X69.983 Y125.052 E8.88376
G1 X69.428 Y124.46 E8.93006
G1 X68.963 Y123.852 E8.97374
G1 X67.251 Y121.672 E9.1319
G1 X65.507 Y119.576 E9.28748
G1 X63.723 Y117.554 E9.44134
G1 X61.88 Y115.577 E9.59556
G1 X59.949 Y113.622 E9.75235
G1 X58.001 Y111.757 E9.90622
G1 X55.992 Y109.94 E10.06078
G1 X53.927 Y108.174 E10.21582
G1 X51.81 Y106.469 E10.37092
G1 X50.763 Y105.671 E10.44603
G1 X50.715 Y105.634 E10.44949
G1 X50.146 Y105.187 E10.49078
G1 X49.725 Y104.805 E10.52321
G1 X49.361 Y104.368 E10.55567
G1 X49.062 Y103.884 E10.58813
G1 X48.833 Y103.363 E10.6206
G1 X48.68 Y102.815 E10.65306
G1 X48.6 Y102.115 E10.69326
G1 X48.591 Y101.793 E10.71164
G1 X48.589 Y101.68 E10.71809
G1 X48.589 Y97.064 E10.98148
G1 X48.599 Y96.367 E11.02125
G1 X48.648 Y95.8 E11.05372
G1 X48.775 Y95.246 E11.08615
G1 X48.868 Y94.973 E11.10261
G1 X49.065 Y94.46 E11.13397
G1 X49.1 Y94.373 E11.13932
G1 X68.512 Y47.106 E14.05489
G1 X68.535 Y47.052 E14.05824
G1 X68.811 Y46.407 E14.09827
G1 X69.071 Y45.901 E14.13073
G0 F3600 X69.694 Y46.224
G1 F1800 X70.001 Y45.808 E14.16023
G1 X70.369 Y45.444 E14.18977
G1 X70.788 Y45.141 E14.21927
G1 X71.249 Y44.906 E14.2488
G1 X71.741 Y44.745 E14.27834
G1 X72.468 Y44.651 E14.32016
G1 X72.975 Y44.641 E14.3491
G1 X73.041 Y44.64 E14.35286
G1 X77.501 Y44.64 E14.60734
G1 X78.202 Y44.65 E14.64735
G1 X78.717 Y44.698 E14.67686
G1 X79.219 Y44.824 E14.70639
G1 X79.695 Y45.025 E14.73587
G1 X80.135 Y45.298 E14.76542
G1 X80.47 Y45.579 E14.79037
G1 X80.817 Y45.911 E14.81777
G1 X80.87 Y45.963 E14.82201
G1 X124.04 Y89.132 E18.30549
G1 X124.074 Y89.167 E18.30827
G1 X124.546 Y89.653 E18.34693
G1 X124.877 Y90.051 E18.37647
G1 X125.142 Y90.495 E18.40597
G1 X125.336 Y90.974 E18.43546
G1 X125.454 Y91.478 E18.46499
G1 X125.492 Y91.92 E18.49031
G1 X125.503 Y92.474 E18.52192
G1 X125.504 Y92.541 E18.52575
G1 X125.503 Y107.576 E19.38362
G1 X125.503 Y107.618 E19.38602
G1 X125.494 Y108.342 E19.42733
G1 X125.447 Y108.857 E19.45684
G1 X125.322 Y109.359 E19.48636
G1 X125.121 Y109.835 E19.51584
G1 X124.849 Y110.276 E19.54541
G1 X124.513 Y110.669 E19.57491
G1 X124.12 Y111.005 E19.60441
G1 X123.68 Y111.277 E19.63393
G1 X123.203 Y111.478 E19.66346
G1 X122.524 Y111.628 E19.70314
G1 X121.723 Y111.72 E19.74914
G1 X119.003 Y112.07 E19.90562
G1 X116.299 Y112.497 E20.06182
G1 X113.596 Y113.003 E20.21873
G1 X110.957 Y113.574 E20.37279
G1 X108.278 Y114.233 E20.53021
G1 X105.639 Y114.962 E20.68643
G1 X103.032 Y115.763 E20.84204
G1 X100.458 Y116.633 E20.99707
G1 X97.842 Y117.602 E21.15625
G1 X95.989 Y118.34 E21.27006
G1 X80.133 Y124.852 E22.24811
G1 X80.088 Y124.87 E22.25087
G1 X79.471 Y125.113 E22.28871
G1 X78.976 Y125.265 E22.31825
G1 X78.328 Y125.345 E22.35551
G1 X77.778 Y125.359 E22.3869
G1 X77.693 Y125.36 E22.39175
G1 X73.298 Y125.36 E22.64253
G1 X72.597 Y125.35 E22.68253
G1 X72.082 Y125.302 E22.71204
G1 X71.58 Y125.176 E22.74157
G1 X71.104 Y124.975 E22.77105
G1 X70.664 Y124.702 E22.8006
G1 X70.272 Y124.365 E22.8301
G1 X69.984 Y124.035 E22.85509
G1 X69.487 Y123.385 E22.90178
G1 X67.81 Y121.25 E23.05668
G1 X66.041 Y119.124 E23.21449
G1 X64.231 Y117.071 E23.37066
G1 X62.395 Y115.102 E23.52427
G1 X60.455 Y113.137 E23.68183
G1 X58.477 Y111.244 E23.83805
G1 X56.44 Y109.402 E23.99475
G1 X54.38 Y107.641 E24.14938
G1 X52.236 Y105.913 E24.30651
G1 X51.187 Y105.114 E24.38174
G1 X51.148 Y105.083 E24.38459
G1 X50.579 Y104.636 E24.42587
G1 X50.198 Y104.286 E24.45539
G1 X49.875 Y103.882 E24.48491
G1 X49.619 Y103.432 E24.51445
G1 X49.435 Y102.949 E24.54394
G1 X49.327 Y102.443 E24.57346
G1 X49.299 Y102.096 E24.59333
G1 X49.29 Y101.774 E24.61171
G1 X49.289 Y101.68 E24.61707
G1 X49.289 Y97.074 E24.87988
G1 X49.299 Y96.377 E24.91966
G1 X49.347 Y95.862 E24.94917
G1 X49.522 Y95.224 E24.98692
G1 X49.719 Y94.711 E25.01827
G1 X49.747 Y94.639 E25.02268
G1 X69.159 Y47.372 E27.93826
G1 X69.178 Y47.327 E27.94105
G1 X69.454 Y46.682 E27.98108
G1 X69.694 Y46.224 E28.01058
G10
;MESH:gantrybearingmnt_rearleft_xminlimit.stl
G0 F3600 X71.437 Y48.316
G0 X73.241 Y49.056
G0 X73.759 Y100.89
G0 X73.689 Y100.96
;TYPE:WALL-INNER
G11
G1 F1800 X53.689 Y100.96 E29.15175
G1 X53.689 Y96.622 E29.39927
G1 X73.23 Y49.04 E32.33427
G1 X77.724 Y49.04 E32.5907
G1 X96.566 Y67.884 E34.1112
G1 X121.104 Y92.42 E36.09117
G1 X121.103 Y107.259 E36.93786
G1 X111.385 Y107.26 E37.49236
G1 X78.027 Y120.96 E39.54999
G1 X73.689 Y120.96 E39.79751
G1 X73.689 Y100.96 E40.93868
G0 F3600 X73.039 Y101.61
;TYPE:WALL-OUTER
G1 F1800 X53.039 Y101.61 E42.07986
G1 X53.039 Y96.494 E42.37177
G1 X72.795 Y48.39 E45.33898
G1 X77.994 Y48.39 E45.63563
G1 X97.026 Y67.424 E47.17146
G1 X121.754 Y92.15 E49.16676
G1 X121.753 Y107.909 E50.06595
G1 X111.513 Y107.91 E50.65023
G1 X78.155 Y121.61 E52.70787
G1 X73.039 Y121.61 E52.99978
G1 X73.039 Y101.61 E54.14095
G0 F3600 X72.639 Y101.61
G0 X72.639 Y100.84
G0 X74.379 Y100.27
;TYPE:SKIN
G1 F1800 X54.379 Y100.27 E55.28213
G1 X54.379 Y96.76 E55.4824
G1 X73.693 Y49.73 E58.38335
G1 X77.439 Y49.73 E58.59709
G1 X96.078 Y68.371 E60.10121
G1 X120.414 Y92.705 E62.06488
G1 X120.413 Y106.569 E62.85594
G1 X111.249 Y106.57 E63.37883
G1 X77.889 Y120.27 E65.43657
G1 X74.379 Y120.27 E65.63684
G1 X74.379 Y100.27 E66.77802
G0 F3600 X55.406 Y99.954
G1 F1800 X54.694 Y99.241 E66.83551
G0 F3600 X54.694 Y98.251
G1 F1800 X56.396 Y99.954 E66.97289
G0 F3600 X57.386 Y99.954
G1 F1800 X54.694 Y97.261 E67.19016
G0 F3600 X54.853 Y96.431
G1 F1800 X58.376 Y99.954 E67.47444
G0 F3600 X59.366 Y99.954
G1 F1800 X55.142 Y95.73 E67.81529
G0 F3600 X55.43 Y95.028
G1 F1800 X60.356 Y99.954 E68.21278
G0 F3600 X61.346 Y99.954
G1 F1800 X55.718 Y94.326 E68.66692
G0 F3600 X56.006 Y93.624
G1 F1800 X62.336 Y99.954 E69.17771
G0 F3600 X63.326 Y99.954
G1 F1800 X56.294 Y92.923 E69.7451
G0 F3600 X56.582 Y92.22
G1 F1800 X64.316 Y99.954 E70.36918
G0 F3600 X65.306 Y99.954
G1 F1800 X56.871 Y91.519 E71.04983
G0 F3600 X57.158 Y90.817
G1 F1800 X66.296 Y99.954 E71.78716
G0 F3600 X67.286 Y99.954
G1 F1800 X57.447 Y90.115 E72.5811
G0 F3600 X57.735 Y89.414
G1 F1800 X68.276 Y99.954 E73.43165
G0 F3600 X69.266 Y99.954
G1 F1800 X58.023 Y88.712 E74.33884
G0 F3600 X58.312 Y88.01
G1 F1800 X70.256 Y99.954 E75.30264
G0 F3600 X71.245 Y99.954
G1 F1800 X58.6 Y87.308 E76.32305
G0 F3600 X58.888 Y86.607
G1 F1800 X72.235 Y99.954 E77.40006
G0 F3600 X73.225 Y99.954
G1 F1800 X59.176 Y85.904 E78.53376
G0 F3600 X59.464 Y85.203
G1 F1800 X74.215 Y99.954 E79.72406
G0 F3600 X74.693 Y100.432
G1 F1800 X89.444 Y115.182 E80.91433
G0 F3600 X90.146 Y114.894
G1 F1800 X59.753 Y84.502 E83.3668
G0 F3600 X60.041 Y83.799
G1 F1800 X90.847 Y114.606 E85.85267
G0 F3600 X91.549 Y114.318
G1 F1800 X60.329 Y83.098 E88.37191
G0 F3600 X60.617 Y82.396
G1 F1800 X92.251 Y114.03 E90.92456
G0 F3600 X92.953 Y113.742
G1 F1800 X60.905 Y81.694 E93.51061
G0 F3600 X61.193 Y80.992
G1 F1800 X93.654 Y113.453 E96.12999
G0 F3600 X94.356 Y113.165
G1 F1800 X61.482 Y80.291 E98.7827
G0 F3600 X61.77 Y79.589
G1 F1800 X95.058 Y112.877 E101.46882
G0 F3600 X95.759 Y112.589
G1 F1800 X62.058 Y78.887 E104.1883
G0 F3600 X62.347 Y78.186
G1 F1800 X96.462 Y112.301 E106.94114
G0 F3600 X97.163 Y112.012
G1 F1800 X62.634 Y77.484 E109.72736
G0 F3600 X62.923 Y76.782
G1 F1800 X97.865 Y111.724 E112.54694
G0 F3600 X98.567 Y111.436
G1 F1800 X63.211 Y76.08 E115.39993
G0 F3600 X63.499 Y75.378
G1 F1800 X99.269 Y111.148 E118.28632
G0 F3600 X99.97 Y110.86
G1 F1800 X63.787 Y74.676 E121.20608
G0 F3600 X64.075 Y73.975
G1 F1800 X100.672 Y110.572 E124.15921
G0 F3600 X101.374 Y110.283
G1 F1800 X64.364 Y73.273 E127.14567
G0 F3600 X64.652 Y72.571
G1 F1800 X102.075 Y109.995 E130.16549
G0 F3600 X102.777 Y109.707
G1 F1800 X64.94 Y71.87 E133.21867
G0 F3600 X65.228 Y71.168
G1 F1800 X103.479 Y109.419 E136.30527
G0 F3600 X104.181 Y109.131
G1 F1800 X65.516 Y70.466 E139.42527
G0 F3600 X65.804 Y69.764
G1 F1800 X104.883 Y108.842 E142.57864
G0 F3600 X105.585 Y108.555
G1 F1800 X66.093 Y69.063 E145.76537
G0 F3600 X66.381 Y68.361
G1 F1800 X106.286 Y108.266 E148.98543
G0 F3600 X106.988 Y107.978
G1 F1800 X66.669 Y67.659 E152.2389
G0 F3600 X66.958 Y66.958
G1 F1800 X107.69 Y107.69 E155.5257
G0 F3600 X108.392 Y107.402
G1 F1800 X67.245 Y66.255 E158.84598
G0 F3600 X67.534 Y65.554
G1 F1800 X109.093 Y107.113 E162.19951
G0 F3600 X109.795 Y106.825
G1 F1800 X67.822 Y64.852 E165.58644
G0 F3600 X68.11 Y64.15
G1 F1800 X110.497 Y106.537 E169.00678
G0 F3600 X111.204 Y106.254
G1 F1800 X68.398 Y63.448 E172.46093
G0 F3600 X68.686 Y62.747
G1 F1800 X112.194 Y106.254 E175.97169
G0 F3600 X113.184 Y106.254
G1 F1800 X68.975 Y62.045 E179.53906
G0 F3600 X69.263 Y61.343
G1 F1800 X114.174 Y106.254 E183.16307
G0 F3600 X115.164 Y106.254
G1 F1800 X69.551 Y60.642 E186.84368
G0 F3600 X69.839 Y59.94
G1 F1800 X116.153 Y106.254 E190.58091
G0 F3600 X117.143 Y106.254
G1 F1800 X70.128 Y59.238 E194.37474
G0 F3600 X70.415 Y58.536
G1 F1800 X118.133 Y106.254 E198.22525
G0 F3600 X119.123 Y106.254
G1 F1800 X70.704 Y57.834 E202.13238
G0 F3600 X70.992 Y57.133
G1 F1800 X120.097 Y106.238 E206.09481
G0 F3600 X120.097 Y105.248
G1 F1800 X71.28 Y56.431 E210.03401
G0 F3600 X71.569 Y55.729
G1 F1800 X120.097 Y104.258 E213.94993
G0 F3600 X120.097 Y103.268
G1 F1800 X71.856 Y55.027 E217.84265
G0 F3600 X72.145 Y54.326
G1 F1800 X120.097 Y102.278 E221.71205
G0 F3600 X120.097 Y101.288
G1 F1800 X72.433 Y53.624 E225.55821
G0 F3600 X72.721 Y52.922
G1 F1800 X120.097 Y100.298 E229.38113
G0 F3600 X120.097 Y99.308
G1 F1800 X73.009 Y52.22 E233.18081
G0 F3600 X73.297 Y51.519
G1 F1800 X120.097 Y98.318 E236.95721
G0 F3600 X120.097 Y97.329
G1 F1800 X73.586 Y50.817 E240.71037
G0 F3600 X73.874 Y50.115
G1 F1800 X120.097 Y96.339 E244.44029
G0 F3600 X120.097 Y95.349
G1 F1800 X74.794 Y50.045 E248.09597
G0 F3600 X75.784 Y50.045
G1 F1800 X120.097 Y94.359 E251.67177
G0 F3600 X120.097 Y93.369
G1 F1800 X76.774 Y50.045 E255.16768
G1 X76.651 Y49.922
G0 F3600 X74.693 Y101.422
G1 F1800 X88.742 Y115.471 E256.30134
G0 F3600 X88.04 Y115.759
G1 F1800 X74.693 Y102.412 E257.37835
G0 F3600 X74.693 Y103.402
G1 F1800 X87.339 Y116.047 E258.39876
G0 F3600 X86.636 Y116.335
G1 F1800 X74.693 Y104.392 E259.36247
G0 F3600 X74.693 Y105.382
G1 F1800 X85.935 Y116.623 E260.26959
G0 F3600 X85.233 Y116.912
G1 F1800 X74.693 Y106.372 E261.12009
G0 F3600 X74.693 Y107.362
G1 F1800 X84.531 Y117.2 E261.91395
G0 F3600 X83.83 Y117.488
G1 F1800 X74.693 Y108.352 E262.65121
G0 F3600 X74.693 Y109.342
G1 F1800 X83.128 Y117.776 E263.33181
G0 F3600 X82.426 Y118.064
G1 F1800 X74.693 Y110.331 E263.95581
G0 F3600 X74.693 Y111.321
G1 F1800 X81.724 Y118.352 E264.52317
G0 F3600 X81.023 Y118.641
G1 F1800 X74.693 Y112.311 E265.03395
G0 F3600 X74.693 Y113.301
G1 F1800 X80.32 Y118.928 E265.48801
G0 F3600 X79.619 Y119.217
G1 F1800 X74.693 Y114.291 E265.88551
G0 F3600 X74.693 Y115.281
G1 F1800 X78.917 Y119.505 E266.22636
G0 F3600 X78.215 Y119.793
G1 F1800 X74.693 Y116.271 E266.51056
G0 F3600 X74.693 Y117.261
G1 F1800 X77.386 Y119.954 E266.72786
G0 F3600 X76.396 Y119.954
G1 F1800 X74.693 Y118.251 E266.86529
G0 F3600 X74.693 Y119.241
G1 F1800 X75.406 Y119.954 E266.92282
;MESH:NONMESH
G0 F3600 X74.05 Y100.599
;TIME_ELAPSED:254.789221
;LAYER:1
M106 S255
;MESH:gantrybearingmnt_rearleft_xminlimit.stl
G0 F5400 X74.05 Y100.599 Z0.92
;TYPE:WALL-INNER
G1 F2700 X54.05 Y100.599 E267.80065
G1 X54.05 Y96.695 E267.972
G1 X73.473 Y49.401 E270.21603
G1 X77.575 Y49.401 E270.39607
G1 X80.08 Y51.907 E270.55159
G1 X120.863 Y92.69 E273.08306
G1 X120.864 Y106.55 E273.69139
G1 X120.864 Y106.899 E273.70671
G1 X120.515 Y106.899 E273.71662
G1 X111.351 Y106.899 E274.11884
G1 X108.989 Y107.854 E274.23067
G1 X77.953 Y120.599 E275.70326
G1 X74.05 Y120.599 E275.87457
G1 X74.05 Y100.599 E276.7524
G0 F5400 X73.35 Y101.299
G1 F2700 X53.35 Y101.299 E277.63022
G1 X53.35 Y96.556 E277.8384
G1 X73.003 Y48.701 E280.10904
G1 X77.865 Y48.701 E280.32244
G1 X80.575 Y51.412 E280.49069
G1 X121.563 Y92.4 E283.03488
G1 X121.564 Y107.25 E283.68667
G1 X121.564 Y107.599 E283.70198
G1 X121.215 Y107.599 E283.71189
G1 X111.487 Y107.599 E284.13887
G1 X109.253 Y108.502 E284.24463
G1 X78.092 Y121.299 E285.72317
G1 X73.35 Y121.299 E285.9313
G1 X73.35 Y101.299 E286.80912
G0 F5400 X72.7 Y101.949
;TYPE:WALL-OUTER
G1 F1800 X52.7 Y101.949 E287.68695
G1 X52.7 Y96.428 E287.92927
G1 X72.568 Y48.051 E290.2247
G1 X78.135 Y48.051 E290.46904
G1 X81.035 Y50.952 E290.64908
G1 X122.213 Y92.13 E293.20507
G1 X122.214 Y107.899 E293.89719
G1 X122.214 Y108.249 E293.91255
G1 X121.864 Y108.249 E293.92249
G1 X111.613 Y108.249 E294.37242
G1 X109.498 Y109.104 E294.47255
G1 X78.22 Y121.949 E295.95664
G1 X72.7 Y121.949 E296.19892
G1 X72.7 Y101.949 E297.07675
G0 F5400 X72.3 Y101.949
G0 X72.3 Y101.179
G0 X74.74 Y99.909
;TYPE:SKIN
G1 F1800 X54.74 Y99.909 E297.95457
G1 X54.74 Y96.833 E298.08958
G1 X73.936 Y50.091 E300.30742
G1 X77.29 Y50.091 E300.45463
G1 X79.592 Y52.394 E300.59755
G1 X120.173 Y92.975 E303.11648
G1 X120.174 Y106.209 E303.69734
G1 X111.217 Y106.209 E304.09047
G1 X108.729 Y107.215 E304.20826
G1 X77.815 Y119.909 E305.67505
G1 X74.74 Y119.909 E305.81002
G1 X74.74 Y99.909 E306.68785
G0 F5400 X119.857 Y104.861
G1 F1800 X118.824 Y105.894 E306.75197
G0 F5400 X117.834 Y105.894
G1 F1800 X119.857 Y103.871 E306.87754
G0 F5400 X119.857 Y102.881
G1 F1800 X116.844 Y105.894 E307.06456
G0 F5400 X115.854 Y105.894
G1 F1800 X119.857 Y101.891 E307.31303
G0 F5400 X119.857 Y100.901
G1 F1800 X114.864 Y105.894 E307.62295
G0 F5400 X113.874 Y105.894
G1 F1800 X119.857 Y99.911 E307.99433
G0 F5400 X119.857 Y98.921
G1 F1800 X112.884 Y105.894 E308.42716
G0 F5400 X111.894 Y105.894
G1 F1800 X119.857 Y97.931 E308.92143
G0 F5400 X119.857 Y96.941
G1 F1800 X110.735 Y106.063 E309.48765
G1 X110.612 Y106.186
G0 F5400 X109.074 Y106.734
G1 F1800 X119.857 Y95.951 E310.15697
G0 F5400 X119.857 Y94.961
G1 F1800 X107.398 Y107.42 E310.93032
G1 X107.275 Y107.543
G0 F5400 X105.719 Y108.109
G1 F1800 X119.857 Y93.971 E311.80789
G0 F5400 X119.795 Y93.043
G1 F1800 X104.04 Y108.798 E312.78583
G1 X103.917 Y108.921
G0 F5400 X102.36 Y109.489
