;FLAVOR:Marlin
;TIME:34947
;Filament used: 16.3617m
;Layer height: 0.4
;MINX:49.189
;MINY:43.94
;MINZ:0.52
;MAXX:136.7
;MAXY:126.06
;MAXZ:114.52
;Generated with Cura_SteamEngine 4.1.0
M82 ;absolute extrusion mode
M98 P0:/sys/startprint.g

G92 E0
G92 E0
G10
;LAYER_COUNT:286
;LAYER:0
M107
G0 F3600 X69.671 Y45.901 Z0.52
;TYPE:SKIRT
G11
G1 F1800 X69.999 Y45.436 E0.03247
G1 X70.389 Y45.022 E0.06492
G1 X70.833 Y44.667 E0.09736
G1 X71.323 Y44.377 E0.12985
G1 X71.848 Y44.159 E0.16228
G1 X72.399 Y44.017 E0.19475
G1 X73.054 Y43.951 E0.23231
G1 X73.561 Y43.941 E0.26125
G1 X73.641 Y43.94 E0.26581
G1 X78.111 Y43.94 E0.52086
G1 X78.809 Y43.95 E0.56069
G1 X79.376 Y43.998 E0.59316
G1 X79.93 Y44.126 E0.62561
G1 X80.462 Y44.329 E0.6581
G1 X80.959 Y44.605 E0.69053
G1 X81.54 Y45.063 E0.73275
G1 X81.918 Y45.422 E0.76249
G1 X81.993 Y45.495 E0.76846
G1 X123.832 Y87.335 E4.14463
G1 X123.865 Y87.369 E4.14733
G1 X124.415 Y87.932 E4.19224
G1 X124.783 Y88.366 E4.2247
G1 X125.087 Y88.847 E4.25717
G1 X125.384 Y89.556 E4.30103
G1 X125.413 Y89.649 E4.30659
G1 X125.544 Y90.203 E4.33907
G1 X125.597 Y90.804 E4.3735
G1 X125.604 Y91.365 E4.40551
G1 X125.604 Y91.416 E4.40842
G1 X125.603 Y107.576 E5.33049
G1 X125.603 Y107.632 E5.33368
G1 X125.593 Y108.356 E5.375
G1 X125.545 Y108.923 E5.40747
G1 X125.418 Y109.477 E5.4399
G1 X125.215 Y110.009 E5.47239
G1 X124.939 Y110.506 E5.50483
G1 X124.597 Y110.96 E5.53726
G1 X124.194 Y111.362 E5.56974
G1 X123.739 Y111.703 E5.60218
G1 X123.24 Y111.977 E5.63466
G1 X122.708 Y112.179 E5.66713
G1 X122.119 Y112.309 E5.70155
G1 X121.346 Y112.42 E5.74611
G1 X121.285 Y112.428 E5.74962
G1 X120.235 Y112.563 E5.81002
G1 X117.525 Y112.988 E5.96654
G1 X114.888 Y113.48 E6.1196
G1 X112.226 Y114.053 E6.27497
G1 X109.606 Y114.697 E6.42891
G1 X106.975 Y115.42 E6.5846
G1 X104.392 Y116.212 E6.73876
G1 X101.79 Y117.09 E6.89545
G1 X99.256 Y118.026 E7.04958
G1 X97.294 Y118.806 E7.17005
G1 X81.007 Y125.496 E8.17471
G1 X80.953 Y125.518 E8.17804
G1 X80.329 Y125.764 E8.21631
G1 X79.787 Y125.935 E8.24874
G1 X78.947 Y126.045 E8.29708
G1 X78.396 Y126.059 E8.32853
G1 X78.293 Y126.06 E8.3344
G1 X73.888 Y126.06 E8.58575
G1 X73.187 Y126.05 E8.62575
G1 X72.62 Y126.002 E8.65822
G1 X72.066 Y125.875 E8.69065
G1 X71.535 Y125.671 E8.72311
G1 X71.037 Y125.395 E8.75559
G1 X70.583 Y125.052 E8.78806
G1 X70.028 Y124.46 E8.83436
G1 X69.563 Y123.852 E8.87804
G1 X67.851 Y121.672 E9.0362
G1 X66.107 Y119.576 E9.19178
G1 X64.323 Y117.554 E9.34564
G1 X62.48 Y115.577 E9.49985
G1 X60.549 Y113.622 E9.65664
G1 X58.601 Y111.757 E9.81052
G1 X56.592 Y109.94 E9.96508
G1 X54.527 Y108.174 E10.12012
G1 X52.41 Y106.469 E10.27522
G1 X51.363 Y105.671 E10.35033
G1 X51.315 Y105.634 E10.35379
G1 X50.746 Y105.187 E10.39508
G1 X50.325 Y104.805 E10.42751
G1 X49.961 Y104.368 E10.45997
G1 X49.662 Y103.884 E10.49243
G1 X49.433 Y103.363 E10.5249
G1 X49.28 Y102.815 E10.55736
G1 X49.2 Y102.115 E10.59756
G1 X49.191 Y101.793 E10.61594
G1 X49.189 Y101.68 E10.62239
G1 X49.189 Y97.064 E10.88578
G1 X49.199 Y96.367 E10.92555
G1 X49.248 Y95.8 E10.95802
G1 X49.375 Y95.246 E10.99045
G1 X49.468 Y94.973 E11.00691
G1 X49.665 Y94.46 E11.03826
G1 X49.7 Y94.373 E11.04362
G1 X69.112 Y47.106 E13.95919
G1 X69.135 Y47.052 E13.96254
G1 X69.411 Y46.407 E14.00257
G1 X69.671 Y45.901 E14.03503
G0 F3600 X70.294 Y46.224
G1 F1800 X70.601 Y45.808 E14.06453
G1 X70.969 Y45.444 E14.09407
G1 X71.388 Y45.141 E14.12357
G1 X71.849 Y44.906 E14.1531
G1 X72.341 Y44.745 E14.18263
G1 X73.068 Y44.651 E14.22446
G1 X73.575 Y44.641 E14.2534
G1 X73.641 Y44.64 E14.25716
G1 X78.101 Y44.64 E14.51164
G1 X78.799 Y44.65 E14.55147
G1 X79.314 Y44.698 E14.58099
G1 X79.816 Y44.824 E14.61052
G1 X80.292 Y45.026 E14.64002
G1 X80.732 Y45.298 E14.66954
G1 X81.058 Y45.571 E14.6938
G1 X81.436 Y45.93 E14.72355
G1 X81.498 Y45.99 E14.72847
G1 X123.337 Y87.83 E18.10463
G1 X123.364 Y87.858 E18.10685
G1 X123.914 Y88.421 E18.15176
G1 X124.246 Y88.818 E18.18129
G1 X124.513 Y89.261 E18.2108
G1 X124.716 Y89.765 E18.2418
G1 X124.745 Y89.858 E18.24736
G1 X124.861 Y90.362 E18.27687
G1 X124.897 Y90.813 E18.30269
G1 X124.904 Y91.374 E18.3347
G1 X124.904 Y91.416 E18.3371
G1 X124.903 Y107.576 E19.25917
G1 X124.903 Y107.622 E19.26179
G1 X124.893 Y108.346 E19.3031
G1 X124.846 Y108.861 E19.33261
G1 X124.72 Y109.363 E19.36214
G1 X124.518 Y109.84 E19.3917
G1 X124.246 Y110.279 E19.42117
G1 X123.909 Y110.672 E19.45071
G1 X123.515 Y111.008 E19.48025
G1 X123.075 Y111.279 E19.50974
G1 X122.598 Y111.48 E19.53927
G1 X122.019 Y111.616 E19.57321
G1 X121.246 Y111.727 E19.61777
G1 X121.196 Y111.734 E19.62065
G1 X120.107 Y111.874 E19.6833
G1 X117.432 Y112.294 E19.8378
G1 X114.757 Y112.792 E19.99305
G1 X112.049 Y113.376 E20.15112
G1 X109.441 Y114.017 E20.30436
G1 X106.786 Y114.746 E20.46146
G1 X104.152 Y115.554 E20.61866
G1 X101.567 Y116.426 E20.77432
G1 X99.022 Y117.366 E20.92913
G1 X97.051 Y118.15 E21.05016
G1 X80.741 Y124.849 E22.05623
G1 X80.697 Y124.867 E22.05894
G1 X80.073 Y125.113 E22.09721
G1 X79.578 Y125.265 E22.12676
G1 X78.929 Y125.345 E22.16407
G1 X78.378 Y125.359 E22.19552
G1 X78.293 Y125.36 E22.20037
G1 X73.898 Y125.36 E22.45114
G1 X73.197 Y125.35 E22.49114
G1 X72.682 Y125.302 E22.52066
G1 X72.18 Y125.176 E22.55019
G1 X71.704 Y124.975 E22.57967
G1 X71.264 Y124.702 E22.60922
G1 X70.872 Y124.365 E22.63871
G1 X70.584 Y124.035 E22.6637
G1 X70.087 Y123.385 E22.71039
G1 X68.41 Y121.25 E22.8653
G1 X66.641 Y119.124 E23.02311
G1 X64.831 Y117.071 E23.17927
G1 X62.995 Y115.102 E23.33289
G1 X61.055 Y113.137 E23.49044
G1 X59.077 Y111.244 E23.64666
G1 X57.04 Y109.402 E23.80336
G1 X54.98 Y107.641 E23.958
G1 X52.836 Y105.913 E24.11512
G1 X51.787 Y105.114 E24.19036
G1 X51.748 Y105.083 E24.1932
G1 X51.179 Y104.636 E24.23449
G1 X50.798 Y104.286 E24.26401
G1 X50.475 Y103.882 E24.29352
G1 X50.219 Y103.432 E24.32306
G1 X50.035 Y102.949 E24.35255
G1 X49.927 Y102.443 E24.38208
G1 X49.899 Y102.096 E24.40194
G1 X49.89 Y101.774 E24.42032
G1 X49.889 Y101.68 E24.42568
G1 X49.889 Y97.074 E24.6885
G1 X49.899 Y96.377 E24.72827
G1 X49.947 Y95.862 E24.75778
G1 X50.122 Y95.224 E24.79553
G1 X50.319 Y94.711 E24.82689
G1 X50.347 Y94.639 E24.83129
G1 X69.759 Y47.372 E27.74687
G1 X69.778 Y47.327 E27.74966
G1 X70.054 Y46.682 E27.78969
G1 X70.294 Y46.224 E27.81919
G10
;MESH:gantrybearingmnt_rearleft_xminlimit.stl
G0 F3600 X72.037 Y48.316
G0 X73.841 Y49.056
G0 X74.359 Y100.89
G0 X74.289 Y100.96
;TYPE:WALL-INNER
G11
G1 F1800 X54.289 Y100.96 E28.96037
G1 X54.289 Y96.622 E29.20789
G1 X73.83 Y49.04 E32.14289
G1 X78.324 Y49.04 E32.39931
G1 X120.504 Y91.22 E35.80295
G1 X120.503 Y107.259 E36.71811
G1 X111.985 Y107.26 E37.20414
G1 X78.627 Y120.96 E39.26177
G1 X74.289 Y120.96 E39.50929
G1 X74.289 Y100.96 E40.65047
G0 F3600 X73.639 Y101.61
;TYPE:WALL-OUTER
G1 F1800 X53.639 Y101.61 E41.79164
G1 X53.639 Y96.494 E42.08355
G1 X73.395 Y48.39 E45.05077
G1 X78.594 Y48.39 E45.34742
G1 X121.154 Y90.95 E48.78172
G1 X121.153 Y107.909 E49.74937
G1 X112.113 Y107.91 E50.26519
G1 X78.755 Y121.61 E52.32282
G1 X73.639 Y121.61 E52.61473
G1 X73.639 Y101.61 E53.7559
G0 F3600 X73.239 Y101.61
G0 X73.239 Y100.84
G0 X74.979 Y100.27
;TYPE:SKIN
G1 F1800 X54.979 Y100.27 E54.89708
G1 X54.979 Y96.76 E55.09735
G1 X74.293 Y49.73 E57.9983
G1 X78.04 Y49.73 E58.2121
G1 X119.814 Y91.504 E61.58298
G1 X119.813 Y106.569 E62.44256
G1 X111.849 Y106.57 E62.89698
G1 X78.489 Y120.27 E64.95472
G1 X74.979 Y120.27 E65.15499
G1 X74.979 Y100.27 E66.29617
G0 F3600 X55.406 Y99.953
G1 F1800 X55.293 Y99.841 E66.30525
G0 F3600 X55.293 Y98.851
G1 F1800 X56.396 Y99.953 E66.39421
G0 F3600 X57.385 Y99.953
G1 F1800 X55.293 Y97.861 E66.56302
G0 F3600 X55.293 Y96.871
G1 F1800 X58.375 Y99.953 E66.81172
G0 F3600 X59.365 Y99.953
G1 F1800 X55.567 Y96.155 E67.11819
G0 F3600 X55.855 Y95.453
G1 F1800 X60.355 Y99.953 E67.48131
G0 F3600 X61.345 Y99.953
G1 F1800 X56.143 Y94.751 E67.90108
G0 F3600 X56.431 Y94.049
G1 F1800 X62.335 Y99.953 E68.37749
G0 F3600 X63.325 Y99.953
G1 F1800 X56.719 Y93.347 E68.91055
G0 F3600 X57.008 Y92.646
G1 F1800 X64.315 Y99.953 E69.50017
G0 F3600 X65.305 Y99.953
G1 F1800 X57.296 Y91.944 E70.14644
G0 F3600 X57.584 Y91.242
G1 F1800 X66.295 Y99.953 E70.84936
G0 F3600 X67.285 Y99.953
G1 F1800 X57.872 Y90.54 E71.60893
G0 F3600 X58.16 Y89.839
G1 F1800 X68.275 Y99.953 E72.4251
G0 F3600 X69.265 Y99.953
G1 F1800 X58.448 Y89.137 E73.29792
G0 F3600 X58.737 Y88.435
G1 F1800 X70.255 Y99.953 E74.22734
G0 F3600 X71.245 Y99.953
G1 F1800 X59.025 Y87.734 E75.21337
G0 F3600 X59.313 Y87.032
G1 F1800 X72.235 Y99.953 E76.25605
G0 F3600 X73.225 Y99.953
G1 F1800 X59.602 Y86.33 E77.35533
G0 F3600 X59.889 Y85.628
G1 F1800 X74.215 Y99.953 E78.5113
G0 F3600 X75.205 Y99.953
G1 F1800 X60.178 Y84.927 E79.72384
G0 F3600 X60.466 Y84.225
G1 F1800 X91.022 Y114.781 E82.1895
G0 F3600 X91.723 Y114.492
G1 F1800 X60.754 Y83.523 E84.68848
G0 F3600 X61.043 Y82.822
G1 F1800 X92.425 Y114.204 E87.2208
G0 F3600 X93.127 Y113.916
G1 F1800 X61.33 Y82.119 E89.7866
G0 F3600 X61.619 Y81.418
G1 F1800 X93.829 Y113.628 E92.38572
G0 F3600 X94.53 Y113.34
G1 F1800 X61.907 Y80.716 E95.01822
G0 F3600 X62.195 Y80.014
G1 F1800 X95.233 Y113.052 E97.68416
G0 F3600 X95.934 Y112.763
G1 F1800 X62.484 Y79.313 E100.38334
G0 F3600 X62.771 Y78.611
G1 F1800 X96.636 Y112.475 E103.11598
G0 F3600 X97.338 Y112.187
G1 F1800 X63.06 Y77.909 E105.88198
G0 F3600 X63.348 Y77.207
G1 F1800 X98.039 Y111.898 E108.68131
G0 F3600 X98.741 Y111.611
G1 F1800 X63.636 Y76.506 E111.51404
G0 F3600 X63.924 Y75.803
G1 F1800 X99.443 Y111.322 E114.38018
G0 F3600 X100.145 Y111.034
G1 F1800 X64.213 Y75.102 E117.27965
G0 F3600 X64.501 Y74.401
G1 F1800 X100.846 Y110.746 E120.21244
G0 F3600 X101.549 Y110.458
G1 F1800 X64.789 Y73.698 E123.17872
G0 F3600 X65.077 Y72.997
G1 F1800 X102.25 Y110.17 E126.17833
G0 F3600 X102.951 Y109.881
G1 F1800 X65.365 Y72.295 E129.21126
G0 F3600 X65.654 Y71.593
G1 F1800 X103.654 Y109.593 E132.2776
G0 F3600 X104.355 Y109.305
G1 F1800 X65.942 Y70.892 E135.37727
G0 F3600 X66.23 Y70.19
G1 F1800 X105.057 Y109.017 E138.51034
G0 F3600 X105.759 Y108.728
G1 F1800 X66.518 Y69.488 E141.67678
G0 F3600 X66.806 Y68.786
G1 F1800 X106.461 Y108.441 E144.87667
G0 F3600 X107.162 Y108.152
G1 F1800 X67.095 Y68.085 E148.1098
G0 F3600 X67.383 Y67.383
G1 F1800 X107.864 Y107.864 E151.37634
G0 F3600 X108.566 Y107.576
G1 F1800 X67.671 Y66.681 E154.67629
G0 F3600 X67.96 Y65.98
G1 F1800 X109.267 Y107.287 E158.00948
G0 F3600 X109.969 Y107
G1 F1800 X68.247 Y65.277 E161.37621
G0 F3600 X68.536 Y64.576
G1 F1800 X110.671 Y106.711 E164.77621
G0 F3600 X111.373 Y106.423
G1 F1800 X68.824 Y63.874 E168.20963
G0 F3600 X69.112 Y63.172
G1 F1800 X112.193 Y106.254 E171.68601
G0 F3600 X113.183 Y106.254
G1 F1800 X69.4 Y62.47 E175.21904
G0 F3600 X69.688 Y61.769
G1 F1800 X114.173 Y106.254 E178.80867
G0 F3600 X115.163 Y106.254
G1 F1800 X69.977 Y61.067 E182.45492
G0 F3600 X70.265 Y60.365
G1 F1800 X116.153 Y106.254 E186.1578
G0 F3600 X117.143 Y106.254
G1 F1800 X70.553 Y59.664 E189.9173
G0 F3600 X70.841 Y58.962
G1 F1800 X118.133 Y106.254 E193.73344
G0 F3600 X119.123 Y106.254
G1 F1800 X71.129 Y58.26 E197.60623
G0 F3600 X71.418 Y57.559
G1 F1800 X119.497 Y105.638 E201.48588
G0 F3600 X119.497 Y104.648
G1 F1800 X71.706 Y56.857 E205.34228
G0 F3600 X71.994 Y56.155
G1 F1800 X119.497 Y103.658 E209.17545
G0 F3600 X119.497 Y102.668
G1 F1800 X72.282 Y55.453 E212.98538
G0 F3600 X72.571 Y54.751
G1 F1800 X119.497 Y101.678 E216.77203
G0 F3600 X119.497 Y100.688
G1 F1800 X72.858 Y54.049 E220.53548
G0 F3600 X73.147 Y53.348
G1 F1800 X119.497 Y99.698 E224.2756
G0 F3600 X119.498 Y98.709
G1 F1800 X73.435 Y52.646 E227.99257
G0 F3600 X73.723 Y51.944
G1 F1800 X119.498 Y97.719 E231.6863
G0 F3600 X119.498 Y96.729
G1 F1800 X74.012 Y51.243 E235.35671
G0 F3600 X74.299 Y50.541
G1 F1800 X119.498 Y95.739 E239.00392
G0 F3600 X119.498 Y94.749
G1 F1800 X74.794 Y50.045 E242.61123
G0 F3600 X75.784 Y50.045
G1 F1800 X119.498 Y93.759 E246.13865
G0 F3600 X119.498 Y92.769
G1 F1800 X76.774 Y50.045 E249.58619
G0 F3600 X77.764 Y50.045
G1 F1800 X119.498 Y91.779 E252.95384
G1 X119.621 Y91.902
G0 F3600 X90.32 Y115.068
G1 F1800 X75.293 Y100.042 E254.16637
G0 F3600 X75.293 Y101.032
G1 F1800 X89.618 Y115.357 E255.3223
G0 F3600 X88.917 Y115.645
G1 F1800 X75.293 Y102.022 E256.42162
G0 F3600 X75.293 Y103.012
G1 F1800 X88.215 Y115.933 E257.4643
G0 F3600 X87.513 Y116.222
G1 F1800 X75.293 Y104.001 E258.45041
G0 F3600 X75.293 Y104.991
G1 F1800 X86.811 Y116.509 E259.37984
G0 F3600 X86.11 Y116.798
G1 F1800 X75.293 Y105.981 E260.25269
G0 F3600 X75.293 Y106.971
G1 F1800 X85.407 Y117.086 E261.06887
G0 F3600 X84.706 Y117.374
G1 F1800 X75.293 Y107.961 E261.82843
G0 F3600 X75.293 Y108.951
G1 F1800 X84.004 Y117.662 E262.53135
G0 F3600 X83.302 Y117.951
G1 F1800 X75.293 Y109.941 E263.17766
G0 F3600 X75.293 Y110.931
G1 F1800 X82.601 Y118.239 E263.76737
G0 F3600 X81.899 Y118.527
G1 F1800 X75.293 Y111.921 E264.30043
G0 F3600 X75.293 Y112.911
G1 F1800 X81.197 Y118.815 E264.77684
G0 F3600 X80.495 Y119.103
G1 F1800 X75.293 Y113.901 E265.1966
G0 F3600 X75.293 Y114.891
G1 F1800 X79.794 Y119.392 E265.5598
G0 F3600 X79.092 Y119.679
G1 F1800 X75.293 Y115.881 E265.86632
G0 F3600 X75.293 Y116.871
G1 F1800 X78.376 Y119.954 E266.11509
G0 F3600 X77.386 Y119.954
G1 F1800 X75.293 Y117.861 E266.28398
G0 F3600 X75.293 Y118.851
G1 F1800 X76.396 Y119.954 E266.37299
G0 F3600 X75.406 Y119.954
G1 F1800 X75.293 Y119.841 E266.38211
;MESH:NONMESH
G0 F3600 X74.65 Y100.599
;TIME_ELAPSED:255.305163
;LAYER:1
M106 S255
;MESH:gantrybearingmnt_rearleft_xminlimit.stl
G0 F5400 X74.65 Y100.599 Z0.92
;TYPE:WALL-INNER
G1 F2700 X54.65 Y100.599 E267.25993
G1 X54.65 Y96.695 E267.43128
G1 X74.073 Y49.401 E269.67532
G1 X78.174 Y49.401 E269.85532
G1 X120.264 Y91.491 E272.46791
G1 X120.264 Y106.899 E273.14419
G1 X111.941 Y106.899 E273.5095
G1 X109.587 Y107.854 E273.621
G1 X78.554 Y120.599 E275.09347
G1 X74.65 Y120.599 E275.26482
G1 X74.65 Y100.599 E276.14265
G0 F5400 X73.95 Y101.299
G1 F2700 X53.95 Y101.299 E277.02047
G1 X53.95 Y96.556 E277.22865
G1 X73.603 Y48.701 E279.49929
G1 X78.464 Y48.701 E279.71265
G1 X120.964 Y91.201 E282.3507
G1 X120.964 Y107.599 E283.07043
G1 X112.078 Y107.599 E283.46044
G1 X109.852 Y108.502 E283.56588
G1 X78.693 Y121.299 E285.04434
G1 X73.95 Y121.299 E285.25251
G1 X73.95 Y101.299 E286.13034
G0 F5400 X73.3 Y101.949
;TYPE:WALL-OUTER
G1 F1800 X53.3 Y101.949 E287.00816
G1 X53.3 Y96.428 E287.25049
G1 X73.168 Y48.051 E289.54591
G1 X78.734 Y48.051 E289.79021
G1 X121.614 Y90.931 E292.45184
G1 X121.614 Y108.249 E293.21195
G1 X112.205 Y108.249 E293.62493
G1 X110.098 Y109.104 E293.72473
G1 X78.964 Y121.89 E295.20199
G1 X78.82 Y121.949 E295.20882
G1 X73.3 Y121.949 E295.4511
G1 X73.3 Y101.949 E296.32892
G0 F5400 X72.9 Y101.949
G0 X72.9 Y101.179
G0 X75.34 Y99.909
;TYPE:SKIN
G1 F1800 X55.34 Y99.909 E297.20675
G1 X55.34 Y96.833 E297.34176
G1 X74.536 Y50.091 E299.5596
G1 X77.89 Y50.091 E299.70681
G1 X119.574 Y91.775 E302.2942
G1 X119.574 Y106.209 E302.92773
G1 X111.807 Y106.209 E303.26863
G1 X109.327 Y107.215 E303.3861
G1 X78.416 Y119.909 E304.85277
G1 X75.34 Y119.909 E304.98778
G1 X75.34 Y99.909 E305.8656
G0 F5400 X119.258 Y105.46
G1 F1800 X118.824 Y105.894 E305.89254
G0 F5400 X117.834 Y105.894
G1 F1800 X119.258 Y104.47 E305.98093
G0 F5400 X119.258 Y103.48
G1 F1800 X116.844 Y105.894 E306.13077
G0 F5400 X115.854 Y105.894
G1 F1800 X119.258 Y102.49 E306.34207
G0 F5400 X119.258 Y101.5
G1 F1800 X114.864 Y105.894 E306.61481
G0 F5400 X113.874 Y105.894
G1 F1800 X119.258 Y100.51 E306.949
G0 F5400 X119.258 Y99.52
G1 F1800 X112.884 Y105.894 E307.34465
G0 F5400 X111.894 Y105.894
G1 F1800 X119.258 Y98.53 E307.80174
G0 F5400 X119.258 Y97.54
G1 F1800 X110.331 Y106.466 E308.35583
G1 X110.208 Y106.589
G0 F5400 X108.661 Y107.147
G1 F1800 X119.258 Y96.55 E309.0136
G0 F5400 X119.258 Y95.56
G1 F1800 X106.982 Y107.836 E309.77559
G1 X106.859 Y107.959
G0 F5400 X105.302 Y108.526
G1 F1800 X119.258 Y94.57 E310.64186
G0 F5400 X119.258 Y93.58
G1 F1800 X103.622 Y109.216 E311.61242
G1 X103.499 Y109.339
G0 F5400 X101.942 Y109.906
G1 F1800 X119.258 Y92.59 E312.68725
G0 F5400 X119.106 Y91.752
G1 F1800 X100.263 Y110.595 E313.85687
G1 X100.14 Y110.718
G0 F5400 X98.583 Y111.285
G1 F1800 X118.611 Y91.257 E315.10004
