;FLAVOR:Marlin
;TIME:33365
;Filament used: 15.9695m
;Layer height: 0.4
;MINX:53.94
;MINY:43.94
;MINZ:0.52
;MAXX:136.06
;MAXY:126.06
;MAXZ:114.52
;Generated with Cura_SteamEngine 4.1.0
M82 ;absolute extrusion mode
M98 P0:/sys/startprint.g

G92 E0
G92 E0
G10
;LAYER_COUNT:286
;LAYER:0
M107
G0 F3600 X55.458 Y93.293 Z0.52
;TYPE:SKIRT
M220 S50
G11
G1 F1800 X103.144 Y45.607 E3.84793
G1 X103.184 Y45.568 E3.85112
G1 X103.667 Y45.098 E3.88958
G1 X104.101 Y44.731 E3.92201
G1 X104.583 Y44.429 E3.95446
G1 X105.102 Y44.197 E3.9869
G1 X105.649 Y44.04 E4.01937
G1 X106.411 Y43.952 E4.06314
G1 X106.971 Y43.941 E4.0951
G1 X107.051 Y43.94 E4.09966
G1 X111.473 Y43.94 E4.35198
G1 X112.171 Y43.95 E4.39181
G1 X112.738 Y43.998 E4.42427
G1 X113.292 Y44.126 E4.45672
G1 X113.824 Y44.329 E4.48921
G1 X114.321 Y44.605 E4.52165
G1 X114.775 Y44.948 E4.55411
G1 X115.176 Y45.351 E4.58655
G1 X115.517 Y45.806 E4.61899
G1 X115.819 Y46.368 E4.6554
G1 X116.015 Y46.813 E4.68314
G1 X116.055 Y46.906 E4.68892
G1 X135.5 Y94.253 E7.60944
G1 X135.52 Y94.302 E7.61246
G1 X135.763 Y94.916 E7.65013
G1 X135.934 Y95.458 E7.68256
G1 X136.028 Y96.019 E7.71502
G1 X136.046 Y96.31 E7.73165
G1 X136.059 Y96.86 E7.76305
G1 X136.06 Y96.956 E7.76852
G1 X136.06 Y101.33 E8.0181
G1 X136.05 Y102.057 E8.05958
G1 X136.002 Y102.624 E8.09205
G1 X135.875 Y103.178 E8.12448
G1 X135.672 Y103.709 E8.15692
G1 X135.396 Y104.207 E8.18941
G1 X135.054 Y104.661 E8.22184
G1 X134.469 Y105.211 E8.26765
G1 X133.852 Y105.686 E8.31208
G1 X131.672 Y107.398 E8.47024
G1 X129.576 Y109.142 E8.62582
G1 X127.554 Y110.926 E8.77968
G1 X125.577 Y112.769 E8.9339
G1 X123.622 Y114.7 E9.09069
G1 X121.757 Y116.648 E9.24457
G1 X119.94 Y118.657 E9.39913
G1 X118.174 Y120.722 E9.55417
G1 X116.474 Y122.833 E9.70882
G1 X115.681 Y123.874 E9.78349
G1 X115.642 Y123.924 E9.78711
G1 X115.186 Y124.504 E9.8292
G1 X114.804 Y124.926 E9.86168
G1 X114.366 Y125.289 E9.89414
G1 X113.882 Y125.588 E9.9266
G1 X113.361 Y125.816 E9.95905
G1 X112.813 Y125.969 E9.99152
G1 X112.115 Y126.049 E10.0316
G1 X111.793 Y126.058 E10.04998
G1 X111.68 Y126.06 E10.05643
G1 X107.064 Y126.06 E10.31982
G1 X106.366 Y126.05 E10.35965
G1 X105.799 Y126.002 E10.39211
G1 X105.245 Y125.874 E10.42456
G1 X104.971 Y125.78 E10.44109
G1 X104.443 Y125.577 E10.47336
G1 X104.357 Y125.543 E10.47864
G1 X57.105 Y106.137 E13.3933
G1 X57.049 Y106.114 E13.39675
G1 X56.405 Y105.838 E13.43673
G1 X55.899 Y105.577 E13.46922
G1 X55.434 Y105.249 E13.50168
G1 X55.021 Y104.858 E13.53414
G1 X54.666 Y104.414 E13.56657
G1 X54.376 Y103.924 E13.59906
G1 X54.159 Y103.398 E13.63153
G1 X54.017 Y102.848 E13.66394
G1 X53.951 Y102.189 E13.70173
G1 X53.941 Y101.643 E13.73289
G1 X53.94 Y101.569 E13.73711
G1 X53.94 Y97.138 E13.98994
G1 X53.95 Y96.44 E14.02977
G1 X53.998 Y95.873 E14.06224
G1 X54.126 Y95.319 E14.09468
G1 X54.329 Y94.787 E14.12717
G1 X54.605 Y94.29 E14.15961
G1 X54.995 Y93.782 E14.19615
G1 X55.136 Y93.626 E14.20815
G1 X55.246 Y93.51 E14.21727
G1 X55.427 Y93.325 E14.23204
G1 X55.458 Y93.293 E14.23458
G0 F3600 X55.927 Y93.814
G1 F1800 X103.639 Y46.102 E18.08461
G1 X103.672 Y46.07 E18.08723
G1 X104.155 Y45.6 E18.12569
G1 X104.552 Y45.269 E18.15518
G1 X104.996 Y45.003 E18.18471
G1 X105.475 Y44.809 E18.2142
G1 X105.979 Y44.69 E18.24375
G1 X106.425 Y44.652 E18.26929
G1 X106.985 Y44.641 E18.30125
G1 X107.051 Y44.64 E18.30502
G1 X111.463 Y44.64 E18.55676
G1 X112.161 Y44.65 E18.59659
G1 X112.676 Y44.698 E18.6261
G1 X113.178 Y44.824 E18.65563
G1 X113.654 Y45.026 E18.68514
G1 X114.094 Y45.298 E18.71465
G1 X114.486 Y45.635 E18.74415
G1 X114.822 Y46.029 E18.7737
G1 X115.179 Y46.65 E18.81457
G1 X115.375 Y47.095 E18.84231
G1 X115.408 Y47.172 E18.84709
G1 X134.853 Y94.519 E21.76761
G1 X134.869 Y94.559 E21.77007
G1 X135.112 Y95.173 E21.80775
G1 X135.265 Y95.667 E21.83725
G1 X135.346 Y96.327 E21.87519
G1 X135.359 Y96.877 E21.90659
G1 X135.36 Y96.956 E21.91109
G1 X135.36 Y101.32 E22.1601
G1 X135.35 Y102.047 E22.20158
G1 X135.303 Y102.562 E22.23109
G1 X135.177 Y103.064 E22.26062
G1 X134.975 Y103.54 E22.29013
G1 X134.703 Y103.98 E22.31964
G1 X134.366 Y104.373 E22.34918
G1 X134.043 Y104.656 E22.37369
G1 X133.393 Y105.156 E22.42048
G1 X131.25 Y106.839 E22.57595
G1 X129.124 Y108.608 E22.73376
G1 X127.071 Y110.418 E22.88993
G1 X125.102 Y112.254 E23.04354
G1 X123.137 Y114.194 E23.2011
G1 X121.244 Y116.172 E23.35732
G1 X119.402 Y118.209 E23.51402
G1 X117.641 Y120.269 E23.66866
G1 X115.918 Y122.407 E23.82533
G1 X115.124 Y123.45 E23.90013
G1 X115.092 Y123.492 E23.90314
G1 X114.636 Y124.072 E23.94524
G1 X114.285 Y124.452 E23.97475
G1 X113.881 Y124.775 E24.00427
G1 X113.431 Y125.031 E24.03381
G1 X112.948 Y125.215 E24.0633
G1 X112.442 Y125.322 E24.09281
G1 X112.096 Y125.35 E24.11262
G1 X111.774 Y125.359 E24.131
G1 X111.68 Y125.36 E24.13636
G1 X107.074 Y125.36 E24.39917
G1 X106.376 Y125.35 E24.439
G1 X105.861 Y125.302 E24.46852
G1 X105.222 Y125.127 E24.50632
G1 X104.694 Y124.924 E24.5386
G1 X104.623 Y124.896 E24.54295
G1 X57.371 Y105.49 E27.45761
G1 X57.324 Y105.47 E27.46052
G1 X56.68 Y105.194 E27.5005
G1 X56.222 Y104.954 E27.53
G1 X55.806 Y104.647 E27.5595
G1 X55.443 Y104.279 E27.589
G1 X55.14 Y103.859 E27.61855
G1 X54.905 Y103.398 E27.64807
G1 X54.745 Y102.906 E27.67759
G1 X54.651 Y102.176 E27.71959
G1 X54.641 Y101.63 E27.75075
G1 X54.64 Y101.569 E27.75423
G1 X54.64 Y97.148 E28.00649
G1 X54.65 Y96.45 E28.04632
G1 X54.698 Y95.935 E28.07583
G1 X54.824 Y95.433 E28.10536
G1 X55.026 Y94.957 E28.13487
G1 X55.298 Y94.517 E28.16438
G1 X55.515 Y94.252 E28.18392
G1 X55.656 Y94.096 E28.19592
G1 X55.746 Y93.999 E28.20347
G1 X55.927 Y93.814 E28.21824
G10
;MESH:gantrybearingmnt_rearright.stl
G0 F3600 X59.058 Y96.932
G0 X110.89 Y100.89
G0 X110.96 Y100.96
;TYPE:WALL-INNER
G11
G1 F1800 X110.96 Y120.96 E29.35941
G1 X106.622 Y120.96 E29.60693
G1 X59.04 Y101.419 E32.54194
G1 X59.04 Y96.925 E32.79836
G1 X106.925 Y49.04 E36.66235
G1 X111.419 Y49.04 E36.91877
G1 X130.96 Y96.622 E39.85377
G1 X130.96 Y100.96 E40.10129
G1 X110.96 Y100.96 E41.24247
G0 F3600 X111.61 Y101.61
;TYPE:WALL-OUTER
G1 F1800 X111.61 Y121.61 E42.38364
G1 X106.494 Y121.61 E42.67555
G1 X58.39 Y101.854 E45.64277
G1 X58.39 Y96.655 E45.93942
G1 X106.655 Y48.39 E49.83407
G1 X111.854 Y48.39 E50.13072
G1 X131.61 Y96.494 E53.09793
G1 X131.61 Y101.61 E53.38984
G1 X111.61 Y101.61 E54.53102
G0 F3600 X111.61 Y102.01
G0 X110.84 Y102.01
G0 X110.27 Y100.27
;TYPE:SKIN
G1 F1800 X110.27 Y120.27 E55.67219
G1 X106.76 Y120.27 E55.87247
G1 X59.73 Y100.956 E58.77341
G1 X59.73 Y97.209 E58.98721
G1 X107.209 Y49.73 E62.81844
G1 X110.956 Y49.73 E63.03224
G1 X130.27 Y96.76 E65.93319
G1 X130.27 Y100.27 E66.13346
G1 X110.27 Y100.27 E67.27464
G0 F3600 X110.432 Y50.045
G1 F1800 X110.959 Y50.572 E67.31716
G0 F3600 X109.442 Y50.045
G1 F1800 X111.65 Y52.253 E67.49533
G1 X111.773 Y52.376
G0 F3600 X112.339 Y53.932
G1 F1800 X108.452 Y50.045 E67.80899
G0 F3600 X107.462 Y50.045
G1 F1800 X113.029 Y55.612 E68.25821
G1 X113.152 Y55.735
G0 F3600 X113.719 Y57.292
G1 F1800 X106.905 Y50.478 E68.80805
G0 F3600 X106.41 Y50.973
G1 F1800 X114.409 Y58.971 E69.45347
G1 X114.532 Y59.094
G0 F3600 X115.099 Y60.652
G1 F1800 X105.915 Y51.468 E70.19456
G0 F3600 X105.42 Y51.963
G1 F1800 X115.789 Y62.332 E71.03127
G1 X115.912 Y62.455
G0 F3600 X116.478 Y64.011
G1 F1800 X104.925 Y52.458 E71.96352
G0 F3600 X104.43 Y52.953
G1 F1800 X117.169 Y65.691 E72.99143
G1 X117.292 Y65.814
G0 F3600 X117.859 Y67.371
G1 F1800 X103.935 Y53.448 E74.11496
G0 F3600 X103.44 Y53.943
G1 F1800 X118.548 Y69.051 E75.33407
G1 X118.671 Y69.174
G0 F3600 X119.238 Y70.731
G1 F1800 X102.945 Y54.438 E76.6488
G0 F3600 X102.45 Y54.933
G1 F1800 X119.928 Y72.411 E78.05916
G1 X120.051 Y72.534
G0 F3600 X120.618 Y74.09
G1 F1800 X101.955 Y55.427 E79.56514
G0 F3600 X101.46 Y55.922
G1 F1800 X121.308 Y75.77 E81.16673
G1 X121.431 Y75.893
G0 F3600 X121.997 Y77.45
G1 F1800 X100.965 Y56.417 E82.86391
G0 F3600 X100.47 Y56.912
G1 F1800 X122.687 Y79.13 E84.65671
G1 X122.81 Y79.253
G0 F3600 X123.378 Y80.81
G1 F1800 X99.975 Y57.407 E86.54518
G0 F3600 X99.48 Y57.902
G1 F1800 X124.067 Y82.489 E88.52918
G1 X124.19 Y82.612
G0 F3600 X124.757 Y84.169
G1 F1800 X98.985 Y58.397 E90.6088
G0 F3600 X98.49 Y58.892
G1 F1800 X125.447 Y85.849 E92.78405
G1 X125.57 Y85.972
G0 F3600 X126.137 Y87.529
G1 F1800 X97.995 Y59.387 E95.05492
G0 F3600 X97.5 Y59.882
G1 F1800 X126.827 Y89.209 E97.4214
G1 X126.95 Y89.332
G0 F3600 X127.517 Y90.889
G1 F1800 X97.005 Y60.377 E99.88351
G0 F3600 X96.51 Y60.872
G1 F1800 X128.206 Y92.568 E102.44117
G1 X128.329 Y92.691
G0 F3600 X128.897 Y94.248
G1 F1800 X96.015 Y61.367 E105.09448
G0 F3600 X95.52 Y61.862
G1 F1800 X129.587 Y95.928 E107.84341
G1 X129.71 Y96.051
G0 F3600 X129.954 Y97.285
G1 F1800 X95.025 Y62.357 E110.6619
G0 F3600 X94.53 Y62.852
G1 F1800 X129.954 Y98.275 E113.52034
G0 F3600 X129.954 Y99.265
G1 F1800 X94.036 Y63.347 E116.41868
G0 F3600 X93.541 Y63.842
G1 F1800 X129.652 Y99.954 E119.33263
G0 F3600 X128.663 Y99.954
G1 F1800 X93.046 Y64.337 E122.20668
G0 F3600 X92.551 Y64.832
G1 F1800 X127.673 Y99.954 E125.04078
G0 F3600 X126.683 Y99.954
G1 F1800 X92.056 Y65.327 E127.83494
G0 F3600 X91.561 Y65.822
G1 F1800 X125.693 Y99.954 E130.58916
G0 F3600 X124.703 Y99.954
G1 F1800 X91.066 Y66.317 E133.30344
G0 F3600 X90.571 Y66.812
G1 F1800 X123.713 Y99.954 E135.97777
G0 F3600 X122.723 Y99.954
G1 F1800 X90.076 Y67.307 E138.61216
G0 F3600 X89.581 Y67.802
G1 F1800 X121.733 Y99.954 E141.20661
G0 F3600 X120.743 Y99.954
G1 F1800 X89.086 Y68.297 E143.76111
G0 F3600 X88.591 Y68.792
G1 F1800 X119.753 Y99.954 E146.27567
G0 F3600 X118.763 Y99.954
G1 F1800 X88.096 Y69.287 E148.75029
G0 F3600 X87.601 Y69.782
G1 F1800 X117.773 Y99.954 E151.18496
G0 F3600 X116.783 Y99.954
G1 F1800 X87.106 Y70.277 E153.5797
G0 F3600 X86.611 Y70.772
G1 F1800 X115.793 Y99.954 E155.93448
G0 F3600 X114.803 Y99.954
G1 F1800 X86.116 Y71.267 E158.24933
G0 F3600 X85.621 Y71.762
G1 F1800 X113.813 Y99.954 E160.52423
G0 F3600 X112.823 Y99.954
G1 F1800 X85.126 Y72.257 E162.75919
G0 F3600 X84.631 Y72.752
G1 F1800 X111.833 Y99.954 E164.95421
G0 F3600 X110.843 Y99.954
G1 F1800 X84.136 Y73.247 E167.10928
G0 F3600 X83.641 Y73.742
G1 F1800 X109.954 Y100.054 E169.23252
G0 F3600 X109.954 Y101.044
G1 F1800 X83.146 Y74.237 E171.3957
G0 F3600 X82.651 Y74.731
G1 F1800 X109.954 Y102.034 E173.59886
G0 F3600 X109.954 Y103.024
G1 F1800 X82.156 Y75.226 E175.84197
G0 F3600 X81.661 Y75.721
G1 F1800 X109.954 Y104.014 E178.12503
G0 F3600 X109.954 Y105.004
G1 F1800 X81.166 Y76.216 E180.44802
G0 F3600 X80.671 Y76.711
G1 F1800 X109.954 Y105.994 E182.81096
G0 F3600 X109.954 Y106.984
G1 F1800 X80.176 Y77.206 E185.21384
G0 F3600 X79.681 Y77.701
G1 F1800 X109.954 Y107.974 E187.65666
G0 F3600 X109.954 Y108.964
G1 F1800 X79.186 Y78.196 E190.13943
G0 F3600 X78.691 Y78.691
G1 F1800 X109.954 Y109.954 E192.66214
G0 F3600 X109.954 Y110.944
G1 F1800 X78.196 Y79.186 E195.2248
G0 F3600 X77.701 Y79.681
G1 F1800 X109.954 Y111.934 E197.82739
G0 F3600 X109.954 Y112.924
G1 F1800 X77.206 Y80.176 E200.46993
G0 F3600 X76.711 Y80.671
G1 F1800 X109.954 Y113.914 E203.15242
G0 F3600 X109.954 Y114.904
G1 F1800 X76.216 Y81.166 E205.87484
G0 F3600 X75.721 Y81.661
G1 F1800 X109.954 Y115.894 E208.63721
G0 F3600 X109.954 Y116.884
G1 F1800 X75.226 Y82.156 E211.43952
G0 F3600 X74.731 Y82.651
G1 F1800 X109.954 Y117.873 E214.28174
G0 F3600 X109.954 Y118.863
G1 F1800 X74.237 Y83.146 E217.16386
G0 F3600 X73.742 Y83.641
G1 F1800 X109.954 Y119.853 E220.08592
G0 F3600 X109.064 Y119.954
G1 F1800 X73.247 Y84.136 E222.97615
G0 F3600 X72.752 Y84.631
G1 F1800 X108.074 Y119.954 E225.82643
G0 F3600 X107.084 Y119.954
G1 F1800 X72.257 Y85.126 E228.63677
G0 F3600 X71.762 Y85.621
G1 F1800 X105.587 Y119.446 E231.36622
G1 X105.71 Y119.569
G0 F3600 X103.907 Y118.756
G1 F1800 X71.267 Y86.116 E234.00004
G0 F3600 X70.772 Y86.611
G1 F1800 X102.227 Y118.066 E236.53825
G1 X102.35 Y118.189
G0 F3600 X100.547 Y117.376
G1 F1800 X70.277 Y87.106 E238.98083
G0 F3600 X69.782 Y87.601
G1 F1800 X98.867 Y116.686 E241.32779
G1 X98.99 Y116.809
G0 F3600 X97.187 Y115.996
G1 F1800 X69.287 Y88.096 E243.57913
G0 F3600 X68.792 Y88.591
G1 F1800 X95.508 Y115.307 E245.73493
G1 X95.631 Y115.43
G0 F3600 X93.828 Y114.617
G1 F1800 X68.297 Y89.086 E247.79511
G0 F3600 X67.802 Y89.581
G1 F1800 X92.148 Y113.927 E249.75966
G1 X92.271 Y114.05
G0 F3600 X90.468 Y113.237
G1 F1800 X67.307 Y90.076 E251.6286
G0 F3600 X66.812 Y90.571
G1 F1800 X88.788 Y112.547 E253.40191
G1 X88.911 Y112.67
G0 F3600 X87.109 Y111.857
G1 F1800 X66.317 Y91.066 E255.07964
G0 F3600 X65.822 Y91.561
G1 F1800 X85.429 Y111.167 E256.66175
G1 X85.552 Y111.29
G0 F3600 X83.749 Y110.477
G1 F1800 X65.327 Y92.056 E258.14824
G0 F3600 X64.832 Y92.551
G1 F1800 X82.069 Y109.788 E259.53915
G1 X82.192 Y109.911
G0 F3600 X80.389 Y109.098
G1 F1800 X64.337 Y93.046 E260.83444
G0 F3600 X63.842 Y93.541
G1 F1800 X78.709 Y108.407 E262.03406
G1 X78.832 Y108.53
G0 F3600 X77.03 Y107.718
G1 F1800 X63.347 Y94.036 E263.13814
G0 F3600 X62.852 Y94.53
G1 F1800 X75.35 Y107.028 E264.14665
G1 X75.473 Y107.151
G0 F3600 X73.669 Y106.338
G1 F1800 X62.357 Y95.025 E265.05949
G0 F3600 X61.862 Y95.52
G1 F1800 X71.99 Y105.648 E265.87675
G1 X72.113 Y105.771
G0 F3600 X70.31 Y104.958
G1 F1800 X61.367 Y96.015 E266.59839
G0 F3600 X60.872 Y96.51
G1 F1800 X68.63 Y104.268 E267.22441
G1 X68.753 Y104.391
G0 F3600 X66.95 Y103.579
G1 F1800 X60.377 Y97.005 E267.75484
G0 F3600 X60.044 Y97.662
G1 F1800 X65.27 Y102.888 E268.17655
G1 X65.393 Y103.011
G0 F3600 X63.591 Y102.199
G1 F1800 X60.044 Y98.652 E268.46276
G0 F3600 X60.044 Y99.642
G1 F1800 X61.911 Y101.509 E268.61342
G1 X62.034 Y101.632
G0 F3600 X60.231 Y100.819
G1 F1800 X60.044 Y100.632 E268.62851
;MESH:NONMESH
G0 F3600 X112.27 Y100.599
;TIME_ELAPSED:261.508800
;LAYER:1
M220 S100
M106 S255
;MESH:gantrybearingmnt_rearright.stl
G0 F5400 X112.27 Y100.599 Z0.92
;TYPE:WALL-INNER
G1 F2700 X110.599 Y100.953 E268.70348
G1 X110.599 Y120.599 E269.56577
G1 X106.695 Y120.599 E269.73712
G1 X59.401 Y101.176 E271.98115
G1 X59.401 Y97.075 E272.16115
G1 X107.075 Y49.401 E275.12035
G1 X111.176 Y49.402 E275.30035
G1 X130.599 Y96.696 E277.54438
G1 X130.599 Y100.599 E277.71569
G1 X112.27 Y100.599 E278.52018
G0 F5400 X112.343 Y101.299
G1 F2700 X111.299 Y101.52 E278.56701
G1 X111.299 Y121.299 E279.43514
G1 X106.556 Y121.299 E279.64332
G1 X58.701 Y101.646 E281.91396
G1 X58.701 Y96.785 E282.12732
G1 X106.785 Y48.701 E285.11197
G1 X111.646 Y48.702 E285.32533
G1 X131.299 Y96.557 E287.59597
G1 X131.299 Y101.299 E287.8041
G1 X112.343 Y101.299 E288.63611
G0 F5400 X111.949 Y102.047
;TYPE:WALL-OUTER
G1 F1800 X111.949 Y121.949 E289.50963
G1 X106.428 Y121.949 E289.75196
G1 X58.051 Y102.081 E292.04738
G1 X58.051 Y96.515 E292.29168
G1 X106.515 Y48.051 E295.29992
G1 X112.082 Y48.052 E295.54426
G1 X131.949 Y96.429 E297.83967
G1 X131.949 Y101.949 E298.08195
G1 X112.411 Y101.949 E298.9395
G1 X111.949 Y102.047 E298.96023
G0 F5400 X111.949 Y102.447
G0 X111.179 Y102.447
G0 X109.909 Y100.393
;TYPE:SKIN
G1 F1800 X109.909 Y119.909 E299.81681
G1 X106.833 Y119.909 E299.95182
G1 X60.091 Y100.713 E302.16965
G1 X60.091 Y97.359 E302.31687
G1 X107.359 Y50.091 E305.25087
G1 X110.713 Y50.092 E305.39808
G1 X129.909 Y96.834 E307.61592
G1 X129.909 Y99.909 E307.75088
G1 X112.197 Y99.909 E308.52829
G1 X109.909 Y100.393 E308.63093
G0 F5400 X129.593 Y99.084
G1 F1800 X129.083 Y99.594 E308.66259
G0 F5400 X128.093 Y99.594
G1 F1800 X129.593 Y98.094 E308.75569
G0 F5400 X129.593 Y97.104
G1 F1800 X127.103 Y99.594 E308.91025
G0 F5400 X126.113 Y99.594
G1 F1800 X129.365 Y96.342 E309.11211
G0 F5400 X129.077 Y95.641
G1 F1800 X125.123 Y99.594 E309.35751
G0 F5400 X124.134 Y99.594
G1 F1800 X128.788 Y94.939 E309.64642
G0 F5400 X128.501 Y94.237
G1 F1800 X123.144 Y99.594 E309.97894
G0 F5400 X122.154 Y99.594
G1 F1800 X128.212 Y93.536 E310.35497
G0 F5400 X127.924 Y92.833
G1 F1800 X121.164 Y99.594 E310.77461
G0 F5400 X120.174 Y99.594
G1 F1800 X127.636 Y92.132 E311.23779
G0 F5400 X127.347 Y91.431
G1 F1800 X119.184 Y99.594 E311.74448
G0 F5400 X118.194 Y99.594
G1 F1800 X127.06 Y90.728 E312.2948
G0 F5400 X126.771 Y90.027
G1 F1800 X117.204 Y99.594 E312.88864
G0 F5400 X116.214 Y99.594
G1 F1800 X126.483 Y89.325 E313.52606
