;FLAVOR:Marlin
;TIME:37621
;Filament used: 18.0484m
;Layer height: 0.4
;MINX:54.64
;MINY:24.839
;MINZ:0.52
;MAXX:135.36
;MAXY:141.75
;MAXZ:114.52
;Generated with Cura_SteamEngine 4.1.0
M82 ;absolute extrusion mode
M98 P0:/sys/startprint.g

G92 E0
G92 E0
G10
;LAYER_COUNT:286
;LAYER:0
M107
G0 F3600 X55.3 Y46.216 Z0.52
;TYPE:SKIRT
G11
G1 F1800 X55.637 Y45.823 E0.02954
G1 X55.957 Y45.543 E0.0538
G1 X56.607 Y45.043 E0.10059
G1 X58.75 Y43.36 E0.25607
G1 X60.876 Y41.591 E0.41388
G1 X62.929 Y39.781 E0.57005
G1 X64.898 Y37.945 E0.72366
G1 X66.863 Y36.005 E0.88122
G1 X68.756 Y34.027 E1.03743
G1 X70.598 Y31.99 E1.19414
G1 X72.359 Y29.93 E1.34877
G1 X74.087 Y27.786 E1.50589
G1 X74.895 Y26.725 E1.58199
G1 X74.927 Y26.684 E1.58496
G1 X75.365 Y26.127 E1.62539
G1 X75.715 Y25.747 E1.65487
G1 X76.119 Y25.424 E1.68438
G1 X76.569 Y25.168 E1.71392
G1 X77.052 Y24.984 E1.74341
G1 X77.559 Y24.877 E1.77298
G1 X77.904 Y24.849 E1.79273
G1 X78.226 Y24.84 E1.81111
G1 X78.32 Y24.839 E1.81647
G1 X82.926 Y24.839 E2.07928
G1 X83.624 Y24.849 E2.11911
G1 X84.139 Y24.897 E2.14863
G1 X84.777 Y25.072 E2.18637
G1 X85.29 Y25.269 E2.21773
G1 X85.362 Y25.297 E2.22214
G1 X132.629 Y44.709 E5.13772
G1 X132.672 Y44.727 E5.14038
G1 X133.316 Y45.002 E5.18033
G1 X133.774 Y45.241 E5.20981
G1 X134.191 Y45.548 E5.23936
G1 X134.555 Y45.916 E5.26889
G1 X134.858 Y46.335 E5.29839
G1 X135.093 Y46.796 E5.32792
G1 X135.254 Y47.287 E5.3574
G1 X135.349 Y48.017 E5.39941
G1 X135.359 Y48.525 E5.4284
G1 X135.36 Y48.591 E5.43216
G1 X135.36 Y53.051 E5.68664
G1 X135.35 Y53.749 E5.72648
G1 X135.302 Y54.264 E5.75599
G1 X135.176 Y54.766 E5.78552
G1 X134.974 Y55.242 E5.81502
G1 X134.702 Y55.682 E5.84454
G1 X134.485 Y55.947 E5.86408
G1 X134.344 Y56.103 E5.87608
G1 X134.254 Y56.2 E5.88363
G1 X134.073 Y56.385 E5.8984
G1 X98.162 Y92.296 E8.79617
G1 X96.254 Y94.26 E8.95241
G1 X94.42 Y96.257 E9.10712
G1 X92.615 Y98.337 E9.26426
G1 X90.874 Y100.461 E9.42096
G1 X89.214 Y102.607 E9.57577
G1 X87.607 Y104.814 E9.73154
G1 X86.056 Y107.075 E9.88799
G1 X84.567 Y109.379 E10.04451
G1 X83.156 Y111.709 E10.19994
G1 X81.801 Y114.091 E10.3563
G1 X80.53 Y116.482 E10.51081
G1 X79.092 Y119.414 E10.69714
G1 X79.077 Y119.445 E10.69911
G1 X78.997 Y119.604 E10.70926
G1 X78.729 Y120.046 E10.73876
G1 X78.397 Y120.443 E10.76829
G1 X78.007 Y120.783 E10.79781
G1 X77.57 Y121.06 E10.82733
G1 X77.095 Y121.265 E10.85685
G1 X76.595 Y121.396 E10.88634
G1 X76.105 Y121.446 E10.91445
G1 X75.772 Y121.456 E10.93345
G1 X75.671 Y121.458 E10.93922
G1 X72.355 Y121.458 E11.12843
G1 X71.657 Y121.449 E11.16826
G1 X71.142 Y121.402 E11.19776
G1 X70.64 Y121.277 E11.22728
G1 X70.163 Y121.076 E11.25682
G1 X69.723 Y120.804 E11.28633
G1 X69.33 Y120.467 E11.31587
G1 X68.994 Y120.074 E11.34537
G1 X68.722 Y119.634 E11.37489
G1 X68.521 Y119.157 E11.40442
G1 X68.396 Y118.655 E11.43394
G1 X68.351 Y118.19 E11.4606
G1 X68.342 Y117.857 E11.47961
G1 X68.341 Y117.766 E11.4848
G1 X68.341 Y106.926 E12.10331
G1 X68.302 Y104.135 E12.26258
G1 X68.187 Y101.428 E12.41718
G1 X67.992 Y98.684 E12.57414
G1 X67.722 Y95.959 E12.73039
G1 X67.374 Y93.24 E12.8868
G1 X66.957 Y90.583 E13.04026
G1 X66.449 Y87.855 E13.19859
G1 X65.88 Y85.209 E13.35302
G1 X65.226 Y82.544 E13.50959
G1 X64.501 Y79.905 E13.66575
G1 X63.7 Y77.29 E13.8218
G1 X62.828 Y74.703 E13.97757
G1 X61.875 Y72.119 E14.13472
G1 X61.094 Y70.159 E14.2551
G1 X55.141 Y55.666 E15.1491
G1 X55.123 Y55.621 E15.15186
G1 X54.887 Y55.022 E15.1886
G1 X54.735 Y54.527 E15.21814
G1 X54.655 Y53.879 E15.2554
G1 X54.641 Y53.328 E15.28685
G1 X54.64 Y53.243 E15.2917
G1 X54.64 Y48.816 E15.5443
G1 X54.65 Y48.148 E15.58242
G1 X54.698 Y47.633 E15.61193
G1 X54.824 Y47.131 E15.64146
G1 X55.027 Y46.655 E15.67099
G1 X55.3 Y46.216 E15.70048
G10
;MESH:gantrybearingmnt_frontleft_yminlimit.stl
G0 F3600 X57.106 Y49.253
G0 X59.054 Y49.253
G0 X79.11 Y49.309
G0 X79.04 Y49.239
;TYPE:WALL-INNER
G11
G1 F1800 X79.04 Y29.239 E16.84166
G1 X83.378 Y29.239 E17.08918
G1 X130.96 Y48.78 E20.02418
G1 X130.96 Y53.274 E20.2806
G1 X74.962 Y109.273 E24.7993
G1 X74.96 Y117.058 E25.2435
G1 X72.741 Y117.058 E25.37011
G1 X72.74 Y86.935 E27.08889
G1 X59.04 Y53.577 E29.14653
G1 X59.04 Y49.239 E29.39405
G1 X79.04 Y49.239 E30.53522
G0 F3600 X78.39 Y48.589
;TYPE:WALL-OUTER
G1 F1800 X78.39 Y28.589 E31.67639
G1 X83.506 Y28.589 E31.96831
G1 X131.61 Y48.345 E34.93552
G1 X131.61 Y53.544 E35.23217
G1 X75.612 Y109.542 E39.75082
G1 X75.61 Y117.708 E40.21677
G1 X72.091 Y117.708 E40.41755
G1 X72.09 Y87.063 E42.16612
G1 X58.39 Y53.705 E44.22375
G1 X58.39 Y48.589 E44.51566
G1 X78.39 Y48.589 E45.65684
G0 F3600 X78.39 Y48.189
G0 X79.16 Y48.189
G0 X79.73 Y49.929
;TYPE:SKIN
G1 F1800 X79.73 Y29.929 E46.79801
G1 X83.24 Y29.929 E46.99829
G1 X130.27 Y49.243 E49.89923
G1 X130.27 Y52.99 E50.11303
G1 X74.272 Y108.987 E54.63165
G1 X74.27 Y116.368 E55.0528
G1 X73.431 Y116.368 E55.10067
G1 X73.43 Y86.799 E56.78784
G1 X59.73 Y53.439 E58.84558
G1 X59.73 Y49.929 E59.04585
G1 X79.73 Y49.929 E60.18703
G0 F3600 X129.954 Y49.769
G1 F1800 X129.422 Y49.236 E60.23
G0 F3600 X129.954 Y50.758
G1 F1800 X127.742 Y48.546 E60.40849
G1 X127.619 Y48.423
G0 F3600 X126.062 Y47.856
G1 F1800 X129.954 Y51.748 E60.72255
G0 F3600 X129.954 Y52.738
G1 F1800 X124.382 Y47.166 E61.17217
G1 X124.259 Y47.043
G0 F3600 X122.702 Y46.476
G1 F1800 X129.52 Y53.293 E61.7223
G0 F3600 X129.025 Y53.788
G1 F1800 X121.023 Y45.787 E62.36796
G1 X120.9 Y45.664
G0 F3600 X119.343 Y45.097
G1 F1800 X128.53 Y54.283 E63.10925
G0 F3600 X128.035 Y54.778
G1 F1800 X117.663 Y44.407 E63.94616
G1 X117.54 Y44.284
G0 F3600 X115.983 Y43.717
G1 F1800 X127.54 Y55.273 E64.87869
G0 F3600 X127.045 Y55.768
G1 F1800 X114.303 Y43.027 E65.90684
G1 X114.18 Y42.904
G0 F3600 X112.624 Y42.338
G1 F1800 X126.55 Y56.263 E67.03053
G0 F3600 X126.055 Y56.758
G1 F1800 X110.944 Y41.647 E68.24989
G1 X110.821 Y41.524
G0 F3600 X109.264 Y40.957
G1 F1800 X125.56 Y57.253 E69.56486
G0 F3600 X125.065 Y57.748
G1 F1800 X107.584 Y40.268 E70.97542
G1 X107.461 Y40.145
G0 F3600 X105.904 Y39.578
G1 F1800 X124.57 Y58.243 E72.4816
G0 F3600 X124.075 Y58.738
G1 F1800 X104.224 Y38.888 E74.0834
G1 X104.101 Y38.765
G0 F3600 X102.545 Y38.198
G1 F1800 X123.58 Y59.233 E75.78078
G0 F3600 X123.085 Y59.728
G1 F1800 X100.865 Y37.508 E77.57378
G1 X100.742 Y37.385
G0 F3600 X99.185 Y36.818
G1 F1800 X122.59 Y60.223 E79.46241
G0 F3600 X122.095 Y60.718
G1 F1800 X97.505 Y36.128 E81.44665
G1 X97.382 Y36.005
G0 F3600 X95.825 Y35.438
G1 F1800 X121.6 Y61.213 E83.52652
G0 F3600 X121.105 Y61.708
G1 F1800 X94.145 Y34.748 E85.70201
G1 X94.022 Y34.625
G0 F3600 X92.466 Y34.059
G1 F1800 X120.61 Y62.203 E87.97303
G0 F3600 X120.115 Y62.698
G1 F1800 X90.786 Y33.369 E90.33968
G1 X90.663 Y33.246
G0 F3600 X89.106 Y32.679
G1 F1800 X119.62 Y63.193 E92.80196
G0 F3600 X119.125 Y63.688
G1 F1800 X87.426 Y31.989 E95.35985
G1 X87.303 Y31.866
G0 F3600 X85.746 Y31.299
G1 F1800 X118.63 Y64.183 E98.01336
G0 F3600 X118.135 Y64.678
G1 F1800 X84.067 Y30.609 E100.76246
G1 X83.944 Y30.486
G0 F3600 X82.711 Y30.244
G1 F1800 X117.64 Y65.173 E103.58099
G0 F3600 X117.145 Y65.668
G1 F1800 X81.721 Y30.244 E106.43946
G0 F3600 X80.731 Y30.244
G1 F1800 X116.65 Y66.163 E109.33788
G0 F3600 X116.155 Y66.658
G1 F1800 X80.044 Y30.547 E112.25179
G0 F3600 X80.044 Y31.536
G1 F1800 X115.66 Y67.153 E115.1258
G0 F3600 X115.165 Y67.648
G1 F1800 X80.044 Y32.526 E117.95987
G0 F3600 X80.044 Y33.516
G1 F1800 X114.67 Y68.143 E120.75399
G0 F3600 X114.175 Y68.638
G1 F1800 X80.044 Y34.506 E123.50817
G0 F3600 X80.044 Y35.496
G1 F1800 X113.68 Y69.133 E126.2224
G0 F3600 X113.185 Y69.628
G1 F1800 X80.044 Y36.486 E128.8967
G0 F3600 X80.044 Y37.476
G1 F1800 X112.69 Y70.123 E131.53105
G0 F3600 X112.195 Y70.618
G1 F1800 X80.044 Y38.466 E134.12545
G0 F3600 X80.044 Y39.456
G1 F1800 X111.7 Y71.113 E136.67992
G0 F3600 X111.205 Y71.607
G1 F1800 X80.044 Y40.446 E139.1944
G0 F3600 X80.044 Y41.436
G1 F1800 X110.711 Y72.102 E141.66897
G0 F3600 X110.216 Y72.597
G1 F1800 X80.044 Y42.426 E144.10361
G0 F3600 X80.044 Y43.416
G1 F1800 X109.721 Y73.092 E146.4983
G0 F3600 X109.226 Y73.587
G1 F1800 X80.044 Y44.406 E148.85305
G0 F3600 X80.044 Y45.396
G1 F1800 X108.731 Y74.082 E151.16785
G0 F3600 X108.236 Y74.577
G1 F1800 X80.044 Y46.386 E153.44271
G0 F3600 X80.044 Y47.376
G1 F1800 X107.741 Y75.072 E155.67763
G0 F3600 X107.246 Y75.567
G1 F1800 X80.044 Y48.366 E157.87261
G0 F3600 X80.044 Y49.356
G1 F1800 X106.751 Y76.062 E160.02764
G0 F3600 X106.256 Y76.557
G1 F1800 X79.942 Y50.244 E162.15096
G0 F3600 X78.952 Y50.244
G1 F1800 X105.761 Y77.052 E164.31422
G0 F3600 X105.266 Y77.547
G1 F1800 X77.962 Y50.244 E166.51743
G0 F3600 X76.972 Y50.244
G1 F1800 X104.771 Y78.042 E168.76058
G0 F3600 X104.276 Y78.537
G1 F1800 X75.982 Y50.244 E171.04367
G0 F3600 X74.992 Y50.244
G1 F1800 X103.781 Y79.032 E173.3667
G0 F3600 X103.286 Y79.527
G1 F1800 X74.002 Y50.244 E175.72968
G0 F3600 X73.013 Y50.244
G1 F1800 X102.791 Y80.022 E178.13256
G0 F3600 X102.296 Y80.517
G1 F1800 X72.023 Y50.244 E180.57539
G0 F3600 X71.033 Y50.244
G1 F1800 X101.801 Y81.012 E183.05815
G0 F3600 X101.306 Y81.507
G1 F1800 X70.043 Y50.244 E185.58087
G0 F3600 X69.053 Y50.244
G1 F1800 X100.811 Y82.002 E188.14352
G0 F3600 X100.316 Y82.497
G1 F1800 X68.063 Y50.244 E190.74612
G0 F3600 X67.073 Y50.244
G1 F1800 X99.821 Y82.992 E193.38866
G0 F3600 X99.326 Y83.487
G1 F1800 X66.083 Y50.244 E196.07114
G0 F3600 X65.093 Y50.244
G1 F1800 X98.831 Y83.982 E198.79356
G0 F3600 X98.336 Y84.477
G1 F1800 X64.103 Y50.244 E201.55593
G0 F3600 X63.113 Y50.244
G1 F1800 X97.841 Y84.972 E204.35825
G0 F3600 X97.346 Y85.467
G1 F1800 X62.123 Y50.244 E207.2005
G0 F3600 X61.133 Y50.244
G1 F1800 X96.851 Y85.962 E210.0827
G0 F3600 X96.356 Y86.457
G1 F1800 X60.143 Y50.244 E213.00484
G0 F3600 X60.043 Y51.134
G1 F1800 X95.861 Y86.952 E215.89511
G0 F3600 X95.366 Y87.447
G1 F1800 X60.043 Y52.124 E218.74544
G0 F3600 X60.043 Y53.114
G1 F1800 X94.871 Y87.942 E221.55582
G0 F3600 X94.376 Y88.437
G1 F1800 X60.55 Y54.611 E224.28534
G1 X60.427 Y54.488
G0 F3600 X61.241 Y56.291
G1 F1800 X93.881 Y88.932 E226.91921
G0 F3600 X93.386 Y89.427
G1 F1800 X61.931 Y57.971 E229.45745
G1 X61.808 Y57.848
G0 F3600 X62.62 Y59.65
G1 F1800 X92.891 Y89.922 E231.90016
G0 F3600 X92.396 Y90.417
G1 F1800 X63.31 Y61.33 E234.24724
G1 X63.187 Y61.207
G0 F3600 X64 Y63.01
G1 F1800 X91.901 Y90.912 E236.4987
G0 F3600 X91.406 Y91.406
G1 F1800 X64.691 Y64.691 E238.65442
G1 X64.568 Y64.568
G0 F3600 X65.38 Y66.37
G1 F1800 X90.912 Y91.901 E240.71464
G0 F3600 X90.417 Y92.396
G1 F1800 X66.07 Y68.05 E242.67923
G1 X65.947 Y67.927
G0 F3600 X66.76 Y69.73
G1 F1800 X89.922 Y92.891 E244.54821
G0 F3600 X89.427 Y93.386
G1 F1800 X67.45 Y71.41 E246.32156
G1 X67.327 Y71.287
G0 F3600 X68.14 Y73.09
G1 F1800 X88.932 Y93.881 E247.99929
G0 F3600 X88.437 Y94.376
G1 F1800 X68.83 Y74.77 E249.5814
G1 X68.707 Y74.647
G0 F3600 X69.519 Y76.449
G1 F1800 X87.942 Y94.871 E251.06797
G0 F3600 X87.447 Y95.366
G1 F1800 X70.21 Y78.129 E252.45888
G1 X70.087 Y78.006
G0 F3600 X70.9 Y79.809
G1 F1800 X86.952 Y95.861 E253.75417
G0 F3600 X86.457 Y96.356
G1 F1800 X71.59 Y81.489 E254.95383
G1 X71.467 Y81.366
G0 F3600 X72.279 Y83.169
G1 F1800 X85.962 Y96.851 E256.05792
G0 F3600 X85.467 Y97.346
G1 F1800 X72.969 Y84.849 E257.06638
G1 X72.846 Y84.726
G0 F3600 X73.66 Y86.529
G1 F1800 X84.972 Y97.841 E257.97918
G0 F3600 X84.477 Y98.336
G1 F1800 X73.744 Y87.604 E258.84522
G0 F3600 X73.744 Y88.594
G1 F1800 X83.982 Y98.831 E259.67132
G0 F3600 X83.487 Y99.326
G1 F1800 X73.744 Y89.584 E260.45747
G0 F3600 X73.744 Y90.574
G1 F1800 X82.992 Y99.821 E261.20368
G0 F3600 X82.497 Y100.316
G1 F1800 X73.744 Y91.563 E261.90999
G0 F3600 X73.744 Y92.553
G1 F1800 X82.002 Y100.811 E262.57635
G0 F3600 X81.507 Y101.306
G1 F1800 X73.744 Y93.543 E263.20277
G0 F3600 X73.744 Y94.533
G1 F1800 X81.012 Y101.801 E263.78925
G0 F3600 X80.517 Y102.296
G1 F1800 X73.744 Y95.523 E264.33579
G0 F3600 X73.744 Y96.513
G1 F1800 X80.022 Y102.791 E264.84238
G0 F3600 X79.527 Y103.286
G1 F1800 X73.744 Y97.503 E265.30903
G0 F3600 X73.744 Y98.493
G1 F1800 X79.032 Y103.781 E265.73573
G0 F3600 X78.537 Y104.276
G1 F1800 X73.744 Y99.483 E266.12249
G0 F3600 X73.744 Y100.473
G1 F1800 X78.042 Y104.771 E266.46931
G0 F3600 X77.547 Y105.266
G1 F1800 X73.745 Y101.464 E266.77611
G0 F3600 X73.745 Y102.454
G1 F1800 X77.052 Y105.761 E267.04296
G0 F3600 X76.557 Y106.256
G1 F1800 X73.745 Y103.444 E267.26987
G0 F3600 X73.745 Y104.434
G1 F1800 X76.062 Y106.751 E267.45684
G0 F3600 X75.567 Y107.246
G1 F1800 X73.745 Y105.423 E267.6039
G0 F3600 X73.745 Y106.413
G1 F1800 X75.072 Y107.741 E267.71102
G0 F3600 X74.577 Y108.236
G1 F1800 X73.745 Y107.403 E267.7782
G0 F3600 X73.745 Y108.393
G1 F1800 X74.082 Y108.731 E267.80543
G0 F3600 X73.745 Y109.383
G1 F1800 X73.957 Y109.595 E267.82254
G0 F3600 X73.745 Y110.373
G1 F1800 X73.957 Y110.585 E267.83964
G0 F3600 X73.745 Y111.363
G1 F1800 X73.956 Y111.574 E267.85667
G0 F3600 X73.745 Y112.353
G1 F1800 X73.956 Y112.564 E267.8737
G0 F3600 X73.745 Y113.343
G1 F1800 X73.956 Y113.554 E267.89072
G0 F3600 X73.745 Y114.333
G1 F1800 X73.955 Y114.543 E267.90767
G0 F3600 X73.745 Y115.323
G1 F1800 X73.955 Y115.533 E267.92461
;MESH:NONMESH
G0 F3600 X77.739 Y49.6
;TIME_ELAPSED:270.820714
;LAYER:1
M106 S255
;MESH:gantrybearingmnt_frontleft_yminlimit.stl
G0 F5400 X77.739 Y49.6 Z0.92
;TYPE:WALL-INNER
G1 F2700 X79.401 Y49.232 E267.99933
G1 X79.401 Y29.6 E268.861
G1 X83.305 Y29.6 E269.03235
G1 X85.655 Y30.565 E269.14386
G1 X130.599 Y49.023 E271.27639
G1 X130.599 Y53.125 E271.45643
G1 X128.093 Y55.63 E271.61195
G1 X74.601 Y109.123 E274.93232
G1 X74.601 Y116.818 E275.27006
G1 X73.45 Y116.819 E275.32058
G1 X73.101 Y116.819 E275.3359
G1 X73.101 Y116.47 E275.34581
G1 X73.101 Y86.863 E276.6453
G1 X59.401 Y53.503 E278.22817
G1 X59.401 Y49.6 E278.39948
G1 X77.739 Y49.6 E279.20436
G0 F5400 X77.662 Y48.9
G1 F2700 X78.701 Y48.67 E279.25107
G1 X78.701 Y28.9 E280.1188
G1 X83.444 Y28.9 E280.32697
G1 X85.921 Y29.917 E280.4445
G1 X131.299 Y48.553 E282.59762
G1 X131.299 Y53.415 E282.81102
G1 X128.588 Y56.125 E282.97926
G1 X75.301 Y109.413 E286.28691
G1 X75.301 Y117.518 E286.64265
G1 X72.75 Y117.519 E286.75461
G1 X72.401 Y117.519 E286.76993
G1 X72.401 Y117.17 E286.77984
G1 X72.401 Y87.001 E288.104
G1 X58.701 Y53.642 E289.68683
G1 X58.701 Y48.9 E289.89496
G1 X77.662 Y48.9 E290.72719
G0 F5400 X78.051 Y48.148
;TYPE:WALL-OUTER
G1 F1800 X78.051 Y28.25 E291.60054
G1 X83.572 Y28.25 E291.84286
G1 X86.168 Y29.316 E291.96603
G1 X131.949 Y48.118 E294.13828
G1 X131.949 Y53.685 E294.38263
G1 X129.048 Y56.585 E294.56267
G1 X75.951 Y109.682 E297.85848
G1 X75.951 Y118.168 E298.23095
G1 X72.101 Y118.169 E298.39993
G1 X71.751 Y118.169 E298.41529
G1 X71.751 Y117.819 E298.42523
G1 X71.751 Y87.129 E299.77226
G1 X58.051 Y53.77 E301.35509
G1 X58.051 Y48.25 E301.59737
G1 X77.591 Y48.25 E302.45501
G1 X78.051 Y48.148 E302.47569
G0 F5400 X78.051 Y47.748
G0 X78.821 Y47.748
G0 X80.091 Y49.786
;TYPE:SKIN
G1 F1800 X80.091 Y30.29 E303.33139
G1 X83.167 Y30.29 E303.4664
G1 X85.393 Y31.204 E303.57202
G1 X129.909 Y49.486 E305.68424
G1 X129.909 Y52.84 E305.83145
G1 X127.606 Y55.142 E305.97437
G1 X73.911 Y108.837 E309.30731
G1 X73.911 Y116.128 E309.62732
G1 X73.791 Y116.129 E309.63259
G1 X73.791 Y86.727 E310.92308
G1 X60.091 Y53.365 E312.50603
G1 X60.091 Y50.29 E312.641
G1 X77.814 Y50.29 E313.41889
G1 X80.091 Y49.786 E313.52125
G0 F5400 X60.405 Y51.458
G1 F1800 X61.259 Y50.604 E313.57425
G0 F5400 X62.249 Y50.604
G1 F1800 X60.405 Y52.448 E313.68871
G0 F5400 X60.445 Y53.398
G1 F1800 X63.239 Y50.604 E313.86214
G0 F5400 X64.229 Y50.604
G1 F1800 X60.734 Y54.1 E314.07911
G0 F5400 X61.021 Y54.802
G1 F1800 X65.219 Y50.604 E314.33969
G0 F5400 X66.209 Y50.604
G1 F1800 X61.31 Y55.503 E314.64378
G0 F5400 X61.598 Y56.205
G1 F1800 X67.199 Y50.604 E314.99144
G0 F5400 X68.189 Y50.604
G1 F1800 X61.886 Y56.907 E315.38268
G0 F5400 X62.174 Y57.609
G1 F1800 X69.179 Y50.604 E315.81749
G0 F5400 X70.169 Y50.604
G1 F1800 X62.462 Y58.31 E316.29585
G0 F5400 X62.751 Y59.012
G1 F1800 X71.158 Y50.604 E316.81772
G0 F5400 X72.148 Y50.604
G1 F1800 X63.039 Y59.714 E317.38316
G0 F5400 X63.327 Y60.415
G1 F1800 X73.138 Y50.604 E317.99214
G0 F5400 X74.128 Y50.604
G1 F1800 X63.615 Y61.118 E318.64473
