;FLAVOR:Marlin
;TIME:10699
;Filament used: 5.29235m
;Layer height: 0.4
;MINX:55.223
;MINY:43.767
;MINZ:0.52
;MAXX:134.777
;MAXY:126.233
;MAXZ:28.12
;Generated with Cura_SteamEngine 4.1.0
M82 ;absolute extrusion mode
M98 P0:/sys/startprint.g

G92 E0
G92 E0
G10
;LAYER_COUNT:70
;LAYER:0
M107
G0 F3600 X60.436 Y45.141 Z0.52
;TYPE:SKIRT
G11
G1 F1800 X60.773 Y44.749 E0.0295
G1 X61.167 Y44.414 E0.05901
G1 X61.608 Y44.144 E0.08851
G1 X62.086 Y43.944 E0.11807
G1 X62.588 Y43.821 E0.14757
G1 X63.04 Y43.777 E0.17348
G1 X63.359 Y43.768 E0.19169
G1 X63.453 Y43.767 E0.19705
G1 X102.899 Y43.767 E2.44779
G1 X103.742 Y43.779 E2.49589
G1 X103.909 Y43.786 E2.50543
G1 X104.251 Y43.808 E2.52498
G1 X104.763 Y43.881 E2.55449
G1 X105.015 Y43.947 E2.56936
G1 X105.483 Y44.09 E2.59728
G1 X105.965 Y44.279 E2.62682
G1 X106.333 Y44.487 E2.65094
G1 X106.531 Y44.616 E2.66442
G1 X106.629 Y44.683 E2.6712
G1 X106.821 Y44.818 E2.68459
G1 X107.22 Y45.147 E2.7141
G1 X107.449 Y45.391 E2.73319
G1 X107.639 Y45.615 E2.74995
G1 X107.704 Y45.695 E2.75583
G1 X107.794 Y45.808 E2.76408
G1 X108.085 Y46.236 E2.79361
G1 X108.24 Y46.544 E2.81328
G1 X108.429 Y46.973 E2.84003
G1 X108.474 Y47.08 E2.84665
G1 X108.953 Y48.279 E2.92032
G1 X110.032 Y50.87 E3.08047
G1 X111.141 Y53.335 E3.2347
G1 X112.332 Y55.796 E3.3907
G1 X113.599 Y58.234 E3.54747
G1 X114.909 Y60.589 E3.70124
G1 X116.325 Y62.974 E3.8595
G1 X117.772 Y65.261 E4.01392
G1 X119.314 Y67.554 E4.17158
G1 X120.905 Y69.777 E4.32757
G1 X122.554 Y71.951 E4.48326
G1 X124.241 Y74.051 E4.63696
G1 X126.028 Y76.147 E4.79412
G1 X127.882 Y78.203 E4.95208
G1 X129.74 Y80.149 E5.1056
G1 X131.717 Y82.107 E5.26437
G1 X132.877 Y83.204 E5.35547
G1 X133.701 Y83.972 E5.41974
G1 X134.051 Y84.353 E5.44926
G1 X134.338 Y84.783 E5.47876
G1 X134.556 Y85.253 E5.50832
G1 X134.699 Y85.75 E5.53783
G1 X134.765 Y86.32 E5.57057
G1 X134.775 Y86.644 E5.58906
G1 X134.777 Y86.747 E5.59494
G1 X134.777 Y88.281 E5.68247
G1 X134.767 Y88.958 E5.7211
G1 X134.766 Y89.005 E5.72378
G1 X134.686 Y91.807 E5.88373
G1 X134.686 Y94.525 E6.03881
G1 X134.775 Y97.875 E6.23003
G1 X134.776 Y97.963 E6.23505
G1 X134.777 Y102.475 E6.4925
G1 X134.777 Y102.523 E6.49524
G1 X134.768 Y103.167 E6.53199
G1 X134.721 Y103.682 E6.56149
G1 X134.595 Y104.184 E6.59102
G1 X134.393 Y104.66 E6.62053
G1 X134.12 Y105.1 E6.65007
G1 X133.783 Y105.492 E6.67957
G1 X133.256 Y105.921 E6.71834
G1 X130.222 Y107.912 E6.92541
G1 X127.999 Y109.465 E7.08014
G1 X125.819 Y111.079 E7.2349
G1 X123.655 Y112.78 E7.39196
G1 X121.547 Y114.535 E7.54847
G1 X119.513 Y116.328 E7.70318
G1 X117.508 Y118.199 E7.85966
G1 X115.553 Y120.13 E8.01645
G1 X113.66 Y122.107 E8.17262
G1 X112.466 Y123.406 E8.2733
G1 X112.286 Y123.588 E8.2879
G1 X112.09 Y123.771 E8.3032
G1 X112.012 Y123.841 E8.30918
G1 X111.842 Y123.99 E8.32208
G1 X111.708 Y124.102 E8.33205
G1 X111.439 Y124.314 E8.35159
G1 X111.233 Y124.464 E8.36613
G1 X110.776 Y124.771 E8.39754
G1 X110.547 Y124.912 E8.41289
G1 X110.137 Y125.142 E8.43971
G1 X109.871 Y125.276 E8.45671
G1 X109.377 Y125.498 E8.48761
G1 X109.207 Y125.569 E8.49812
G1 X108.96 Y125.664 E8.51322
G1 X108.761 Y125.733 E8.52524
G1 X108.411 Y125.843 E8.54617
G1 X108.179 Y125.907 E8.5599
G1 X107.71 Y126.018 E8.5874
G1 X107.498 Y126.061 E8.59975
G1 X107.156 Y126.119 E8.61954
G1 X106.978 Y126.144 E8.62979
G1 X106.734 Y126.172 E8.64381
G1 X106.43 Y126.193 E8.6612
G1 X104.8 Y126.231 E8.75423
G1 X104.722 Y126.232 E8.75868
G1 X82.232 Y126.233 E10.04193
G1 X82.174 Y126.232 E10.04524
G1 X80.845 Y126.209 E10.12108
G1 X80.662 Y126.201 E10.13153
G1 X80.399 Y126.182 E10.14658
G1 X80.218 Y126.164 E10.15696
G1 X79.761 Y126.106 E10.18324
G1 X79.578 Y126.078 E10.1938
G1 X79.202 Y126.009 E10.21562
G1 X79.108 Y125.99 E10.22109
G1 X78.855 Y125.936 E10.23585
G1 X78.668 Y125.891 E10.24682
G1 X78.307 Y125.792 E10.26818
G1 X78.217 Y125.766 E10.27353
G1 X77.938 Y125.681 E10.29017
G1 X77.745 Y125.615 E10.30181
G1 X77.396 Y125.485 E10.32306
G1 X77.301 Y125.449 E10.32885
G1 X77.026 Y125.337 E10.3458
G1 X76.865 Y125.266 E10.35584
G1 X76.548 Y125.117 E10.37582
G1 X76.449 Y125.068 E10.38213
G1 X76.169 Y124.925 E10.40007
G1 X76.005 Y124.836 E10.41071
G1 X75.333 Y124.444 E10.4551
G1 X75.292 Y124.419 E10.45784
G1 X73.695 Y123.457 E10.56422
G1 X71.31 Y122.108 E10.72057
G1 X68.894 Y120.832 E10.87647
G1 X66.443 Y119.624 E11.03238
G1 X63.947 Y118.481 E11.18902
G1 X62.957 Y118.064 E11.25031
G1 X62.927 Y118.051 E11.25218
G1 X61.671 Y117.507 E11.33028
G1 X61.213 Y117.265 E11.35984
G1 X60.798 Y116.956 E11.38936
G1 X60.436 Y116.587 E11.41885
G1 X60.027 Y115.972 E11.461
G1 X59.551 Y115.052 E11.5201
G1 X59.537 Y115.025 E11.52184
G1 X55.898 Y107.831 E11.98184
G1 X55.876 Y107.788 E11.9846
G1 X55.573 Y107.167 E12.02402
G1 X55.383 Y106.686 E12.05353
G1 X55.269 Y106.181 E12.08307
G1 X55.236 Y105.814 E12.1041
G1 X55.225 Y105.496 E12.12225
G1 X55.223 Y105.38 E12.12887
G1 X55.223 Y81.517 E13.49047
G1 X55.233 Y80.82 E13.53024
G1 X55.281 Y80.305 E13.55975
G1 X55.375 Y79.904 E13.58325
G1 X55.523 Y79.413 E13.61251
G1 X55.522 Y79.413 E13.61257
G1 X56.3 Y76.74 E13.77142
G1 X56.993 Y74.077 E13.92843
G1 X57.604 Y71.428 E14.08354
G1 X58.14 Y68.751 E14.23932
G1 X58.606 Y66.038 E14.39639
G1 X58.984 Y63.386 E14.54924
G1 X59.298 Y60.626 E14.70773
G1 X59.53 Y57.917 E14.86287
G1 X59.684 Y55.185 E15.019
G1 X59.764 Y52.404 E15.17775
G1 X59.773 Y51.042 E15.25547
G1 X59.773 Y47.762 E15.44262
G1 X59.784 Y47.073 E15.48194
G1 X59.833 Y46.557 E15.51151
G1 X59.959 Y46.056 E15.54099
G1 X60.162 Y45.58 E15.57051
G1 X60.436 Y45.141 E15.60004
G10
;MESH:hemeramount_4p2mmthick.stl
G0 F3600 X62.239 Y48.181
G0 X64.187 Y48.181
G0 X66.315 Y73.586
G0 X66.348 Y73.68
;TYPE:WALL-INNER
G11
G1 F1800 X65.696 Y74.022 E15.64205
G1 X65.164 Y74.511 E15.68328
G1 X64.78 Y75.12 E15.72436
G1 X64.572 Y75.783 E15.76401
G1 X64.528 Y76.302 E15.79373
G1 X64.62 Y76.999 E15.83384
G1 X64.903 Y77.676 E15.87571
G1 X65.413 Y78.308 E15.92205
G1 X66.018 Y78.729 E15.96411
G1 X66.695 Y78.972 E16.00515
G1 X67.413 Y79.034 E16.04627
G1 X68.122 Y78.905 E16.08739
G1 X68.773 Y78.6 E16.12841
G1 X69.323 Y78.136 E16.16947
G1 X69.736 Y77.544 E16.21065
G1 X69.978 Y76.867 E16.25167
G1 X70.04 Y76.149 E16.29279
G1 X69.911 Y75.439 E16.33397
G1 X69.606 Y74.788 E16.37499
G1 X69.141 Y74.237 E16.41613
G1 X68.55 Y73.828 E16.45714
G1 X67.875 Y73.583 E16.49811
G1 X67.145 Y73.521 E16.53991
G1 X66.348 Y73.68 E16.58629
G0 F3600 X66.567 Y74.299
;TYPE:WALL-OUTER
G1 F1800 X66.073 Y74.558 E16.61811
G1 X65.668 Y74.931 E16.64953
G1 X65.375 Y75.395 E16.68084
G1 X65.214 Y75.909 E16.71157
G1 X65.182 Y76.287 E16.73322
G1 X65.253 Y76.828 E16.76435
G1 X65.467 Y77.34 E16.79601
G1 X65.86 Y77.827 E16.83172
G1 X66.319 Y78.146 E16.86362
G1 X66.835 Y78.332 E16.89491
G1 X67.382 Y78.379 E16.92624
G1 X67.923 Y78.281 E16.95761
G1 X68.419 Y78.048 E16.98888
G1 X68.839 Y77.694 E17.02022
G1 X69.153 Y77.243 E17.05158
G1 X69.338 Y76.727 E17.08285
G1 X69.385 Y76.18 E17.11418
G1 X69.287 Y75.638 E17.14561
G1 X69.054 Y75.142 E17.17687
G1 X68.7 Y74.722 E17.20822
G1 X68.249 Y74.41 E17.23951
G1 X67.734 Y74.223 E17.27077
G1 X67.182 Y74.176 E17.30238
G1 X66.567 Y74.299 E17.33817
G0 F3600 X66.213 Y74.484
G0 X65.856 Y73.802
G0 X64.744 Y75.104
G0 X66.315 Y107.586
G0 X66.348 Y107.68
;TYPE:WALL-INNER
G1 F1800 X65.696 Y108.022 E17.38018
G1 X65.164 Y108.511 E17.42141
G1 X64.78 Y109.12 E17.46249
G1 X64.572 Y109.783 E17.50213
G1 X64.528 Y110.302 E17.53185
G1 X64.62 Y110.999 E17.57197
G1 X64.903 Y111.676 E17.61384
G1 X65.413 Y112.308 E17.66017
G1 X65.972 Y112.697 E17.69903
G1 X66.018 Y112.729 E17.70223
G1 X66.695 Y112.972 E17.74327
G1 X67.413 Y113.034 E17.78439
G1 X67.455 Y113.027 E17.78682
G1 X68.001 Y112.927 E17.81849
G1 X68.122 Y112.905 E17.82551
G1 X68.406 Y112.772 E17.84341
G1 X68.773 Y112.6 E17.86653
G1 X69.323 Y112.136 E17.90759
G1 X69.736 Y111.544 E17.94878
G1 X69.978 Y110.867 E17.9898
G1 X70.04 Y110.149 E18.03092
G1 X69.911 Y109.439 E18.07209
G1 X69.606 Y108.788 E18.11311
G1 X69.141 Y108.237 E18.15425
G1 X68.55 Y107.828 E18.19526
G1 X67.875 Y107.583 E18.23624
G1 X67.145 Y107.521 E18.27804
G1 X66.348 Y107.68 E18.32441
G0 F3600 X66.567 Y108.299
;TYPE:WALL-OUTER
G1 F1800 X66.073 Y108.558 E18.35624
G1 X65.668 Y108.931 E18.38765
G1 X65.375 Y109.395 E18.41896
G1 X65.214 Y109.909 E18.4497
G1 X65.182 Y110.287 E18.47134
G1 X65.253 Y110.828 E18.50248
G1 X65.467 Y111.34 E18.53414
G1 X65.86 Y111.827 E18.56985
G1 X66.319 Y112.146 E18.60174
G1 X66.835 Y112.332 E18.63304
G1 X67.382 Y112.379 E18.66436
G1 X67.923 Y112.281 E18.69573
G1 X68.419 Y112.048 E18.727
G1 X68.839 Y111.694 E18.75834
G1 X69.153 Y111.243 E18.7897
G1 X69.338 Y110.727 E18.82098
G1 X69.385 Y110.18 E18.8523
G1 X69.287 Y109.638 E18.88373
G1 X69.054 Y109.142 E18.915
G1 X68.7 Y108.722 E18.94634
G1 X68.249 Y108.41 E18.97763
G1 X67.734 Y108.223 E19.00889
G1 X67.182 Y108.176 E19.0405
G1 X66.567 Y108.299 E19.07629
G0 F3600 X66.213 Y108.484
G0 X65.856 Y107.802
G0 X67.143 Y107.482
G0 X68.27 Y107.684
G0 X82.649 Y114.548
G0 X82.716 Y114.621
;TYPE:WALL-INNER
G1 F1800 X82.204 Y115.234 E19.12186
G1 X81.866 Y115.958 E19.16745
G1 X81.728 Y116.743 E19.21293
G1 X81.797 Y117.54 E19.25858
G1 X82.07 Y118.289 E19.30406
G1 X82.527 Y118.945 E19.34968
G1 X83.14 Y119.457 E19.39525
G1 X83.862 Y119.795 E19.44074
G1 X84.65 Y119.934 E19.4864
G1 X85.446 Y119.864 E19.53199
G1 X86.196 Y119.592 E19.57751
G1 X86.851 Y119.132 E19.62318
G1 X87.364 Y118.521 E19.6687
G1 X87.701 Y117.797 E19.71427
G1 X87.84 Y117.012 E19.75976
G1 X87.77 Y116.216 E19.80535
G1 X87.498 Y115.465 E19.85093
G1 X87.038 Y114.81 E19.8966
G1 X86.427 Y114.298 E19.94208
G1 X85.703 Y113.96 E19.98767
G1 X84.918 Y113.822 E20.03315
G1 X84.122 Y113.891 E20.07874
G1 X83.372 Y114.164 E20.12428
G1 X82.716 Y114.621 E20.1699
G0 F3600 X83.159 Y115.105
;TYPE:WALL-OUTER
G1 F1800 X82.757 Y115.586 E20.20567
G1 X82.491 Y116.155 E20.24151
G1 X82.383 Y116.772 E20.27725
G1 X82.437 Y117.398 E20.3131
G1 X82.652 Y117.987 E20.34887
G1 X83.011 Y118.502 E20.38469
G1 X83.492 Y118.904 E20.42046
G1 X84.06 Y119.17 E20.45625
G1 X84.678 Y119.279 E20.49206
G1 X85.304 Y119.224 E20.52791
G1 X85.893 Y119.01 E20.56367
G1 X86.408 Y118.649 E20.59956
G1 X86.811 Y118.169 E20.63532
G1 X87.076 Y117.6 E20.67113
G1 X87.185 Y116.983 E20.70688
G1 X87.13 Y116.358 E20.74268
G1 X86.916 Y115.768 E20.77849
G1 X86.555 Y115.253 E20.81438
G1 X86.075 Y114.851 E20.8501
G1 X85.506 Y114.585 E20.88594
G1 X84.889 Y114.477 E20.92168
G1 X84.264 Y114.531 E20.95748
G1 X83.674 Y114.746 E20.99331
G1 X83.159 Y115.105 E21.02913
G0 F3600 X82.903 Y115.412
G0 X82.312 Y114.918
G0 X83.354 Y114.129
G0 X84.919 Y113.783
G0 X86.448 Y114.265
G0 X87.33 Y115.158
G0 X89.454 Y119.012
G0 X89.527 Y118.945
;TYPE:WALL-INNER
G1 F1800 X90.14 Y119.457 E21.0747
G1 X90.862 Y119.795 E21.12019
G1 X91.65 Y119.934 E21.16584
G1 X92.446 Y119.864 E21.21144
G1 X93.196 Y119.592 E21.25696
G1 X93.851 Y119.132 E21.30263
G1 X94.363 Y118.521 E21.34811
G1 X94.701 Y117.799 E21.3936
G1 X94.84 Y117.011 E21.43926
G1 X94.77 Y116.216 E21.48479
G1 X94.498 Y115.465 E21.53037
G1 X94.038 Y114.81 E21.57604
G1 X93.427 Y114.298 E21.62152
G1 X92.703 Y113.96 E21.66711
G1 X91.918 Y113.822 E21.71259
G1 X91.122 Y113.891 E21.75818
G1 X90.371 Y114.165 E21.80379
G1 X89.718 Y114.621 E21.84924
G1 X89.204 Y115.233 E21.89484
G1 X88.866 Y115.958 E21.94048
G1 X88.728 Y116.743 E21.98596
G1 X88.797 Y117.54 E22.03161
G1 X89.07 Y118.289 E22.07709
G1 X89.527 Y118.945 E22.12271
G0 F3600 X90.011 Y118.502
;TYPE:WALL-OUTER
G1 F1800 X90.492 Y118.904 E22.15848
G1 X91.06 Y119.17 E22.19427
G1 X91.678 Y119.279 E22.23007
G1 X92.304 Y119.224 E22.26593
G1 X92.893 Y119.01 E22.30169
G1 X93.408 Y118.649 E22.33757
G1 X93.81 Y118.169 E22.3733
G1 X94.076 Y117.601 E22.40908
G1 X94.185 Y116.983 E22.44489
G1 X94.13 Y116.358 E22.48069
G1 X93.916 Y115.768 E22.5165
G1 X93.555 Y115.253 E22.55239
G1 X93.075 Y114.851 E22.58811
G1 X92.506 Y114.585 E22.62395
G1 X91.889 Y114.477 E22.65969
G1 X91.264 Y114.531 E22.69549
G1 X90.674 Y114.746 E22.73132
G1 X90.161 Y115.105 E22.76704
G1 X89.757 Y115.586 E22.80288
G1 X89.491 Y116.155 E22.83872
G1 X89.383 Y116.772 E22.87446
G1 X89.437 Y117.398 E22.91031
G1 X89.652 Y117.987 E22.94609
G1 X90.011 Y118.502 E22.98191
G0 F3600 X90.318 Y118.758
G0 X89.824 Y119.349
G0 X90.85 Y119.833
G0 X98.649 Y119.973
G0 X103.454 Y119.012
G0 X103.527 Y118.945
;TYPE:WALL-INNER
G1 F1800 X104.14 Y119.457 E23.02748
G1 X104.862 Y119.795 E23.07297
G1 X105.65 Y119.934 E23.11863
G1 X106.446 Y119.864 E23.16422
G1 X107.196 Y119.592 E23.20974
G1 X107.851 Y119.132 E23.25541
G1 X108.363 Y118.521 E23.3009
G1 X108.701 Y117.799 E23.34638
G1 X108.84 Y117.011 E23.39204
G1 X108.77 Y116.216 E23.43758
G1 X108.498 Y115.465 E23.48315
G1 X108.038 Y114.81 E23.52882
G1 X107.427 Y114.298 E23.57431
G1 X106.703 Y113.96 E23.6199
G1 X105.918 Y113.822 E23.66538
G1 X105.122 Y113.891 E23.71096
G1 X104.371 Y114.165 E23.75658
G1 X103.718 Y114.621 E23.80202
G1 X103.204 Y115.233 E23.84763
G1 X102.866 Y115.958 E23.89327
G1 X102.728 Y116.743 E23.93875
G1 X102.797 Y117.54 E23.98439
G1 X103.07 Y118.289 E24.02988
G1 X103.527 Y118.945 E24.0755
G0 F3600 X104.011 Y118.502
;TYPE:WALL-OUTER
G1 F1800 X104.492 Y118.904 E24.11126
G1 X105.06 Y119.17 E24.14705
G1 X105.678 Y119.279 E24.18286
G1 X106.304 Y119.224 E24.21871
G1 X106.893 Y119.01 E24.25447
G1 X107.408 Y118.649 E24.29036
G1 X107.81 Y118.169 E24.32608
G1 X108.076 Y117.601 E24.36187
G1 X108.185 Y116.983 E24.39768
G1 X108.13 Y116.358 E24.43348
G1 X107.916 Y115.768 E24.46929
G1 X107.555 Y115.253 E24.50517
G1 X107.075 Y114.851 E24.5409
G1 X106.506 Y114.585 E24.57674
G1 X105.889 Y114.477 E24.61248
G1 X105.264 Y114.531 E24.64827
G1 X104.674 Y114.746 E24.6841
G1 X104.161 Y115.105 E24.71983
G1 X103.757 Y115.586 E24.75567
G1 X103.491 Y116.155 E24.79151
G1 X103.383 Y116.772 E24.82725
G1 X103.437 Y117.398 E24.8631
G1 X103.652 Y117.987 E24.89888
G1 X104.011 Y118.502 E24.9347
G0 F3600 X104.318 Y118.758
G0 X103.824 Y119.349
G0 X101.879 Y117.013
G0 X101.533 Y115.447
G0 X100.448 Y114.265
G0 X98.919 Y113.783
G0 X97.499 Y114.076
G0 X96.716 Y114.621
;TYPE:WALL-INNER
G1 F1800 X96.204 Y115.234 E24.98027
G1 X95.866 Y115.958 E25.02586
G1 X95.728 Y116.743 E25.07134
G1 X95.797 Y117.54 E25.11698
G1 X96.07 Y118.289 E25.16247
G1 X96.527 Y118.945 E25.20809
G1 X97.14 Y119.457 E25.25366
G1 X97.862 Y119.795 E25.29915
G1 X98.65 Y119.934 E25.3448
G1 X99.446 Y119.864 E25.3904
G1 X100.196 Y119.592 E25.43592
G1 X100.851 Y119.132 E25.48159
G1 X101.364 Y118.521 E25.52711
G1 X101.701 Y117.797 E25.57268
G1 X101.84 Y117.012 E25.61816
G1 X101.77 Y116.216 E25.66376
G1 X101.498 Y115.465 E25.70933
G1 X101.038 Y114.81 E25.755
G1 X100.427 Y114.298 E25.80049
G1 X99.703 Y113.96 E25.84608
G1 X98.918 Y113.822 E25.89156
G1 X98.122 Y113.891 E25.93715
G1 X97.372 Y114.164 E25.98269
G1 X96.716 Y114.621 E26.0283
G0 F3600 X97.159 Y115.105
;TYPE:WALL-OUTER
G1 F1800 X96.757 Y115.586 E26.06407
G1 X96.491 Y116.155 E26.09991
G1 X96.383 Y116.772 E26.13565
G1 X96.437 Y117.398 E26.1715
G1 X96.652 Y117.987 E26.20728
G1 X97.011 Y118.502 E26.2431
G1 X97.492 Y118.904 E26.27887
G1 X98.06 Y119.17 E26.31466
G1 X98.678 Y119.279 E26.35046
G1 X99.304 Y119.224 E26.38632
G1 X99.893 Y119.01 E26.42208
G1 X100.408 Y118.649 E26.45796
G1 X100.811 Y118.169 E26.49372
G1 X101.076 Y117.6 E26.52954
G1 X101.185 Y116.983 E26.56529
G1 X101.13 Y116.358 E26.60109
G1 X100.916 Y115.768 E26.6369
G1 X100.555 Y115.253 E26.67278
G1 X100.075 Y114.851 E26.70851
G1 X99.506 Y114.585 E26.74435
G1 X98.889 Y114.477 E26.78009
G1 X98.264 Y114.531 E26.81588
G1 X97.674 Y114.746 E26.85171
G1 X97.159 Y115.105 E26.88753
G0 F3600 X96.903 Y115.412
G0 X96.312 Y114.918
G0 X98.744 Y109.102
G0 X99.57 Y108.085
G0 X100.348 Y107.68
;TYPE:WALL-INNER
G1 F1800 X99.696 Y108.022 E26.92954
G1 X99.165 Y108.511 E26.97073
G1 X98.78 Y109.118 E27.01174
G1 X98.571 Y109.785 E27.05163
G1 X98.529 Y110.304 E27.08134
G1 X98.62 Y110.999 E27.12133
G1 X98.903 Y111.676 E27.1632
G1 X99.413 Y112.308 E27.20954
G1 X100.018 Y112.729 E27.25159
G1 X100.695 Y112.972 E27.29263
G1 X101.413 Y113.034 E27.33376
G1 X102.122 Y112.905 E27.37487
G1 X102.773 Y112.6 E27.41589
G1 X103.323 Y112.136 E27.45695
G1 X103.736 Y111.544 E27.49814
G1 X103.978 Y110.867 E27.53916
