;FLAVOR:Marlin
;TIME:9662
;Filament used: 4.61686m
;Layer height: 0.4
;MINX:55.223
;MINY:55.63
;MINZ:0.52
;MAXX:134.777
;MAXY:138.096
;MAXZ:26.92
;Generated with Cura_SteamEngine 4.1.0
M82 ;absolute extrusion mode
M98 P0:/sys/startprint.g

G92 E0
G92 E0
G10
;LAYER_COUNT:67
;LAYER:0
M107
G0 F3600 X60.773 Y56.612 Z0.52
;TYPE:SKIRT
G11
G1 F1800 X61.167 Y56.277 E0.02951
G1 X61.608 Y56.007 E0.05901
G1 X62.086 Y55.807 E0.08858
G1 X62.588 Y55.684 E0.11807
G1 X63.04 Y55.64 E0.14398
G1 X63.359 Y55.631 E0.16219
G1 X63.453 Y55.63 E0.16755
G1 X102.899 Y55.63 E2.41829
G1 X103.742 Y55.642 E2.4664
G1 X103.909 Y55.649 E2.47593
G1 X104.251 Y55.671 E2.49549
G1 X104.763 Y55.744 E2.525
G1 X105.019 Y55.811 E2.5401
G1 X105.485 Y55.954 E2.56791
G1 X105.966 Y56.144 E2.59742
G1 X106.333 Y56.351 E2.62146
G1 X106.569 Y56.505 E2.63754
G1 X106.674 Y56.577 E2.6448
G1 X106.835 Y56.691 E2.65606
G1 X107.233 Y57.022 E2.6856
G1 X107.454 Y57.258 E2.70405
G1 X107.605 Y57.436 E2.71736
G1 X107.671 Y57.517 E2.72333
G1 X107.792 Y57.669 E2.73441
G1 X108.082 Y58.097 E2.76391
G1 X108.237 Y58.406 E2.78364
G1 X108.446 Y58.881 E2.81325
G1 X108.49 Y58.986 E2.81974
G1 X108.952 Y60.142 E2.89077
G1 X108.953 Y60.142 E2.89083
G1 X110.032 Y62.733 E3.05098
G1 X111.141 Y65.198 E3.20521
G1 X112.332 Y67.659 E3.36121
G1 X113.599 Y70.097 E3.51798
G1 X114.909 Y72.452 E3.67174
G1 X116.325 Y74.837 E3.83001
G1 X117.772 Y77.124 E3.98442
G1 X119.314 Y79.417 E4.14209
G1 X120.905 Y81.64 E4.29807
G1 X122.554 Y83.814 E4.45377
G1 X124.241 Y85.914 E4.60746
G1 X126.028 Y88.01 E4.76463
G1 X127.882 Y90.066 E4.92259
G1 X129.74 Y92.012 E5.07611
G1 X131.717 Y93.97 E5.23488
G1 X132.877 Y95.067 E5.32597
G1 X133.701 Y95.835 E5.39024
G1 X134.051 Y96.216 E5.41976
G1 X134.338 Y96.646 E5.44926
G1 X134.556 Y97.116 E5.47882
G1 X134.699 Y97.613 E5.50833
G1 X134.765 Y98.183 E5.54107
G1 X134.775 Y98.507 E5.55957
G1 X134.777 Y98.61 E5.56545
G1 X134.777 Y100.144 E5.65298
G1 X134.767 Y100.821 E5.69161
G1 X134.766 Y100.868 E5.69429
G1 X134.686 Y103.67 E5.85424
G1 X134.686 Y106.388 E6.00932
G1 X134.775 Y109.738 E6.20053
G1 X134.776 Y109.826 E6.20556
G1 X134.777 Y114.338 E6.46301
G1 X134.777 Y114.386 E6.46574
G1 X134.768 Y115.03 E6.50249
G1 X134.721 Y115.545 E6.532
G1 X134.595 Y116.047 E6.56153
G1 X134.393 Y116.523 E6.59104
G1 X134.12 Y116.963 E6.62058
G1 X133.783 Y117.355 E6.65008
G1 X133.256 Y117.784 E6.68885
G1 X130.222 Y119.775 E6.89592
G1 X127.999 Y121.328 E7.05064
G1 X125.819 Y122.942 E7.20541
G1 X123.655 Y124.643 E7.36247
G1 X121.547 Y126.398 E7.51898
G1 X119.513 Y128.191 E7.67369
G1 X117.508 Y130.062 E7.83016
G1 X115.553 Y131.993 E7.98695
G1 X113.66 Y133.97 E8.14313
G1 X112.466 Y135.269 E8.24381
G1 X112.286 Y135.451 E8.25841
G1 X112.09 Y135.634 E8.27371
G1 X112.012 Y135.704 E8.27969
G1 X111.842 Y135.853 E8.29259
G1 X111.708 Y135.965 E8.30255
G1 X111.439 Y136.177 E8.3221
G1 X111.233 Y136.327 E8.33664
G1 X110.776 Y136.634 E8.36805
G1 X110.547 Y136.775 E8.3834
G1 X110.137 Y137.005 E8.41022
G1 X109.871 Y137.139 E8.42721
G1 X109.377 Y137.361 E8.45812
G1 X109.207 Y137.432 E8.46863
G1 X108.96 Y137.527 E8.48373
G1 X108.761 Y137.596 E8.49575
G1 X108.411 Y137.706 E8.51668
G1 X108.179 Y137.77 E8.53041
G1 X107.71 Y137.881 E8.55791
G1 X107.498 Y137.924 E8.57025
G1 X107.156 Y137.982 E8.59005
G1 X106.978 Y138.007 E8.6003
G1 X106.734 Y138.035 E8.61432
G1 X106.43 Y138.056 E8.6317
G1 X104.8 Y138.094 E8.72473
G1 X104.722 Y138.095 E8.72919
G1 X82.232 Y138.096 E10.01244
G1 X82.174 Y138.095 E10.01575
G1 X80.845 Y138.072 E10.09159
G1 X80.662 Y138.064 E10.10204
G1 X80.399 Y138.045 E10.11708
G1 X80.218 Y138.027 E10.12746
G1 X79.761 Y137.969 E10.15375
G1 X79.578 Y137.941 E10.16431
G1 X79.202 Y137.872 E10.18612
G1 X79.108 Y137.853 E10.1916
G1 X78.855 Y137.799 E10.20636
G1 X78.668 Y137.754 E10.21733
G1 X78.307 Y137.655 E10.23869
G1 X78.217 Y137.629 E10.24404
G1 X77.938 Y137.544 E10.26068
G1 X77.745 Y137.478 E10.27232
G1 X77.396 Y137.348 E10.29357
G1 X77.301 Y137.312 E10.29936
G1 X77.026 Y137.2 E10.31631
G1 X76.865 Y137.129 E10.32635
G1 X76.548 Y136.98 E10.34633
G1 X76.449 Y136.931 E10.35263
G1 X76.169 Y136.788 E10.37057
G1 X76.005 Y136.699 E10.38122
G1 X75.333 Y136.307 E10.42561
G1 X75.292 Y136.282 E10.42835
G1 X73.695 Y135.32 E10.53473
G1 X71.31 Y133.971 E10.69107
G1 X68.894 Y132.695 E10.84697
G1 X66.443 Y131.487 E11.00289
G1 X63.947 Y130.344 E11.15953
G1 X62.957 Y129.927 E11.22082
G1 X62.927 Y129.914 E11.22269
G1 X61.671 Y129.37 E11.30079
G1 X61.213 Y129.128 E11.33034
G1 X60.798 Y128.819 E11.35987
G1 X60.436 Y128.45 E11.38936
G1 X60.027 Y127.835 E11.4315
G1 X59.551 Y126.915 E11.49061
G1 X59.537 Y126.888 E11.49234
G1 X55.898 Y119.694 E11.95235
G1 X55.876 Y119.651 E11.95511
G1 X55.573 Y119.03 E11.99453
G1 X55.383 Y118.549 E12.02404
G1 X55.269 Y118.044 E12.05358
G1 X55.236 Y117.677 E12.07461
G1 X55.225 Y117.359 E12.09276
G1 X55.223 Y117.243 E12.09938
G1 X55.223 Y93.38 E13.46097
G1 X55.233 Y92.683 E13.50075
G1 X55.281 Y92.168 E13.53026
G1 X55.375 Y91.767 E13.55376
G1 X55.523 Y91.276 E13.58302
G1 X55.522 Y91.276 E13.58308
G1 X56.3 Y88.603 E13.74193
G1 X56.993 Y85.94 E13.89893
G1 X57.604 Y83.291 E14.05405
G1 X58.14 Y80.614 E14.20983
G1 X58.606 Y77.901 E14.3669
G1 X58.984 Y75.249 E14.51974
G1 X59.298 Y72.489 E14.67824
G1 X59.53 Y69.78 E14.83338
G1 X59.684 Y67.048 E14.98951
G1 X59.764 Y64.267 E15.14826
G1 X59.773 Y62.905 E15.22597
G1 X59.773 Y59.625 E15.41313
G1 X59.784 Y58.936 E15.45244
G1 X59.833 Y58.42 E15.48202
G1 X59.959 Y57.919 E15.5115
G1 X60.162 Y57.443 E15.54102
G1 X60.436 Y57.004 E15.57055
G1 X60.773 Y56.612 E15.60005
G10
;MESH:hemeramount_3mmthick.stl
G0 F3600 X64.187 Y58.096
G0 X64.187 Y60.044
G0 X64.49 Y88.181
G0 X64.819 Y89.592
G0 X64.904 Y89.541
;TYPE:WALL-INNER
G11
G1 F1800 X65.413 Y90.171 E15.64626
G1 X66.021 Y90.594 E15.68852
G1 X66.701 Y90.837 E15.72972
G1 X67.418 Y90.896 E15.77077
G1 X68.126 Y90.767 E15.81184
G1 X68.777 Y90.46 E15.8529
G1 X69.326 Y89.995 E15.89396
G1 X69.743 Y89.396 E15.9356
G1 X70.001 Y88.628 E15.98183
G1 X70.031 Y87.888 E16.02409
G1 X69.871 Y87.185 E16.06522
G1 X69.535 Y86.548 E16.10632
G1 X69.047 Y86.019 E16.14738
G1 X68.437 Y85.634 E16.18854
G1 X67.75 Y85.422 E16.22956
G1 X67.031 Y85.393 E16.27062
G1 X66.328 Y85.553 E16.31176
G1 X65.691 Y85.889 E16.35285
G1 X65.154 Y86.384 E16.39453
G1 X64.737 Y87.075 E16.44058
G1 X64.555 Y87.759 E16.48096
G1 X64.529 Y88.18 E16.50503
G1 X64.622 Y88.867 E16.54459
G1 X64.904 Y89.541 E16.58628
G0 F3600 X65.468 Y89.205
;TYPE:WALL-OUTER
G1 F1800 X65.86 Y89.69 E16.62186
G1 X66.321 Y90.011 E16.65391
G1 X66.839 Y90.196 E16.68529
G1 X67.386 Y90.241 E16.71661
G1 X67.926 Y90.143 E16.74793
G1 X68.422 Y89.909 E16.77922
G1 X68.841 Y89.554 E16.81055
G1 X69.156 Y89.101 E16.84204
G1 X69.355 Y88.509 E16.87767
G1 X69.378 Y87.948 E16.90971
G1 X69.256 Y87.412 E16.94107
G1 X69 Y86.926 E16.97242
G1 X68.628 Y86.523 E17.00371
G1 X68.163 Y86.23 E17.03507
G1 X67.639 Y86.068 E17.06637
G1 X67.091 Y86.046 E17.09766
G1 X66.555 Y86.168 E17.12903
G1 X66.069 Y86.424 E17.16037
G1 X65.663 Y86.799 E17.1919
G1 X65.341 Y87.332 E17.22743
G1 X65.2 Y87.863 E17.25878
G1 X65.182 Y88.156 E17.27553
G1 X65.255 Y88.695 E17.30657
G1 X65.468 Y89.205 E17.3381
G0 F3600 X65.719 Y89.516
G0 X65.12 Y90
G0 X64.49 Y122.181
G0 X64.819 Y123.592
G0 X64.904 Y123.541
;TYPE:WALL-INNER
G1 F1800 X65.413 Y124.171 E17.38432
G1 X65.972 Y124.56 E17.42318
G1 X66.021 Y124.594 E17.42658
G1 X66.701 Y124.837 E17.46778
G1 X67.418 Y124.896 E17.50883
G1 X67.455 Y124.89 E17.51097
G1 X68.001 Y124.79 E17.54264
G1 X68.126 Y124.767 E17.54989
G1 X68.405 Y124.636 E17.56748
G1 X68.777 Y124.46 E17.59096
G1 X69.326 Y123.995 E17.63201
G1 X69.743 Y123.396 E17.67366
G1 X70.001 Y122.628 E17.71989
G1 X70.031 Y121.888 E17.76214
G1 X69.871 Y121.185 E17.80328
G1 X69.535 Y120.548 E17.84437
G1 X69.047 Y120.019 E17.88544
G1 X68.437 Y119.634 E17.9266
G1 X67.75 Y119.422 E17.96762
G1 X67.031 Y119.393 E18.00868
G1 X66.328 Y119.553 E18.04982
G1 X65.691 Y119.889 E18.09091
G1 X65.154 Y120.384 E18.13258
G1 X64.737 Y121.075 E18.17863
G1 X64.555 Y121.759 E18.21902
G1 X64.529 Y122.18 E18.24309
G1 X64.622 Y122.867 E18.28265
G1 X64.904 Y123.541 E18.32433
G0 F3600 X65.468 Y123.205
;TYPE:WALL-OUTER
G1 F1800 X65.86 Y123.69 E18.35992
G1 X66.321 Y124.011 E18.39197
G1 X66.839 Y124.196 E18.42335
G1 X67.386 Y124.241 E18.45467
G1 X67.926 Y124.143 E18.48598
G1 X68.422 Y123.909 E18.51728
G1 X68.841 Y123.554 E18.54861
G1 X69.156 Y123.101 E18.58009
G1 X69.355 Y122.509 E18.61573
G1 X69.378 Y121.948 E18.64777
G1 X69.256 Y121.412 E18.67913
G1 X69 Y120.926 E18.71048
G1 X68.628 Y120.523 E18.74177
G1 X68.163 Y120.23 E18.77313
G1 X67.639 Y120.068 E18.80442
G1 X67.091 Y120.046 E18.83572
G1 X66.555 Y120.168 E18.86708
G1 X66.069 Y120.424 E18.89843
G1 X65.663 Y120.799 E18.92996
G1 X65.341 Y121.332 E18.96549
G1 X65.2 Y121.863 E18.99684
G1 X65.182 Y122.156 E19.01359
G1 X65.255 Y122.695 E19.04463
G1 X65.468 Y123.205 E19.07616
G0 F3600 X65.719 Y123.516
G0 X65.12 Y124
G0 X66.003 Y124.629
G0 X82.649 Y126.411
G0 X82.716 Y126.484
;TYPE:WALL-INNER
G1 F1800 X82.204 Y127.097 E19.12173
G1 X81.866 Y127.821 E19.16732
G1 X81.728 Y128.606 E19.2128
G1 X81.797 Y129.403 E19.25845
G1 X82.07 Y130.152 E19.30394
G1 X82.527 Y130.808 E19.34955
G1 X83.14 Y131.32 E19.39513
G1 X83.862 Y131.658 E19.44061
G1 X84.65 Y131.797 E19.48627
G1 X85.446 Y131.727 E19.53186
G1 X86.196 Y131.455 E19.57738
G1 X86.851 Y130.995 E19.62305
G1 X87.364 Y130.384 E19.66858
G1 X87.701 Y129.66 E19.71414
G1 X87.84 Y128.875 E19.75963
G1 X87.77 Y128.079 E19.80522
G1 X87.498 Y127.328 E19.8508
G1 X87.038 Y126.674 E19.89642
G1 X86.428 Y126.161 E19.9419
G1 X85.703 Y125.823 E19.98754
G1 X84.918 Y125.685 E20.03302
G1 X84.122 Y125.754 E20.07861
G1 X83.372 Y126.027 E20.12415
G1 X82.716 Y126.484 E20.16977
G0 F3600 X83.159 Y126.968
;TYPE:WALL-OUTER
G1 F1800 X82.757 Y127.449 E20.20554
G1 X82.491 Y128.018 E20.24137
G1 X82.383 Y128.635 E20.27712
G1 X82.437 Y129.261 E20.31297
G1 X82.652 Y129.85 E20.34874
G1 X83.011 Y130.365 E20.38456
G1 X83.492 Y130.767 E20.42033
G1 X84.06 Y131.033 E20.45612
G1 X84.678 Y131.142 E20.49193
G1 X85.304 Y131.087 E20.52778
G1 X85.893 Y130.873 E20.56354
G1 X86.408 Y130.512 E20.59942
G1 X86.811 Y130.032 E20.63519
G1 X87.076 Y129.463 E20.671
G1 X87.185 Y128.846 E20.70675
G1 X87.13 Y128.221 E20.74255
G1 X86.916 Y127.631 E20.77836
G1 X86.555 Y127.117 E20.8142
G1 X86.075 Y126.714 E20.84996
G1 X85.506 Y126.448 E20.8858
G1 X84.889 Y126.34 E20.92154
G1 X84.264 Y126.394 E20.95734
G1 X83.674 Y126.609 E20.99317
G1 X83.159 Y126.968 E21.02899
G0 F3600 X82.903 Y127.275
G0 X82.312 Y126.781
G0 X83.354 Y125.992
G0 X84.919 Y125.646
G0 X86.449 Y126.128
G0 X87.33 Y127.022
G0 X89.454 Y130.875
G0 X89.527 Y130.808
;TYPE:WALL-INNER
G1 F1800 X90.14 Y131.32 E21.07456
G1 X90.862 Y131.658 E21.12005
G1 X91.65 Y131.797 E21.1657
G1 X92.446 Y131.727 E21.2113
G1 X93.196 Y131.455 E21.25682
G1 X93.851 Y130.995 E21.30249
G1 X94.363 Y130.384 E21.34797
G1 X94.701 Y129.662 E21.39346
G1 X94.84 Y128.874 E21.43911
G1 X94.77 Y128.079 E21.48465
G1 X94.498 Y127.328 E21.53023
G1 X94.038 Y126.674 E21.57585
G1 X93.428 Y126.161 E21.62133
G1 X92.703 Y125.823 E21.66697
G1 X91.918 Y125.685 E21.71245
G1 X91.122 Y125.754 E21.75804
G1 X90.371 Y126.028 E21.80365
G1 X89.718 Y126.484 E21.8491
G1 X89.204 Y127.096 E21.8947
G1 X88.866 Y127.821 E21.94034
G1 X88.728 Y128.606 E21.98582
G1 X88.797 Y129.403 E22.03146
G1 X89.07 Y130.152 E22.07695
G1 X89.527 Y130.808 E22.12257
G0 F3600 X90.011 Y130.365
;TYPE:WALL-OUTER
G1 F1800 X90.492 Y130.767 E22.15834
G1 X91.06 Y131.033 E22.19412
G1 X91.678 Y131.142 E22.22993
G1 X92.304 Y131.087 E22.26579
G1 X92.893 Y130.873 E22.30154
G1 X93.408 Y130.512 E22.33743
G1 X93.81 Y130.032 E22.37315
G1 X94.076 Y129.464 E22.40894
G1 X94.185 Y128.846 E22.44475
G1 X94.13 Y128.221 E22.48055
G1 X93.916 Y127.631 E22.51636
G1 X93.555 Y127.117 E22.5522
G1 X93.075 Y126.714 E22.58796
G1 X92.506 Y126.448 E22.6238
G1 X91.889 Y126.34 E22.65954
G1 X91.264 Y126.394 E22.69533
G1 X90.674 Y126.609 E22.73116
G1 X90.161 Y126.968 E22.76689
G1 X89.757 Y127.449 E22.80273
G1 X89.491 Y128.018 E22.83857
G1 X89.383 Y128.635 E22.87431
G1 X89.437 Y129.261 E22.91016
G1 X89.652 Y129.85 E22.94594
G1 X90.011 Y130.365 E22.98176
G0 F3600 X90.318 Y130.621
G0 X89.824 Y131.212
G0 X90.85 Y131.696
G0 X98.649 Y131.836
G0 X103.454 Y130.875
G0 X103.527 Y130.808
;TYPE:WALL-INNER
G1 F1800 X104.14 Y131.32 E23.02733
G1 X104.862 Y131.658 E23.07282
G1 X105.65 Y131.797 E23.11847
G1 X106.446 Y131.727 E23.16407
G1 X107.196 Y131.455 E23.20959
G1 X107.851 Y130.995 E23.25526
G1 X108.363 Y130.384 E23.30074
G1 X108.701 Y129.662 E23.34623
G1 X108.84 Y128.874 E23.39189
G1 X108.77 Y128.079 E23.43742
G1 X108.498 Y127.328 E23.483
G1 X108.038 Y126.674 E23.52862
G1 X107.428 Y126.161 E23.5741
G1 X106.703 Y125.823 E23.61974
G1 X105.918 Y125.685 E23.66522
G1 X105.122 Y125.754 E23.71081
G1 X104.371 Y126.028 E23.75642
G1 X103.718 Y126.484 E23.80187
G1 X103.204 Y127.096 E23.84747
G1 X102.866 Y127.821 E23.89311
G1 X102.728 Y128.606 E23.93859
G1 X102.797 Y129.403 E23.98424
G1 X103.07 Y130.152 E24.02972
G1 X103.527 Y130.808 E24.07534
G0 F3600 X104.011 Y130.365
;TYPE:WALL-OUTER
G1 F1800 X104.492 Y130.767 E24.11111
G1 X105.06 Y131.033 E24.1469
G1 X105.678 Y131.142 E24.1827
G1 X106.304 Y131.087 E24.21856
G1 X106.893 Y130.873 E24.25432
G1 X107.408 Y130.512 E24.2902
G1 X107.81 Y130.032 E24.32593
G1 X108.076 Y129.464 E24.36171
G1 X108.185 Y128.846 E24.39752
G1 X108.13 Y128.221 E24.43332
G1 X107.916 Y127.631 E24.46913
G1 X107.555 Y127.117 E24.50497
G1 X107.075 Y126.714 E24.54073
G1 X106.506 Y126.448 E24.57657
G1 X105.889 Y126.34 E24.61231
G1 X105.264 Y126.394 E24.64811
G1 X104.674 Y126.609 E24.68394
G1 X104.161 Y126.968 E24.71966
G1 X103.757 Y127.449 E24.7555
G1 X103.491 Y128.018 E24.79134
G1 X103.383 Y128.635 E24.82708
G1 X103.437 Y129.261 E24.86293
G1 X103.652 Y129.85 E24.89871
G1 X104.011 Y130.365 E24.93453
G0 F3600 X104.318 Y130.621
G0 X103.824 Y131.212
G0 X101.879 Y128.876
G0 X101.533 Y127.31
G0 X100.449 Y126.128
G0 X98.919 Y125.646
G0 X97.499 Y125.939
G0 X96.716 Y126.484
;TYPE:WALL-INNER
G1 F1800 X96.204 Y127.097 E24.9801
G1 X95.866 Y127.821 E25.02569
G1 X95.728 Y128.606 E25.07117
G1 X95.797 Y129.403 E25.11682
G1 X96.07 Y130.152 E25.16231
G1 X96.527 Y130.808 E25.20792
G1 X97.14 Y131.32 E25.2535
G1 X97.862 Y131.658 E25.29898
G1 X98.65 Y131.797 E25.34464
G1 X99.446 Y131.727 E25.39023
G1 X100.196 Y131.455 E25.43575
G1 X100.851 Y130.995 E25.48142
G1 X101.364 Y130.384 E25.52695
G1 X101.701 Y129.66 E25.57251
G1 X101.84 Y128.875 E25.618
G1 X101.77 Y128.079 E25.66359
G1 X101.498 Y127.328 E25.70917
G1 X101.038 Y126.674 E25.75479
G1 X100.428 Y126.161 E25.80027
G1 X99.703 Y125.823 E25.84591
G1 X98.918 Y125.685 E25.89139
G1 X98.122 Y125.754 E25.93698
G1 X97.372 Y126.027 E25.98252
G1 X96.716 Y126.484 E26.02814
G0 F3600 X97.159 Y126.968
;TYPE:WALL-OUTER
G1 F1800 X96.757 Y127.449 E26.06391
G1 X96.491 Y128.018 E26.09974
G1 X96.383 Y128.635 E26.13548
G1 X96.437 Y129.261 E26.17134
G1 X96.652 Y129.85 E26.20711
G1 X97.011 Y130.365 E26.24293
G1 X97.492 Y130.767 E26.2787
G1 X98.06 Y131.033 E26.31449
G1 X98.678 Y131.142 E26.3503
G1 X99.304 Y131.087 E26.38615
G1 X99.893 Y130.873 E26.42191
G1 X100.408 Y130.512 E26.45779
G1 X100.811 Y130.032 E26.49356
G1 X101.076 Y129.463 E26.52937
G1 X101.185 Y128.846 E26.56512
G1 X101.13 Y128.221 E26.60092
G1 X100.916 Y127.631 E26.63673
G1 X100.555 Y127.117 E26.67257
G1 X100.075 Y126.714 E26.70833
G1 X99.506 Y126.448 E26.74417
G1 X98.889 Y126.34 E26.77991
G1 X98.264 Y126.394 E26.8157
G1 X97.674 Y126.609 E26.85153
G1 X97.159 Y126.968 E26.88736
G0 F3600 X96.903 Y127.275
G0 X96.312 Y126.781
G0 X98.693 Y121.08
G0 X99.471 Y120.028
G0 X100.234 Y119.586
;TYPE:WALL-INNER
G1 F1800 X99.594 Y119.96 E26.92965
G1 X99.087 Y120.472 E26.97076
G1 X98.73 Y121.095 E27.01173
G1 X98.555 Y121.759 E27.05092
G1 X98.529 Y122.18 E27.07498
G1 X98.622 Y122.867 E27.11454
G1 X98.904 Y123.541 E27.15623
G1 X99.413 Y124.171 E27.20244
G1 X100.021 Y124.594 E27.2447
G1 X100.701 Y124.837 E27.28591
G1 X101.418 Y124.896 E27.32696
G1 X102.126 Y124.767 E27.36802
G1 X102.777 Y124.46 E27.40909
G1 X103.326 Y123.995 E27.45014
G1 X103.743 Y123.396 E27.49178
