;FLAVOR:Marlin
;TIME:21410
;Filament used: 10.5774m
;Layer height: 0.4
;MINX:5.24
;MINY:46.526
;MINZ:0.52
;MAXX:151.191
;MAXY:132.879
;MAXZ:28.12
;Generated with Cura_SteamEngine 4.1.0
M82 ;absolute extrusion mode
M98 P0:/sys/startprint.g

G92 E0
G92 E0
G10
;LAYER_COUNT:70
;LAYER:0
M107
G0 F3600 X12.605 Y50.466 Z0.52
;TYPE:SKIRT
G11
G1 F1800 X13.057 Y50.422 E0.02591
G1 X13.376 Y50.413 E0.04412
G1 X13.47 Y50.412 E0.04949
G1 X52.914 Y50.412 E2.30011
G1 X53.714 Y50.423 E2.34576
G1 X53.881 Y50.43 E2.3553
G1 X54.305 Y50.457 E2.37954
G1 X54.5 Y50.475 E2.39071
G1 X55.095 Y50.548 E2.42492
G1 X55.145 Y50.554 E2.42779
G1 X56.754 Y50.776 E2.52047
G1 X59.442 Y51.068 E2.67474
G1 X62.182 Y51.289 E2.83159
G1 X64.886 Y51.43 E2.98609
G1 X67.632 Y51.495 E3.14282
G1 X70.376 Y51.483 E3.29939
G1 X73.083 Y51.394 E3.45393
G1 X75.821 Y51.226 E3.61045
G1 X78.562 Y50.98 E3.76747
G1 X81.285 Y50.658 E3.92393
G1 X83.97 Y50.264 E4.07877
G1 X86.632 Y49.796 E4.23299
G1 X89.343 Y49.239 E4.39091
G1 X91.993 Y48.617 E4.54622
G1 X94.636 Y47.916 E4.70224
G1 X96.706 Y47.311 E4.8253
G1 X98.016 Y46.912 E4.90343
G1 X98.126 Y46.881 E4.90995
G1 X98.324 Y46.828 E4.92165
G1 X98.489 Y46.788 E4.93134
G1 X98.835 Y46.714 E4.95153
G1 X99.065 Y46.673 E4.96486
G1 X99.572 Y46.601 E4.99407
G1 X99.946 Y46.569 E5.01549
G1 X101.222 Y46.532 E5.08833
G1 X101.299 Y46.531 E5.09272
G1 X102.121 Y46.526 E5.13963
G1 X124.163 Y46.526 E6.39731
G1 X124.226 Y46.527 E6.40091
G1 X125.563 Y46.552 E6.47721
G1 X125.727 Y46.559 E6.48658
G1 X126.022 Y46.579 E6.50345
G1 X126.215 Y46.597 E6.51451
G1 X126.603 Y46.646 E6.53682
G1 X126.789 Y46.675 E6.54756
G1 X127.251 Y46.76 E6.57437
G1 X127.344 Y46.779 E6.57978
G1 X127.597 Y46.833 E6.59454
G1 X127.788 Y46.879 E6.60575
G1 X128.082 Y46.96 E6.62315
G1 X128.17 Y46.986 E6.62839
G1 X128.478 Y47.08 E6.64676
G1 X128.669 Y47.145 E6.65828
G1 X129.018 Y47.275 E6.67953
G1 X129.111 Y47.311 E6.68522
G1 X129.384 Y47.422 E6.70203
G1 X129.548 Y47.493 E6.71223
G1 X129.867 Y47.643 E6.73234
G1 X129.964 Y47.691 E6.73852
G1 X130.252 Y47.838 E6.75697
G1 X130.412 Y47.926 E6.76739
G1 X130.966 Y48.248 E6.80395
G1 X131.007 Y48.272 E6.80666
G1 X132.869 Y49.39 E6.93058
G1 X135.271 Y50.742 E7.08786
G1 X137.688 Y52.013 E7.24367
G1 X140.111 Y53.202 E7.39768
G1 X142.629 Y54.349 E7.55555
G1 X143.605 Y54.759 E7.61596
G1 X143.643 Y54.775 E7.61831
G1 X144.748 Y55.255 E7.68705
G1 X145.205 Y55.497 E7.71656
G1 X145.619 Y55.807 E7.74607
G1 X145.981 Y56.177 E7.7756
G1 X146.381 Y56.775 E7.81665
G1 X146.695 Y57.375 E7.85529
G1 X146.718 Y57.418 E7.85808
G1 X146.875 Y57.729 E7.87795
G1 X146.874 Y57.729 E7.87801
G1 X150.51 Y64.918 E8.33769
G1 X150.532 Y64.961 E8.34044
G1 X150.839 Y65.59 E8.38038
G1 X151.029 Y66.071 E8.40989
G1 X151.143 Y66.575 E8.43937
G1 X151.175 Y66.926 E8.45948
G1 X151.188 Y67.253 E8.47816
G1 X151.191 Y67.386 E8.48575
G1 X151.191 Y91.243 E9.847
G1 X151.181 Y91.941 E9.88683
G1 X151.133 Y92.456 E9.91634
G1 X151.039 Y92.859 E9.93995
G1 X150.883 Y93.377 E9.97082
G1 X150.112 Y96.029 E10.1284
G1 X149.421 Y98.682 E10.28483
G1 X148.814 Y101.314 E10.43895
G1 X148.267 Y104.03 E10.59703
G1 X147.81 Y106.708 E10.75205
G1 X147.425 Y109.409 E10.90772
G1 X147.119 Y112.101 E11.06231
G1 X146.885 Y114.84 E11.21916
G1 X146.73 Y117.574 E11.37541
G1 X146.65 Y120.356 E11.53422
G1 X146.641 Y121.718 E11.61193
G1 X146.641 Y124.953 E11.79652
G1 X146.631 Y125.68 E11.838
G1 X146.584 Y126.195 E11.86751
G1 X146.458 Y126.697 E11.89704
G1 X146.256 Y127.173 E11.92655
G1 X145.984 Y127.613 E11.95606
G1 X145.647 Y128.006 E11.9856
G1 X145.254 Y128.342 E12.0151
G1 X144.813 Y128.613 E12.04464
G1 X144.336 Y128.813 E12.07415
G1 X143.834 Y128.938 E12.10367
G1 X143.375 Y128.983 E12.12998
G1 X143.055 Y128.992 E12.14825
G1 X142.961 Y128.993 E12.15361
G1 X103.517 Y128.993 E14.40424
G1 X102.717 Y128.982 E14.44989
G1 X102.55 Y128.975 E14.45942
G1 X102.126 Y128.948 E14.48367
G1 X101.928 Y128.93 E14.49501
G1 X101.329 Y128.856 E14.52945
G1 X101.282 Y128.85 E14.53215
G1 X99.723 Y128.635 E14.62195
G1 X97.022 Y128.339 E14.77699
G1 X94.287 Y128.118 E14.93355
G1 X91.583 Y127.976 E15.08805
G1 X88.837 Y127.91 E15.24478
G1 X86.094 Y127.922 E15.40129
G1 X83.383 Y128.01 E15.55606
G1 X80.646 Y128.176 E15.71252
G1 X77.91 Y128.421 E15.86925
G1 X75.219 Y128.738 E16.02386
G1 X72.499 Y129.136 E16.18071
G1 X69.796 Y129.611 E16.33731
G1 X67.166 Y130.15 E16.49049
G1 X64.442 Y130.788 E16.65012
G1 X61.834 Y131.479 E16.80407
G1 X59.741 Y132.089 E16.92846
G1 X58.411 Y132.493 E17.00777
G1 X58.307 Y132.523 E17.01395
G1 X58.11 Y132.576 E17.02559
G1 X57.948 Y132.615 E17.0351
G1 X57.615 Y132.687 E17.05453
G1 X57.371 Y132.731 E17.06868
G1 X56.835 Y132.806 E17.09956
G1 X56.467 Y132.837 E17.12063
G1 X55.209 Y132.873 E17.19244
G1 X55.133 Y132.874 E17.19678
G1 X54.31 Y132.879 E17.24374
G1 X32.262 Y132.879 E18.50177
G1 X32.199 Y132.878 E18.50537
G1 X30.875 Y132.853 E18.58093
G1 X30.707 Y132.846 E18.59052
G1 X30.403 Y132.825 E18.60791
G1 X30.22 Y132.807 E18.6184
G1 X29.835 Y132.759 E18.64054
G1 X29.643 Y132.73 E18.65162
G1 X29.181 Y132.645 E18.67842
G1 X29.087 Y132.626 E18.68389
G1 X28.839 Y132.573 E18.69836
G1 X28.644 Y132.525 E18.70982
G1 X28.312 Y132.433 E18.72948
G1 X28.238 Y132.412 E18.73387
G1 X27.98 Y132.334 E18.74925
G1 X27.781 Y132.267 E18.76123
G1 X27.402 Y132.126 E18.7843
G1 X27.308 Y132.089 E18.79006
G1 X27.045 Y131.982 E18.80627
G1 X26.882 Y131.911 E18.81641
G1 X26.565 Y131.762 E18.8364
G1 X26.467 Y131.714 E18.84262
G1 X26.179 Y131.567 E18.86107
G1 X26.019 Y131.479 E18.87149
G1 X25.465 Y131.157 E18.90805
G1 X25.424 Y131.133 E18.91076
G1 X23.562 Y130.015 E19.03469
G1 X21.16 Y128.663 E19.19196
G1 X18.743 Y127.392 E19.34778
G1 X16.318 Y126.202 E19.50191
G1 X13.802 Y125.056 E19.65966
G1 X12.826 Y124.646 E19.72006
G1 X12.788 Y124.63 E19.72241
G1 X11.683 Y124.15 E19.79116
G1 X11.226 Y123.908 E19.82066
G1 X10.812 Y123.598 E19.85017
G1 X10.45 Y123.228 E19.87971
G1 X10.05 Y122.63 E19.92076
G1 X9.7 Y121.961 E19.96384
G1 X9.675 Y121.912 E19.96698
G1 X9.483 Y121.53 E19.99137
G1 X5.933 Y114.513 E20.44008
G1 X5.91 Y114.468 E20.44296
G1 X5.588 Y113.807 E20.48491
G1 X5.398 Y113.326 E20.51442
G1 X5.285 Y112.821 E20.54395
G1 X5.252 Y112.444 E20.56554
G1 X5.242 Y112.123 E20.58387
G1 X5.24 Y112.019 E20.5898
G1 X5.24 Y88.162 E21.95105
G1 X5.25 Y87.465 E21.99082
G1 X5.298 Y86.95 E22.02034
G1 X5.392 Y86.549 E22.04384
G1 X5.54 Y86.058 E22.0731
G1 X5.539 Y86.058 E22.07316
G1 X6.317 Y83.385 E22.232
G1 X7.01 Y80.722 E22.38901
G1 X7.621 Y78.073 E22.54413
G1 X8.157 Y75.396 E22.69991
G1 X8.623 Y72.683 E22.85697
G1 X9.001 Y70.031 E23.00982
G1 X9.315 Y67.271 E23.16832
G1 X9.547 Y64.562 E23.32346
G1 X9.701 Y61.83 E23.47959
G1 X9.781 Y59.049 E23.63834
G1 X9.79 Y57.687 E23.71605
G1 X9.79 Y54.407 E23.9032
G1 X9.801 Y53.718 E23.94252
G1 X9.85 Y53.202 E23.9721
G1 X9.976 Y52.701 E24.00157
G1 X10.179 Y52.225 E24.0311
G1 X10.453 Y51.786 E24.06063
G1 X10.79 Y51.394 E24.09012
G1 X11.184 Y51.059 E24.11963
G1 X11.625 Y50.789 E24.14914
G1 X12.103 Y50.589 E24.1787
G1 X12.605 Y50.466 E24.20819
G10
;MESH:hemeramount_4p2mmthick.stl
G0 F3600 X14.204 Y52.878
G0 X14.204 Y54.826
G0 X15.038 Y81.174
G0 X15.116 Y81.235
;TYPE:WALL-INNER
G11
G1 F1800 X14.75 Y81.876 E24.25031
G1 X14.573 Y82.535 E24.28924
G1 X14.546 Y82.96 E24.31354
G1 X14.639 Y83.644 E24.35293
G1 X14.916 Y84.31 E24.39409
G1 X15.356 Y84.88 E24.43517
G1 X15.938 Y85.325 E24.47698
G1 X16.694 Y85.617 E24.52322
G1 X17.439 Y85.681 E24.56588
G1 X18.237 Y85.521 E24.61232
G1 X18.89 Y85.179 E24.65438
G1 X19.419 Y84.69 E24.69549
G1 X19.805 Y84.083 E24.73653
G1 X20.02 Y83.395 E24.77766
G1 X20.049 Y82.675 E24.81878
G1 X19.892 Y81.972 E24.85988
G1 X19.557 Y81.333 E24.90104
G1 X19.067 Y80.804 E24.94219
G1 X18.461 Y80.42 E24.98312
G1 X17.772 Y80.204 E25.02432
G1 X17.051 Y80.176 E25.06549
G1 X16.35 Y80.334 E25.10649
G1 X15.703 Y80.673 E25.14817
G1 X15.116 Y81.235 E25.19454
G0 F3600 X15.634 Y81.639
;TYPE:WALL-OUTER
G1 F1800 X15.356 Y82.125 E25.22649
G1 X15.218 Y82.641 E25.25696
G1 X15.199 Y82.937 E25.27389
G1 X15.272 Y83.473 E25.30475
G1 X15.483 Y83.981 E25.33614
G1 X15.818 Y84.415 E25.36742
G1 X16.259 Y84.752 E25.39909
G1 X16.842 Y84.977 E25.43475
G1 X17.402 Y85.025 E25.46682
G1 X18.018 Y84.902 E25.50266
G1 X18.512 Y84.643 E25.53449
G1 X18.916 Y84.27 E25.56586
G1 X19.21 Y83.807 E25.59716
G1 X19.374 Y83.283 E25.62848
G1 X19.396 Y82.734 E25.65983
G1 X19.276 Y82.198 E25.69117
G1 X19.021 Y81.711 E25.72254
G1 X18.648 Y81.308 E25.75387
G1 X18.185 Y81.015 E25.78514
G1 X17.66 Y80.85 E25.81654
G1 X17.111 Y80.829 E25.84789
G1 X16.576 Y80.949 E25.87917
G1 X16.086 Y81.206 E25.91074
G1 X15.634 Y81.639 E25.94646
G0 F3600 X15.436 Y81.986
G0 X14.767 Y81.604
G0 X15.038 Y115.174
G0 X15.116 Y115.235
;TYPE:WALL-INNER
G1 F1800 X14.75 Y115.876 E25.98857
G1 X14.573 Y116.535 E26.02751
G1 X14.546 Y116.96 E26.05181
G1 X14.639 Y117.644 E26.09119
G1 X14.916 Y118.31 E26.13235
G1 X15.356 Y118.88 E26.17344
G1 X15.938 Y119.325 E26.21524
G1 X15.996 Y119.348 E26.2188
G1 X16.694 Y119.617 E26.26148
G1 X17.439 Y119.681 E26.30415
G1 X17.467 Y119.676 E26.30577
G1 X18.01 Y119.567 E26.33737
G1 X18.237 Y119.521 E26.35059
G1 X18.435 Y119.418 E26.36332
G1 X18.89 Y119.179 E26.39265
G1 X19.419 Y118.69 E26.43375
G1 X19.805 Y118.083 E26.4748
G1 X20.02 Y117.395 E26.51592
G1 X20.049 Y116.675 E26.55704
G1 X19.892 Y115.972 E26.59814
G1 X19.557 Y115.333 E26.63931
G1 X19.067 Y114.804 E26.68045
G1 X18.461 Y114.42 E26.72139
G1 X17.772 Y114.204 E26.76259
G1 X17.051 Y114.176 E26.80376
G1 X16.35 Y114.334 E26.84476
G1 X15.703 Y114.673 E26.88644
G1 X15.116 Y115.235 E26.9328
G0 F3600 X15.634 Y115.639
;TYPE:WALL-OUTER
G1 F1800 X15.356 Y116.125 E26.96475
G1 X15.218 Y116.641 E26.99523
G1 X15.199 Y116.937 E27.01215
G1 X15.272 Y117.473 E27.04302
G1 X15.483 Y117.981 E27.07441
G1 X15.818 Y118.415 E27.10569
G1 X16.259 Y118.752 E27.13736
G1 X16.842 Y118.977 E27.17301
G1 X17.402 Y119.025 E27.20508
G1 X18.018 Y118.902 E27.24093
G1 X18.512 Y118.643 E27.27275
G1 X18.916 Y118.27 E27.30413
G1 X19.21 Y117.807 E27.33542
G1 X19.374 Y117.283 E27.36675
G1 X19.396 Y116.734 E27.3981
G1 X19.276 Y116.198 E27.42944
G1 X19.021 Y115.711 E27.46081
G1 X18.648 Y115.308 E27.49214
G1 X18.185 Y115.015 E27.5234
G1 X17.66 Y114.85 E27.5548
G1 X17.111 Y114.829 E27.58615
G1 X16.576 Y114.949 E27.61744
G1 X16.086 Y115.206 E27.64901
G1 X15.634 Y115.639 E27.68472
G0 F3600 X15.436 Y115.986
G0 X14.767 Y115.604
G0 X15.68 Y114.641
G0 X17.048 Y114.137
G0 X35.735 Y120.568
G0 X37.131 Y121.389
G0 X37.058 Y121.456
;TYPE:WALL-INNER
G1 F1800 X36.445 Y120.944 E27.73029
G1 X35.723 Y120.606 E27.77578
G1 X34.933 Y120.467 E27.82155
G1 X34.139 Y120.537 E27.86703
G1 X33.389 Y120.809 E27.91255
G1 X32.734 Y121.269 E27.95822
G1 X32.221 Y121.88 E28.00374
G1 X31.884 Y122.604 E28.04931
G1 X31.745 Y123.389 E28.0948
G1 X31.815 Y124.185 E28.14039
G1 X32.087 Y124.936 E28.18597
G1 X32.547 Y125.591 E28.23164
G1 X33.158 Y126.103 E28.27712
G1 X33.882 Y126.441 E28.32271
G1 X34.667 Y126.579 E28.36819
G1 X35.463 Y126.51 E28.41378
G1 X36.214 Y126.236 E28.45939
G1 X36.867 Y125.78 E28.50484
G1 X37.381 Y125.168 E28.55044
G1 X37.719 Y124.443 E28.59608
G1 X37.857 Y123.658 E28.64156
G1 X37.788 Y122.861 E28.6872
G1 X37.515 Y122.112 E28.73269
G1 X37.058 Y121.456 E28.77831
G0 F3600 X36.574 Y121.899
;TYPE:WALL-OUTER
G1 F1800 X36.093 Y121.497 E28.81408
G1 X35.525 Y121.231 E28.84987
G1 X34.905 Y121.122 E28.88578
G1 X34.281 Y121.177 E28.92153
G1 X33.692 Y121.391 E28.95728
G1 X33.177 Y121.752 E28.99317
G1 X32.774 Y122.232 E29.02893
G1 X32.509 Y122.801 E29.06475
G1 X32.4 Y123.418 E29.1005
G1 X32.455 Y124.043 E29.1363
G1 X32.669 Y124.633 E29.17211
G1 X33.03 Y125.148 E29.20799
G1 X33.51 Y125.55 E29.24372
G1 X34.079 Y125.816 E29.27955
G1 X34.696 Y125.924 E29.3153
G1 X35.321 Y125.87 E29.35109
G1 X35.911 Y125.655 E29.38692
G1 X36.424 Y125.296 E29.42265
G1 X36.828 Y124.815 E29.45849
G1 X37.094 Y124.246 E29.49433
G1 X37.202 Y123.629 E29.53007
G1 X37.148 Y123.003 E29.56592
G1 X36.933 Y122.414 E29.6017
G1 X36.574 Y121.899 E29.63752
G0 F3600 X36.267 Y121.643
G0 X36.761 Y121.052
G0 X41.934 Y120.428
G0 X43.326 Y120.845
G0 X44.058 Y121.456
;TYPE:WALL-INNER
G1 F1800 X43.445 Y120.944 E29.68309
G1 X42.723 Y120.606 E29.72858
G1 X41.933 Y120.467 E29.77434
G1 X41.139 Y120.537 E29.81982
G1 X40.389 Y120.809 E29.86535
G1 X39.734 Y121.269 E29.91102
G1 X39.221 Y121.88 E29.95654
G1 X38.884 Y122.604 E30.0021
G1 X38.745 Y123.389 E30.04759
G1 X38.815 Y124.185 E30.09319
G1 X39.087 Y124.936 E30.13876
G1 X39.547 Y125.591 E30.18443
G1 X40.158 Y126.103 E30.22991
G1 X40.882 Y126.441 E30.27551
G1 X41.667 Y126.579 E30.32098
G1 X42.463 Y126.51 E30.36657
G1 X43.214 Y126.236 E30.41219
G1 X43.867 Y125.78 E30.45763
G1 X44.381 Y125.168 E30.50323
G1 X44.719 Y124.443 E30.54888
G1 X44.857 Y123.658 E30.59435
G1 X44.788 Y122.861 E30.64
G1 X44.515 Y122.112 E30.68549
G1 X44.058 Y121.456 E30.7311
G0 F3600 X43.574 Y121.899
;TYPE:WALL-OUTER
G1 F1800 X43.093 Y121.497 E30.76687
G1 X42.525 Y121.231 E30.80266
G1 X41.905 Y121.122 E30.83858
G1 X41.281 Y121.177 E30.87432
G1 X40.692 Y121.391 E30.91008
G1 X40.177 Y121.752 E30.94596
G1 X39.774 Y122.232 E30.98173
G1 X39.509 Y122.801 E31.01754
G1 X39.4 Y123.418 E31.05329
G1 X39.455 Y124.043 E31.08909
G1 X39.669 Y124.633 E31.1249
G1 X40.03 Y125.148 E31.16079
G1 X40.51 Y125.55 E31.19651
G1 X41.079 Y125.816 E31.23235
G1 X41.696 Y125.924 E31.26809
G1 X42.321 Y125.87 E31.30388
G1 X42.911 Y125.655 E31.33971
G1 X43.424 Y125.296 E31.37544
G1 X43.828 Y124.815 E31.41128
G1 X44.094 Y124.246 E31.44712
G1 X44.202 Y123.629 E31.48286
G1 X44.148 Y123.003 E31.51871
G1 X43.933 Y122.414 E31.55449
G1 X43.574 Y121.899 E31.59031
G0 F3600 X43.267 Y121.643
G0 X43.761 Y121.052
G0 X48.934 Y120.428
G0 X55.934 Y120.428
G0 X57.326 Y120.845
G0 X58.058 Y121.456
;TYPE:WALL-INNER
G1 F1800 X57.445 Y120.944 E31.63588
G1 X56.723 Y120.606 E31.68137
G1 X55.933 Y120.467 E31.72714
G1 X55.139 Y120.537 E31.77262
G1 X54.389 Y120.809 E31.81814
G1 X53.734 Y121.269 E31.86381
G1 X53.221 Y121.88 E31.90933
G1 X52.884 Y122.604 E31.9549
G1 X52.745 Y123.389 E32.00039
G1 X52.815 Y124.185 E32.04598
G1 X53.087 Y124.936 E32.09155
G1 X53.547 Y125.591 E32.13722
G1 X54.158 Y126.103 E32.18271
G1 X54.882 Y126.441 E32.2283
G1 X55.667 Y126.579 E32.27378
G1 X56.463 Y126.51 E32.31937
G1 X57.214 Y126.236 E32.36498
G1 X57.867 Y125.78 E32.41043
G1 X58.381 Y125.168 E32.45603
G1 X58.719 Y124.443 E32.50167
G1 X58.857 Y123.658 E32.54715
G1 X58.788 Y122.861 E32.59279
G1 X58.515 Y122.112 E32.63828
G1 X58.058 Y121.456 E32.6839
G0 F3600 X57.574 Y121.899
;TYPE:WALL-OUTER
G1 F1800 X57.093 Y121.497 E32.71967
G1 X56.525 Y121.231 E32.75545
G1 X55.905 Y121.122 E32.79137
G1 X55.281 Y121.177 E32.82712
G1 X54.692 Y121.391 E32.86287
G1 X54.177 Y121.752 E32.89876
G1 X53.774 Y122.232 E32.93452
G1 X53.509 Y122.801 E32.97033
G1 X53.4 Y123.418 E33.00608
G1 X53.455 Y124.043 E33.04188
G1 X53.669 Y124.633 E33.07769
G1 X54.03 Y125.148 E33.11358
G1 X54.51 Y125.55 E33.14931
G1 X55.079 Y125.816 E33.18514
G1 X55.696 Y125.924 E33.22088
G1 X56.321 Y125.87 E33.25668
G1 X56.911 Y125.655 E33.29251
G1 X57.424 Y125.296 E33.32824
G1 X57.828 Y124.815 E33.36408
G1 X58.094 Y124.246 E33.39992
G1 X58.202 Y123.629 E33.43566
G1 X58.148 Y123.003 E33.47151
G1 X57.933 Y122.414 E33.50728
G1 X57.574 Y121.899 E33.54311
G0 F3600 X57.267 Y121.643
G0 X57.761 Y121.052
G0 X56.735 Y120.568
G0 X55.285 Y120.484
G0 X51.131 Y121.389
G0 X51.058 Y121.456
;TYPE:WALL-INNER
G1 F1800 X50.445 Y120.944 E33.58868
G1 X49.723 Y120.606 E33.63416
G1 X48.933 Y120.467 E33.67993
G1 X48.139 Y120.537 E33.72541
G1 X47.389 Y120.809 E33.77094
G1 X46.734 Y121.269 E33.8166
G1 X46.221 Y121.88 E33.86213
G1 X45.884 Y122.604 E33.90769
G1 X45.745 Y123.389 E33.95318
G1 X45.815 Y124.185 E33.99877
G1 X46.087 Y124.936 E34.04435
G1 X46.547 Y125.591 E34.09002
G1 X47.158 Y126.103 E34.1355
G1 X47.882 Y126.441 E34.18109
G1 X48.667 Y126.579 E34.22657
G1 X49.463 Y126.51 E34.27216
G1 X50.214 Y126.236 E34.31778
G1 X50.867 Y125.78 E34.36322
G1 X51.381 Y125.168 E34.40882
G1 X51.719 Y124.443 E34.45446
G1 X51.857 Y123.658 E34.49994
G1 X51.788 Y122.861 E34.54559
G1 X51.515 Y122.112 E34.59108
G1 X51.058 Y121.456 E34.63669
G0 F3600 X50.574 Y121.899
;TYPE:WALL-OUTER
