;FLAVOR:Marlin
;TIME:3946
;Filament used: 2.02359m
;Layer height: 0.4
;MINX:66.289
;MINY:66.379
;MINZ:0.52
;MAXX:123.711
;MAXY:103.635
;MAXZ:19.72
;Generated with Cura_SteamEngine 4.1.0
M82 ;absolute extrusion mode
M98 P0:/sys/startprint.g

G92 E0
G92 E0
G10
;LAYER_COUNT:49
;LAYER:0
M107
G0 F3600 X84.801 Y71.652 Z0.52
;TYPE:SKIRT
M220 S50
G11
G1 F1800 X85.688 Y70.592 E0.07886
G1 X85.85 Y70.41 E0.09277
G1 X86.122 Y70.122 E0.11537
G1 X86.32 Y69.926 E0.13127
G1 X86.86 Y69.428 E0.17318
G1 X87.055 Y69.259 E0.1879
G1 X87.33 Y69.036 E0.20811
G1 X87.537 Y68.88 E0.2229
G1 X88.123 Y68.464 E0.2639
G1 X88.355 Y68.31 E0.27979
G1 X88.715 Y68.09 E0.30386
G1 X88.935 Y67.965 E0.3183
G1 X89.497 Y67.668 E0.35457
G1 X89.739 Y67.55 E0.36993
G1 X90.156 Y67.364 E0.39599
G1 X90.403 Y67.264 E0.41119
G1 X90.988 Y67.048 E0.44677
G1 X91.226 Y66.968 E0.4611
G1 X91.649 Y66.841 E0.4863
G1 X91.91 Y66.772 E0.5017
G1 X92.6 Y66.614 E0.54209
G1 X92.868 Y66.562 E0.55767
G1 X93.22 Y66.506 E0.57801
G1 X93.478 Y66.474 E0.59284
G1 X94.214 Y66.405 E0.63502
G1 X94.48 Y66.389 E0.65022
G1 X94.841 Y66.379 E0.67083
G1 X95.105 Y66.38 E0.68589
G1 X95.797 Y66.406 E0.72541
G1 X96.056 Y66.424 E0.74022
G1 X96.478 Y66.467 E0.76442
G1 X96.745 Y66.503 E0.7798
G1 X97.416 Y66.617 E0.81863
G1 X97.677 Y66.67 E0.83383
G1 X98.017 Y66.751 E0.85377
G1 X98.261 Y66.818 E0.86821
G1 X98.978 Y67.037 E0.91099
G1 X99.239 Y67.126 E0.92672
G1 X99.598 Y67.263 E0.94864
G1 X99.84 Y67.364 E0.96361
G1 X100.491 Y67.662 E1.00446
G1 X100.722 Y67.777 E1.01918
G1 X101.003 Y67.928 E1.03738
G1 X101.227 Y68.058 E1.05216
G1 X101.837 Y68.438 E1.09317
G1 X102.062 Y68.589 E1.10863
G1 X102.458 Y68.874 E1.13647
G1 X102.68 Y69.046 E1.15249
G1 X103.165 Y69.449 E1.18847
G1 X103.349 Y69.611 E1.20246
G1 X103.61 Y69.856 E1.22289
G1 X103.795 Y70.042 E1.23786
G1 X104.334 Y70.618 E1.28287
G1 X104.484 Y70.787 E1.29576
G1 X104.913 Y71.3 E1.33392
G1 X104.959 Y71.356 E1.33805
G1 X122.356 Y92.933 E2.91954
G1 X122.392 Y92.978 E2.92283
G1 X122.836 Y93.545 E2.96392
G1 X123.154 Y94.016 E2.99634
G1 X123.403 Y94.528 E3.02883
G1 X123.578 Y95.069 E3.06127
G1 X123.676 Y95.629 E3.09371
G1 X123.696 Y95.958 E3.11252
G1 X123.71 Y96.633 E3.15104
G1 X123.711 Y96.717 E3.15583
G1 X123.711 Y98.905 E3.28068
G1 X123.701 Y99.632 E3.32216
G1 X123.653 Y100.199 E3.35463
G1 X123.526 Y100.753 E3.38706
G1 X123.323 Y101.284 E3.4195
G1 X123.047 Y101.782 E3.45199
G1 X122.705 Y102.236 E3.48442
G1 X122.302 Y102.638 E3.5169
G1 X121.847 Y102.979 E3.54934
G1 X121.348 Y103.253 E3.58182
G1 X120.816 Y103.455 E3.61429
G1 X120.261 Y103.58 E3.64676
G1 X119.765 Y103.624 E3.67517
G1 X119.445 Y103.633 E3.69343
G1 X119.331 Y103.635 E3.69994
G1 X70.994 Y103.635 E6.45798
G1 X70.296 Y103.626 E6.49782
G1 X69.729 Y103.578 E6.53028
G1 X69.174 Y103.452 E6.56276
G1 X68.643 Y103.249 E6.59519
G1 X68.145 Y102.974 E6.62765
G1 X67.69 Y102.632 E6.66013
G1 X67.288 Y102.23 E6.69257
G1 X66.947 Y101.775 E6.72501
G1 X66.672 Y101.276 E6.75752
G1 X66.47 Y100.745 E6.78994
G1 X66.345 Y100.19 E6.8224
G1 X66.299 Y99.685 E6.85133
G1 X66.29 Y99.352 E6.87034
G1 X66.289 Y99.243 E6.87656
G1 X66.289 Y96.692 E7.02212
G1 X66.299 Y95.994 E7.06195
G1 X66.347 Y95.427 E7.09442
G1 X66.475 Y94.873 E7.12686
G1 X66.678 Y94.341 E7.15935
G1 X66.954 Y93.844 E7.19179
G1 X67.146 Y93.573 E7.21074
G1 X67.56 Y93.038 E7.24934
G1 X67.61 Y92.975 E7.25393
G1 X84.754 Y71.709 E8.81254
G1 X84.801 Y71.652 E8.81675
G0 F3600 X85.338 Y72.101
G1 F1800 X86.225 Y71.041 E8.89562
G1 X86.359 Y70.891 E8.90709
G1 X86.631 Y70.603 E8.9297
G1 X86.795 Y70.44 E8.94289
G1 X87.335 Y69.942 E8.9848
G1 X87.496 Y69.803 E8.99694
G1 X87.771 Y69.58 E9.01714
G1 X87.942 Y69.45 E9.0294
G1 X88.528 Y69.034 E9.0704
G1 X88.72 Y68.908 E9.08351
G1 X89.08 Y68.688 E9.10758
G1 X89.262 Y68.584 E9.11954
G1 X89.824 Y68.287 E9.15581
G1 X90.024 Y68.19 E9.16849
G1 X90.441 Y68.004 E9.19455
G1 X90.646 Y67.92 E9.20719
G1 X91.231 Y67.704 E9.24277
G1 X91.428 Y67.638 E9.25462
G1 X91.851 Y67.511 E9.27982
G1 X92.066 Y67.455 E9.2925
G1 X92.756 Y67.297 E9.33289
G1 X92.978 Y67.254 E9.34579
G1 X93.33 Y67.198 E9.36613
G1 X93.543 Y67.171 E9.37838
G1 X94.279 Y67.102 E9.42056
G1 X94.499 Y67.088 E9.43314
G1 X94.86 Y67.078 E9.45374
G1 X95.079 Y67.079 E9.46624
G1 X95.771 Y67.105 E9.50575
G1 X95.985 Y67.12 E9.51799
G1 X96.407 Y67.163 E9.5422
G1 X96.628 Y67.193 E9.55492
G1 X97.299 Y67.307 E9.59376
G1 X97.514 Y67.351 E9.60628
G1 X97.854 Y67.432 E9.62622
G1 X98.057 Y67.487 E9.63822
G1 X98.774 Y67.706 E9.681
G1 X98.989 Y67.78 E9.69397
G1 X99.348 Y67.917 E9.7159
G1 X99.548 Y68.001 E9.72828
G1 X100.199 Y68.299 E9.76913
G1 X100.391 Y68.394 E9.78135
G1 X100.672 Y68.545 E9.79955
G1 X100.857 Y68.653 E9.81178
G1 X101.467 Y69.033 E9.85278
G1 X101.653 Y69.157 E9.86554
G1 X102.049 Y69.442 E9.89338
G1 X102.233 Y69.584 E9.90664
G1 X102.718 Y69.987 E9.94262
G1 X102.87 Y70.122 E9.95422
G1 X103.131 Y70.367 E9.97464
G1 X103.284 Y70.52 E9.98699
G1 X103.823 Y71.096 E10.032
G1 X103.947 Y71.236 E10.04267
G1 X104.376 Y71.749 E10.08083
G1 X104.414 Y71.795 E10.08423
G1 X121.811 Y93.372 E11.66572
G1 X121.841 Y93.41 E11.66848
G1 X122.285 Y93.977 E11.70957
G1 X122.571 Y94.407 E11.73904
G1 X122.788 Y94.877 E11.76858
G1 X122.93 Y95.374 E11.79807
G1 X122.996 Y95.973 E11.83246
G1 X123.01 Y96.648 E11.87098
G1 X123.011 Y96.717 E11.87492
G1 X123.011 Y98.895 E11.99919
G1 X123.001 Y99.622 E12.04068
G1 X122.954 Y100.137 E12.07018
G1 X122.828 Y100.639 E12.09972
G1 X122.626 Y101.115 E12.12922
G1 X122.354 Y101.555 E12.15874
G1 X122.017 Y101.948 E12.18827
G1 X121.624 Y102.284 E12.21778
G1 X121.183 Y102.555 E12.24731
G1 X120.706 Y102.755 E12.27682
G1 X120.204 Y102.88 E12.30634
G1 X119.745 Y102.925 E12.33266
G1 X119.425 Y102.934 E12.35092
G1 X119.331 Y102.935 E12.35629
G1 X71.003 Y102.935 E15.11382
G1 X70.305 Y102.926 E15.15365
G1 X69.79 Y102.879 E15.18316
G1 X69.288 Y102.754 E15.21268
G1 X68.811 Y102.553 E15.24221
G1 X68.371 Y102.281 E15.27173
G1 X67.978 Y101.944 E15.30127
G1 X67.642 Y101.551 E15.33077
G1 X67.37 Y101.111 E15.36028
G1 X67.169 Y100.634 E15.38982
G1 X67.044 Y100.132 E15.41934
G1 X66.999 Y99.667 E15.44599
G1 X66.99 Y99.334 E15.465
G1 X66.989 Y99.243 E15.47019
G1 X66.989 Y96.702 E15.61518
G1 X66.999 Y96.004 E15.65501
G1 X67.047 Y95.489 E15.68452
G1 X67.173 Y94.987 E15.71405
G1 X67.375 Y94.511 E15.74356
G1 X67.7 Y94.002 E15.77802
G1 X68.114 Y93.467 E15.81662
G1 X68.155 Y93.414 E15.82044
G1 X85.299 Y72.148 E17.37905
G1 X85.338 Y72.101 E17.38253
G10
;MESH:leadscrewupperguard.stl
G0 F3600 X89.085 Y71.672
G0 X90.699 Y72.887
G0 X93.501 Y72.008
G0 X95.909 Y71.844
G0 X95.897 Y71.943
;TYPE:WALL-INNER
G11
G1 F1800 X95.616 Y71.919 E17.39863
G1 X95.299 Y71.891 E17.41678
G1 X95.163 Y71.891 E17.42454
G1 X94.701 Y71.891 E17.45091
G1 X94.24 Y71.931 E17.47731
G1 X94.103 Y71.943 E17.48516
G1 X93.84 Y71.989 E17.50039
G1 X93.509 Y72.047 E17.51956
G1 X93.364 Y72.085 E17.52812
G1 X92.95 Y72.197 E17.55259
G1 X92.929 Y72.203 E17.55383
G1 X92.491 Y72.361 E17.5804
G1 X92.364 Y72.408 E17.58813
G1 X92.111 Y72.526 E17.60406
G1 X91.819 Y72.663 E17.62246
G1 X91.706 Y72.728 E17.6299
G1 X91.298 Y72.962 E17.65674
G1 X90.932 Y73.219 E17.68225
G1 X90.805 Y73.309 E17.69114
G1 X90.595 Y73.485 E17.70677
G1 X90.345 Y73.695 E17.7254
G1 X90.25 Y73.79 E17.73307
G1 X89.934 Y74.106 E17.75856
G1 X89.921 Y74.119 E17.75961
G1 X89.611 Y74.488 E17.78711
G1 X89.535 Y74.579 E17.79388
G1 X89.188 Y75.072 E17.82828
G1 X88.889 Y75.593 E17.86255
G1 X88.643 Y76.12 E17.89574
G1 X88.634 Y76.138 E17.89688
G1 X88.429 Y76.703 E17.93118
G1 X88.273 Y77.283 E17.96545
G1 X88.169 Y77.877 E17.99986
G1 X88.117 Y78.475 E18.03411
G1 X88.117 Y79.073 E18.06823
G1 X88.169 Y79.671 E18.10248
G1 X88.273 Y80.265 E18.13689
G1 X88.429 Y80.845 E18.17116
G1 X88.634 Y81.41 E18.20545
G1 X88.889 Y81.956 E18.23984
G1 X89.188 Y82.474 E18.27396
G1 X89.534 Y82.968 E18.30838
G1 X89.922 Y83.429 E18.34276
G1 X90.345 Y83.853 E18.37693
G1 X90.805 Y84.239 E18.41119
G1 X91.298 Y84.586 E18.44559
G1 X91.819 Y84.885 E18.47987
G1 X92.364 Y85.14 E18.5142
G1 X92.929 Y85.345 E18.5485
G1 X93.509 Y85.501 E18.58277
G1 X94.103 Y85.605 E18.61717
G1 X94.701 Y85.657 E18.65142
G1 X95.299 Y85.657 E18.68554
G1 X95.897 Y85.605 E18.71979
G1 X96.491 Y85.501 E18.7542
G1 X97.071 Y85.345 E18.78847
G1 X97.636 Y85.14 E18.82277
G1 X98.181 Y84.885 E18.8571
G1 X98.702 Y84.586 E18.89138
G1 X99.195 Y84.239 E18.92577
G1 X99.655 Y83.853 E18.96004
G1 X100.078 Y83.429 E18.99421
G1 X100.466 Y82.968 E19.02859
G1 X100.812 Y82.474 E19.06301
G1 X101.111 Y81.956 E19.09713
G1 X101.366 Y81.41 E19.13152
G1 X101.571 Y80.845 E19.16581
G1 X101.727 Y80.265 E19.20008
G1 X101.831 Y79.671 E19.23449
G1 X101.883 Y79.073 E19.26874
G1 X101.883 Y78.475 E19.30286
G1 X101.831 Y77.877 E19.33711
G1 X101.727 Y77.283 E19.37152
G1 X101.571 Y76.703 E19.40579
G1 X101.366 Y76.139 E19.44003
G1 X101.366 Y76.138 E19.44009
G1 X101.111 Y75.593 E19.47442
G1 X100.812 Y75.072 E19.5087
G1 X100.465 Y74.579 E19.54309
G1 X100.285 Y74.365 E19.55905
G1 X100.079 Y74.119 E19.57736
G1 X99.978 Y74.018 E19.58551
G1 X99.655 Y73.695 E19.61157
G1 X99.304 Y73.401 E19.6377
G1 X99.195 Y73.309 E19.64584
G1 X98.948 Y73.135 E19.66308
G1 X98.702 Y72.962 E19.68023
G1 X98.572 Y72.888 E19.68877
G1 X98.181 Y72.663 E19.71451
G1 X97.753 Y72.463 E19.74147
G1 X97.636 Y72.408 E19.74884
G1 X97.364 Y72.31 E19.76534
G1 X97.071 Y72.203 E19.78314
G1 X96.936 Y72.167 E19.79111
G1 X96.491 Y72.047 E19.81741
G1 X96.033 Y71.967 E19.84394
G1 X95.897 Y71.943 E19.85182
G0 F3600 X95.813 Y72.588
;TYPE:WALL-OUTER
G1 F1800 X95.271 Y72.541 E19.88286
G1 X94.729 Y72.541 E19.91378
G1 X94.187 Y72.588 E19.94483
G1 X93.65 Y72.682 E19.97593
G1 X93.125 Y72.823 E20.00695
G1 X92.613 Y73.009 E20.03803
G1 X92.119 Y73.24 E20.06915
G1 X91.648 Y73.511 E20.10015
G1 X91.202 Y73.825 E20.13128
G1 X90.785 Y74.175 E20.16234
G1 X90.401 Y74.559 E20.19333
G1 X90.051 Y74.976 E20.22439
G1 X89.737 Y75.422 E20.25551
G1 X89.466 Y75.893 E20.28652
G1 X89.235 Y76.387 E20.31763
G1 X89.049 Y76.899 E20.34872
G1 X88.908 Y77.424 E20.37973
G1 X88.814 Y77.961 E20.41084
G1 X88.767 Y78.503 E20.44188
G1 X88.767 Y79.045 E20.47281
G1 X88.814 Y79.587 E20.50385
G1 X88.908 Y80.124 E20.53496
G1 X89.049 Y80.649 E20.56597
G1 X89.235 Y81.161 E20.59706
G1 X89.466 Y81.655 E20.62817
G1 X89.737 Y82.125 E20.65913
G1 X90.05 Y82.572 E20.69026
G1 X90.401 Y82.989 E20.72136
G1 X90.785 Y83.373 E20.75235
G1 X91.202 Y83.723 E20.78341
G1 X91.648 Y84.037 E20.81454
G1 X92.119 Y84.308 E20.84554
G1 X92.613 Y84.539 E20.87666
G1 X93.125 Y84.725 E20.90774
G1 X93.65 Y84.866 E20.93876
G1 X94.187 Y84.96 E20.96986
G1 X94.729 Y85.007 E21.00091
G1 X95.271 Y85.007 E21.03183
G1 X95.813 Y84.96 E21.06287
G1 X96.35 Y84.866 E21.09398
G1 X96.875 Y84.725 E21.125
G1 X97.387 Y84.539 E21.15608
G1 X97.881 Y84.308 E21.1872
G1 X98.352 Y84.037 E21.2182
G1 X98.798 Y83.723 E21.24932
G1 X99.215 Y83.373 E21.28039
G1 X99.599 Y82.989 E21.31137
G1 X99.95 Y82.572 E21.34248
G1 X100.263 Y82.125 E21.37361
G1 X100.534 Y81.655 E21.40457
G1 X100.765 Y81.161 E21.43568
G1 X100.951 Y80.649 E21.46677
G1 X101.092 Y80.124 E21.49778
G1 X101.186 Y79.587 E21.52889
G1 X101.233 Y79.045 E21.55993
G1 X101.233 Y78.503 E21.59086
G1 X101.186 Y77.961 E21.6219
G1 X101.092 Y77.424 E21.65301
G1 X100.951 Y76.899 E21.68402
G1 X100.765 Y76.387 E21.71511
G1 X100.534 Y75.893 E21.74622
G1 X100.263 Y75.422 E21.77723
G1 X99.949 Y74.976 E21.80835
G1 X99.599 Y74.559 E21.83941
G1 X99.215 Y74.175 E21.8704
G1 X98.798 Y73.825 E21.90146
G1 X98.352 Y73.511 E21.93259
G1 X97.881 Y73.24 E21.96359
G1 X97.387 Y73.009 E21.99471
G1 X96.875 Y72.823 E22.02579
G1 X96.35 Y72.682 E22.05681
G1 X95.813 Y72.588 E22.08791
G0 F3600 X95.415 Y72.554
G0 X95.482 Y71.787
G0 X96.106 Y71.549
;TYPE:WALL-INNER
G1 F1800 X96.57 Y71.637 E22.1042
G1 X96.589 Y71.641
G1 X97.046 Y71.756 E22.12051
G1 X97.2 Y71.806 E22.12566
G1 X97.508 Y71.908 E22.13698
G1 X97.791 Y72.021 E22.14763
G1 X97.933 Y72.079 E22.1524
G1 X98.362 Y72.285 E22.1688
G1 X98.374 Y72.291
G1 X98.384 Y72.296
G1 X98.783 Y72.519 E22.18461
G1 X98.928 Y72.614 E22.19083
G1 X99.193 Y72.787 E22.20183
G1 X99.445 Y72.976 E22.21279
G1 X99.577 Y73.076 E22.21813
G1 X99.922 Y73.372 E22.23373
G1 X99.945 Y73.395
G1 X100.277 Y73.717 E22.24966
G1 X100.387 Y73.84 E22.25557
G1 X100.612 Y74.09 E22.2673
G1 X100.792 Y74.314 E22.27732
G1 X101.171 Y74.783 E22.29897
G1 X101.543 Y75.244 E22.32347
G1 X101.909 Y75.699 E22.35378
G1 X101.91 Y75.7 E22.35386
G1 X118.611 Y96.413 E23.87204
G1 X118.611 Y98.535 E23.99312
G1 X71.389 Y98.535 E26.68754
G1 X71.389 Y96.413 E26.80862
G1 X88.089 Y75.695 E28.32699
G1 X88.454 Y75.242 E28.35686
G1 X88.826 Y74.781 E28.38153
G1 X89.204 Y74.313 E28.40332
G1 X89.284 Y74.214 E28.40671
G1 X89.604 Y73.845 E28.42362
G1 X89.637 Y73.808
G1 X89.948 Y73.49 E28.43893
G1 X90.067 Y73.384 E28.44469
G1 X90.32 Y73.159 E28.45646
G1 X90.547 Y72.981 E28.46655
G1 X90.688 Y72.871 E28.47268
G1 X91.064 Y72.617 E28.48833
G1 X91.085 Y72.602
G1 X91.494 Y72.361 E28.50466
G1 X91.631 Y72.292 E28.51017
G1 X91.931 Y72.141 E28.52182
G1 X92.2 Y72.027 E28.53197
G1 X92.346 Y71.964 E28.53689
G1 X92.79 Y71.809 E28.55305
G1 X92.841 Y71.791
G1 X93.254 Y71.675 E28.56788
G1 X93.425 Y71.64 E28.57358
G1 X93.766 Y71.57 E28.58565
G1 X94.043 Y71.53 E28.5954
G1 X94.203 Y71.507 E28.60048
G1 X94.671 Y71.474 E28.61671
G1 X94.692 Y71.472
G1 X95.163 Y71.466 E28.63303
G1 X95.323 Y71.475 E28.63806
G1 X95.653 Y71.494 E28.64956
G1 X95.947 Y71.529 E28.65991
G1 X96.106 Y71.549 E28.66492
G0 F3600 X96.204 Y70.906
;TYPE:WALL-OUTER
G1 F1800 X96.733 Y71.007 E28.69565
G1 X97.224 Y71.131 E28.72455
G1 X97.734 Y71.299 E28.75519
G1 X98.197 Y71.485 E28.78366
G1 X98.682 Y71.718 E28.81436
G1 X99.116 Y71.96 E28.84271
G1 X99.573 Y72.259 E28.87387
G1 X99.972 Y72.559 E28.90236
G1 X100.375 Y72.905 E28.93266
G1 X100.741 Y73.26 E28.96176
G1 X101.106 Y73.667 E28.99295
G1 X119.261 Y96.184 E30.64334
G1 X119.261 Y99.185 E30.81457
G1 X70.739 Y99.185 E33.58317
G1 X70.739 Y96.184 E33.7544
G1 X88.793 Y73.788 E35.3958
G1 X89.157 Y73.369 E35.42747
G1 X89.496 Y73.023 E35.45511
G1 X89.906 Y72.658 E35.48643
G1 X90.31 Y72.342 E35.51569
G1 X90.736 Y72.053 E35.54507
G1 X91.186 Y71.788 E35.57486
G1 X91.655 Y71.552 E35.60482
G1 X92.117 Y71.355 E35.63348
G1 X92.637 Y71.173 E35.66491
G1 X93.105 Y71.042 E35.69264
G1 X93.641 Y70.932 E35.72387
G1 X94.135 Y70.861 E35.75234
G1 X94.67 Y70.822 E35.78295
G1 X95.178 Y70.816 E35.81194
G1 X95.705 Y70.846 E35.84206
G1 X96.204 Y70.906 E35.87073
G0 F3600 X96.597 Y70.981
G0 X96.453 Y71.738
G0 X98.723 Y72.929
G0 X99.682 Y73.666
G0 X100.414 Y74.466
G0 X102.462 Y77.483
;TYPE:SKIN
G1 F1800 X117.921 Y96.656 E37.27603
G1 X117.921 Y97.845 E37.34387
G1 X72.079 Y97.845 E39.95956
G1 X72.079 Y96.656 E40.0274
G1 X87.539 Y77.478 E41.43295
G1 X87.485 Y77.788 E41.45091
G1 X87.427 Y78.445 E41.48854
G1 X87.427 Y79.103 E41.52608
G1 X87.485 Y79.76 E41.56372
G1 X87.599 Y80.415 E41.60165
G1 X87.77 Y81.052 E41.63929
G1 X87.995 Y81.674 E41.67703
G1 X88.276 Y82.275 E41.71488
G1 X88.606 Y82.845 E41.75246
G1 X88.986 Y83.389 E41.79033
G1 X89.413 Y83.896 E41.82815
G1 X89.878 Y84.362 E41.86571
G1 X90.383 Y84.787 E41.90337
G1 X90.927 Y85.169 E41.9413
G1 X91.5 Y85.498 E41.979
G1 X92.1 Y85.778 E42.01678
G1 X92.722 Y86.004 E42.05454
G1 X93.359 Y86.175 E42.09217
G1 X94.014 Y86.289 E42.13011
G1 X94.671 Y86.347 E42.16774
G1 X95.329 Y86.347 E42.20529
G1 X95.986 Y86.289 E42.24292
G1 X96.641 Y86.175 E42.28086
G1 X97.278 Y86.004 E42.31849
G1 X97.9 Y85.778 E42.35625
G1 X98.5 Y85.498 E42.39403
G1 X99.073 Y85.169 E42.43173
G1 X99.617 Y84.787 E42.46966
G1 X100.122 Y84.362 E42.50732
G1 X100.587 Y83.896 E42.54488
G1 X101.014 Y83.389 E42.5827
G1 X101.394 Y82.845 E42.62057
G1 X101.724 Y82.275 E42.65815
G1 X102.005 Y81.674 E42.696
G1 X102.23 Y81.052 E42.73374
G1 X102.401 Y80.415 E42.77138
G1 X102.515 Y79.76 E42.80931
G1 X102.573 Y79.103 E42.84694
G1 X102.573 Y78.445 E42.88449
G1 X102.515 Y77.788 E42.92212
G1 X102.462 Y77.483 E42.93979
G0 F3600 X102.886 Y79.127
G1 F1800 X105.448 Y81.689 E43.14652
G1 X105.571 Y81.812
G0 F3600 X102.613 Y80.834
G1 F1800 X113.69 Y91.911 E44.04036
G1 X113.813 Y92.034
G0 F3600 X113.369 Y97.529
G1 F1800 X100.382 Y84.543 E45.08828
G0 F3600 X100.872 Y84.043
G1 F1800 X114.358 Y97.529 E46.17651
