;FLAVOR:Marlin
;TIME:3728
;Filament used: 1.75983m
;Layer height: 0.4
;MINX:63.789
;MINY:62.789
;MINZ:0.52
;MAXX:126.211
;MAXY:107.211
;MAXZ:23.72
;Generated with Cura_SteamEngine 4.1.0
M82 ;absolute extrusion mode
M98 P0:/sys/startprint.g

G92 E0
G92 E0
G10
;LAYER_COUNT:59
;LAYER:0
M107
G0 F3600 X65.447 Y64.514 Z0.52
;TYPE:SKIRT
G11
G1 F1800 X65.855 Y64.117 E0.03248
G1 X66.428 Y63.713 E0.07249
G1 X66.856 Y63.464 E0.10074
G1 X67.367 Y63.214 E0.1332
G1 X67.902 Y63.038 E0.16533
G1 X68.104 Y62.987 E0.17722
G1 X68.27 Y62.949 E0.18694
G1 X68.568 Y62.887 E0.20431
G1 X69.261 Y62.804 E0.24413
G1 X69.476 Y62.797 E0.2564
G1 X69.574 Y62.795 E0.262
G1 X69.81 Y62.793 E0.27546
G1 X69.844 Y62.793 E0.2774
G1 X119.789 Y62.789 E3.1272
G1 X119.847 Y62.789 E3.13051
G1 X120.549 Y62.799 E3.17057
G1 X120.989 Y62.83 E3.19574
G1 X121.215 Y62.858 E3.20873
G1 X121.355 Y62.878 E3.2168
G1 X121.568 Y62.912 E3.22911
G1 X122.122 Y63.041 E3.26156
G1 X122.565 Y63.205 E3.28852
G1 X123.032 Y63.411 E3.31764
G1 X123.535 Y63.677 E3.35011
G1 X124.102 Y64.103 E3.39057
G1 X124.492 Y64.453 E3.42047
G1 X124.888 Y64.862 E3.45296
G1 X125.288 Y65.431 E3.49264
G1 X125.534 Y65.854 E3.52056
G1 X125.785 Y66.365 E3.55305
G1 X125.982 Y66.993 E3.5906
G1 X126.096 Y67.495 E3.61998
G1 X126.194 Y68.242 E3.66296
G1 X126.202 Y68.458 E3.6753
G1 X126.205 Y68.57 E3.68169
G1 X126.207 Y68.782 E3.69379
G1 X126.207 Y68.819 E3.6959
G1 X126.211 Y100.745 E5.51755
G1 X126.211 Y100.801 E5.52075
G1 X126.201 Y101.543 E5.56309
G1 X126.173 Y101.965 E5.58722
G1 X126.147 Y102.184 E5.5998
G1 X126.123 Y102.355 E5.60966
G1 X126.087 Y102.577 E5.62249
G1 X125.957 Y103.131 E5.65496
G1 X125.796 Y103.56 E5.6811
G1 X125.595 Y104.017 E5.70959
G1 X125.33 Y104.52 E5.74203
G1 X124.921 Y105.07 E5.78114
G1 X124.567 Y105.47 E5.81162
G1 X124.161 Y105.869 E5.8441
G1 X123.574 Y106.285 E5.88515
G1 X123.147 Y106.534 E5.91335
G1 X122.637 Y106.785 E5.94579
G1 X122.098 Y106.962 E5.97816
G1 X121.896 Y107.013 E5.99004
G1 X121.733 Y107.051 E5.99959
G1 X121.436 Y107.113 E6.01691
G1 X120.739 Y107.196 E6.05696
G1 X120.523 Y107.203 E6.06929
G1 X120.426 Y107.205 E6.07482
G1 X120.19 Y107.207 E6.08829
G1 X120.156 Y107.207 E6.09023
G1 X70.211 Y107.211 E8.94003
G1 X70.153 Y107.211 E8.94334
G1 X69.452 Y107.201 E8.98334
G1 X69.014 Y107.171 E9.00839
G1 X68.787 Y107.143 E9.02144
G1 X68.645 Y107.122 E9.02963
G1 X68.432 Y107.088 E9.04194
G1 X67.878 Y106.959 E9.07439
G1 X67.435 Y106.794 E9.10137
G1 X66.966 Y106.587 E9.13062
G1 X66.463 Y106.321 E9.16308
G1 X65.893 Y105.893 E9.20376
G1 X65.505 Y105.544 E9.23353
G1 X65.109 Y105.135 E9.26602
G1 X64.709 Y104.564 E9.30579
G1 X64.458 Y104.131 E9.33435
G1 X64.208 Y103.62 E9.36681
G1 X64.029 Y103.068 E9.39992
G1 X63.981 Y102.873 E9.41138
G1 X63.948 Y102.725 E9.42003
G1 X63.887 Y102.43 E9.43722
G1 X63.806 Y101.756 E9.47596
G1 X63.798 Y101.534 E9.48863
G1 X63.795 Y101.422 E9.49502
G1 X63.793 Y101.181 E9.50878
G1 X63.793 Y101.148 E9.51066
G1 X63.789 Y69.21 E11.333
G1 X63.789 Y69.152 E11.33631
G1 X63.799 Y68.444 E11.37671
G1 X63.831 Y67.996 E11.40234
G1 X63.858 Y67.781 E11.4147
G1 X63.879 Y67.635 E11.42312
G1 X63.914 Y67.42 E11.43555
G1 X64.044 Y66.867 E11.46796
G1 X64.204 Y66.439 E11.49403
G1 X64.41 Y65.971 E11.52321
G1 X64.675 Y65.468 E11.55565
G1 X65.099 Y64.903 E11.59595
G1 X65.447 Y64.514 E11.62574
G0 F3600 X65.968 Y64.98
G1 F1800 X66.342 Y64.623 E11.65524
G1 X66.78 Y64.318 E11.68569
G1 X67.208 Y64.069 E11.71394
G1 X67.674 Y63.845 E11.74345
G1 X68.073 Y63.717 E11.76736
G1 X68.275 Y63.666 E11.77924
G1 X68.413 Y63.634 E11.78733
G1 X68.711 Y63.572 E11.80469
G1 X69.284 Y63.504 E11.83762
G1 X69.499 Y63.497 E11.84989
G1 X69.58 Y63.495 E11.85451
G1 X69.816 Y63.493 E11.86798
G1 X69.844 Y63.493 E11.86958
G1 X119.789 Y63.489 E14.71937
G1 X119.837 Y63.489 E14.72211
G1 X120.539 Y63.499 E14.76217
G1 X120.903 Y63.524 E14.78299
G1 X121.129 Y63.552 E14.79599
G1 X121.245 Y63.569 E14.80267
G1 X121.458 Y63.603 E14.81498
G1 X121.961 Y63.724 E14.8445
G1 X122.282 Y63.846 E14.8641
G1 X122.749 Y64.052 E14.89322
G1 X123.205 Y64.297 E14.92276
G1 X123.634 Y64.624 E14.95353
G1 X124.024 Y64.974 E14.98343
G1 X124.382 Y65.348 E15.01297
G1 X124.683 Y65.783 E15.04316
G1 X124.929 Y66.206 E15.07108
G1 X125.154 Y66.672 E15.1006
G1 X125.3 Y67.148 E15.12901
G1 X125.414 Y67.65 E15.15839
G1 X125.495 Y68.268 E15.19395
G1 X125.503 Y68.484 E15.20628
G1 X125.505 Y68.576 E15.21153
G1 X125.507 Y68.788 E15.22363
G1 X125.507 Y68.82 E15.22546
G1 X125.511 Y100.746 E17.04711
G1 X125.511 Y100.791 E17.04968
G1 X125.501 Y101.533 E17.09202
G1 X125.478 Y101.883 E17.11204
G1 X125.452 Y102.102 E17.12462
G1 X125.432 Y102.243 E17.13274
G1 X125.396 Y102.465 E17.14558
G1 X125.274 Y102.968 E17.17511
G1 X125.156 Y103.278 E17.19404
G1 X124.955 Y103.735 E17.22252
G1 X124.71 Y104.191 E17.25206
G1 X124.397 Y104.606 E17.28172
G1 X124.043 Y105.006 E17.3122
G1 X123.671 Y105.366 E17.34173
G1 X123.222 Y105.68 E17.373
G1 X122.795 Y105.929 E17.4012
G1 X122.329 Y106.154 E17.43073
G1 X121.927 Y106.283 E17.45482
G1 X121.725 Y106.334 E17.4667
G1 X121.59 Y106.365 E17.47461
G1 X121.293 Y106.427 E17.49192
G1 X120.717 Y106.496 E17.52502
G1 X120.501 Y106.503 E17.53735
G1 X120.42 Y106.505 E17.54197
G1 X120.184 Y106.507 E17.55544
G1 X120.156 Y106.507 E17.55704
G1 X70.211 Y106.511 E20.40683
G1 X70.163 Y106.511 E20.40957
G1 X69.462 Y106.501 E20.44958
G1 X69.1 Y106.476 E20.47028
G1 X68.873 Y106.448 E20.48333
G1 X68.755 Y106.431 E20.49013
G1 X68.542 Y106.397 E20.50244
G1 X68.039 Y106.276 E20.53196
G1 X67.717 Y106.154 E20.55161
G1 X67.248 Y105.947 E20.58086
G1 X66.793 Y105.702 E20.61034
G1 X66.361 Y105.373 E20.64133
G1 X65.973 Y105.024 E20.6711
G1 X65.616 Y104.649 E20.70065
G1 X65.315 Y104.213 E20.73088
G1 X65.064 Y103.78 E20.75943
G1 X64.84 Y103.314 E20.78894
G1 X64.709 Y102.901 E20.81366
G1 X64.661 Y102.706 E20.82512
G1 X64.633 Y102.583 E20.83232
G1 X64.572 Y102.288 E20.8495
G1 X64.505 Y101.731 E20.88151
G1 X64.497 Y101.509 E20.89419
G1 X64.495 Y101.416 E20.8995
G1 X64.493 Y101.175 E20.91325
G1 X64.493 Y101.147 E20.91485
G1 X64.489 Y69.209 E22.73719
G1 X64.489 Y69.162 E22.73987
G1 X64.499 Y68.454 E22.78027
G1 X64.525 Y68.084 E22.80143
G1 X64.552 Y67.869 E22.8138
G1 X64.57 Y67.748 E22.82078
G1 X64.605 Y67.533 E22.83321
G1 X64.727 Y67.03 E22.86274
G1 X64.845 Y66.721 E22.88161
G1 X65.051 Y66.253 E22.91079
G1 X65.295 Y65.797 E22.9403
G1 X65.62 Y65.369 E22.97096
G1 X65.968 Y64.98 E23.00074
G10
;MESH:leadnutholder_cheaper.stl
G0 F3600 X69.438 Y67.263
G0 X93.447 Y81.554
G0 X93.472 Y81.65
;TYPE:WALL-OUTER
G11
G1 F1800 X92.741 Y81.899 E23.04481
G1 X92.049 Y82.24 E23.08883
G1 X91.408 Y82.669 E23.13284
G1 X90.828 Y83.178 E23.17687
G1 X90.319 Y83.758 E23.2209
G1 X89.89 Y84.399 E23.26491
G1 X89.549 Y85.091 E23.30892
G1 X89.3 Y85.822 E23.35299
G1 X89.15 Y86.58 E23.39708
G1 X89.099 Y87.35 E23.44111
G1 X89.15 Y88.12 E23.48514
G1 X89.3 Y88.878 E23.52923
G1 X89.549 Y89.609 E23.57329
G1 X89.89 Y90.301 E23.61731
G1 X90.319 Y90.942 E23.66132
G1 X90.828 Y91.522 E23.70535
G1 X91.408 Y92.031 E23.74938
G1 X92.049 Y92.46 E23.79339
G1 X92.741 Y92.801 E23.83741
G1 X93.472 Y93.05 E23.88147
G1 X94.23 Y93.2 E23.92556
G1 X95 Y93.251 E23.96959
G1 X95.77 Y93.2 E24.01363
G1 X96.528 Y93.05 E24.05772
G1 X97.259 Y92.801 E24.10178
G1 X97.951 Y92.46 E24.1458
G1 X98.592 Y92.031 E24.18981
G1 X99.172 Y91.522 E24.23384
G1 X99.681 Y90.942 E24.27787
G1 X100.11 Y90.301 E24.32188
G1 X100.451 Y89.609 E24.3659
G1 X100.7 Y88.878 E24.40996
G1 X100.85 Y88.12 E24.45405
G1 X100.901 Y87.35 E24.49808
G1 X100.85 Y86.58 E24.54211
G1 X100.7 Y85.822 E24.5862
G1 X100.451 Y85.091 E24.63026
G1 X100.11 Y84.399 E24.67428
G1 X99.681 Y83.758 E24.71829
G1 X99.172 Y83.178 E24.76232
G1 X98.592 Y82.669 E24.80635
G1 X97.951 Y82.24 E24.85036
G1 X97.259 Y81.899 E24.89438
G1 X96.528 Y81.65 E24.93845
G1 X95.77 Y81.5 E24.98254
G1 X95 Y81.449 E25.02657
G1 X94.23 Y81.5 E25.0706
G1 X93.472 Y81.65 E25.11469
G0 F3600 X93.094 Y81.779
G0 X92.847 Y81.049
G0 X121.144 Y67.539
G0 X121.199 Y67.456
G1 F1800 X121.478 Y67.712 E25.13629
G1 X121.67 Y68.043 E25.15813
G1 X121.757 Y68.434 E25.18098
G1 X121.761 Y101.472 E27.06609
G1 X121.708 Y101.847 E27.0877
G1 X121.544 Y102.199 E27.10985
G1 X121.288 Y102.478 E27.13146
G1 X120.957 Y102.67 E27.15329
G1 X120.566 Y102.757 E27.17615
G1 X69.528 Y102.761 E30.08831
G1 X69.153 Y102.708 E30.10992
G1 X68.801 Y102.544 E30.13208
G1 X68.522 Y102.288 E30.15368
G1 X68.33 Y101.957 E30.17552
G1 X68.243 Y101.566 E30.19837
G1 X68.239 Y68.528 E32.08348
G1 X68.292 Y68.153 E32.10509
G1 X68.456 Y67.801 E32.12724
G1 X68.712 Y67.522 E32.14885
G1 X69.043 Y67.33 E32.17068
G1 X69.434 Y67.243 E32.19354
G1 X120.472 Y67.239 E35.1057
G1 X120.847 Y67.292 E35.12731
G1 X121.199 Y67.456 E35.14947
G0 F3600 X121.478 Y67.712
G0 X121.489 Y67.731
G0 X120.821 Y68.117
G0 X120.809 Y68.035
;TYPE:SKIN
G1 F1800 X120.934 Y68.151 E35.1592
G1 X121.019 Y68.297 E35.16884
G1 X121.067 Y68.512 E35.18141
G1 X121.071 Y101.417 E37.05892
G1 X121.038 Y101.651 E37.07241
G1 X120.965 Y101.809 E37.08234
G1 X120.849 Y101.934 E37.09207
G1 X120.703 Y102.019 E37.10171
G1 X120.488 Y102.067 E37.11428
G1 X69.583 Y102.071 E40.01885
G1 X69.349 Y102.038 E40.03233
G1 X69.191 Y101.965 E40.04227
G1 X69.066 Y101.849 E40.052
G1 X68.981 Y101.703 E40.06164
G1 X68.933 Y101.488 E40.0742
G1 X68.929 Y68.583 E41.95172
G1 X68.962 Y68.349 E41.9652
G1 X69.035 Y68.191 E41.97514
G1 X69.151 Y68.066 E41.98487
G1 X69.297 Y67.981 E41.99451
G1 X69.512 Y67.933 E42.00708
G1 X120.417 Y67.929 E44.91165
G1 X120.651 Y67.962 E44.92513
G1 X120.809 Y68.035 E44.93506
G0 F3600 X100.229 Y83.336
G1 F1800 X99.661 Y82.689 E44.98419
G1 X99.014 Y82.121 E45.03331
G1 X98.296 Y81.641 E45.08259
G1 X97.524 Y81.26 E45.13171
G1 X96.707 Y80.982 E45.18096
G1 X95.86 Y80.814 E45.23023
G1 X95 Y80.757 E45.2794
G1 X94.14 Y80.814 E45.32858
G1 X93.293 Y80.982 E45.37785
G1 X92.476 Y81.26 E45.42709
G1 X91.704 Y81.641 E45.47622
G1 X90.986 Y82.121 E45.52549
G1 X90.339 Y82.689 E45.57462
G1 X89.771 Y83.336 E45.62374
G1 X89.291 Y84.054 E45.67302
G1 X88.91 Y84.826 E45.72215
G1 X88.632 Y85.643 E45.77139
G1 X88.464 Y86.49 E45.82066
G1 X88.407 Y87.35 E45.86984
G1 X88.464 Y88.21 E45.91901
G1 X88.632 Y89.057 E45.96828
G1 X88.91 Y89.874 E46.01753
G1 X89.291 Y90.646 E46.06665
G1 X89.771 Y91.364 E46.11593
G1 X90.339 Y92.011 E46.16505
G1 X90.986 Y92.579 E46.21418
G1 X91.704 Y93.059 E46.26346
G1 X92.476 Y93.44 E46.31258
G1 X93.293 Y93.718 E46.36182
G1 X94.14 Y93.886 E46.41109
G1 X95 Y93.943 E46.46027
G1 X95.86 Y93.886 E46.50945
G1 X96.707 Y93.718 E46.55872
G1 X97.524 Y93.44 E46.60796
G1 X98.296 Y93.059 E46.65708
G1 X99.014 Y92.579 E46.70636
G1 X99.661 Y92.011 E46.75548
G1 X100.229 Y91.364 E46.80461
G1 X100.709 Y90.646 E46.85389
G1 X101.09 Y89.874 E46.90301
G1 X101.368 Y89.057 E46.95225
G1 X101.536 Y88.21 E47.00152
G1 X101.593 Y87.35 E47.0507
G1 X101.536 Y86.49 E47.09988
G1 X101.368 Y85.643 E47.14915
G1 X101.09 Y84.826 E47.19839
G1 X100.709 Y84.054 E47.24751
G1 X100.229 Y83.336 E47.29679
G0 F3600 X120.751 Y69.274
G1 F1800 X119.722 Y68.244 E47.37987
G0 F3600 X118.732 Y68.244
G1 F1800 X120.751 Y70.264 E47.54283
G0 F3600 X120.751 Y71.254
G1 F1800 X117.742 Y68.244 E47.78567
G0 F3600 X116.752 Y68.244
G1 F1800 X120.751 Y72.244 E48.1084
G0 F3600 X120.751 Y73.234
G1 F1800 X115.762 Y68.244 E48.51102
G0 F3600 X114.772 Y68.244
G1 F1800 X120.752 Y74.224 E48.99357
G0 F3600 X120.752 Y75.214
G1 F1800 X113.782 Y68.244 E49.556
G0 F3600 X112.792 Y68.244
G1 F1800 X120.752 Y76.204 E50.19832
G0 F3600 X120.752 Y77.194
G1 F1800 X111.802 Y68.244 E50.92052
G0 F3600 X110.812 Y68.244
G1 F1800 X120.752 Y78.184 E51.72261
G0 F3600 X120.752 Y79.174
G1 F1800 X109.823 Y68.245 E52.60451
G0 F3600 X108.833 Y68.245
G1 F1800 X120.753 Y80.165 E53.56637
G0 F3600 X120.753 Y81.155
G1 F1800 X107.843 Y68.245 E54.60812
G0 F3600 X106.853 Y68.245
G1 F1800 X120.753 Y82.145 E55.72975
G0 F3600 X120.753 Y83.135
G1 F1800 X105.863 Y68.245 E56.93127
G0 F3600 X104.873 Y68.245
G1 F1800 X120.753 Y84.125 E58.21268
G0 F3600 X120.754 Y85.115
G1 F1800 X103.883 Y68.245 E59.57402
G0 F3600 X102.893 Y68.245
G1 F1800 X120.754 Y86.105 E61.01524
G0 F3600 X120.754 Y87.095
G1 F1800 X101.903 Y68.245 E62.53634
G0 F3600 X100.914 Y68.245
G1 F1800 X120.754 Y88.085 E64.1373
G0 F3600 X120.754 Y89.075
G1 F1800 X99.924 Y68.246 E65.81809
G0 F3600 X98.934 Y68.246
G1 F1800 X120.754 Y90.065 E67.57878
G0 F3600 X120.754 Y91.056
G1 F1800 X97.944 Y68.246 E69.41939
G0 F3600 X96.954 Y68.246
G1 F1800 X120.754 Y92.046 E71.33989
G0 F3600 X120.754 Y93.036
G1 F1800 X95.964 Y68.246 E73.34027
G0 F3600 X94.975 Y68.246
G1 F1800 X120.754 Y94.026 E75.4205
G0 F3600 X120.754 Y95.016
G1 F1800 X93.985 Y68.246 E77.58062
G0 F3600 X92.995 Y68.246
G1 F1800 X120.755 Y96.006 E79.82066
G0 F3600 X120.755 Y96.996
G1 F1800 X92.005 Y68.246 E82.14059
G0 F3600 X91.015 Y68.246
G1 F1800 X120.755 Y97.986 E84.5404
G0 F3600 X120.755 Y98.976
G1 F1800 X90.025 Y68.246 E87.0201
G0 F3600 X89.036 Y68.247
G1 F1800 X120.755 Y99.966 E89.57961
G0 F3600 X120.755 Y100.956
G1 F1800 X88.046 Y68.247 E92.219
G0 F3600 X87.056 Y68.247
G1 F1800 X120.54 Y101.731 E94.92093
G0 F3600 X119.571 Y101.751
G1 F1800 X86.066 Y68.247 E97.62452
G0 F3600 X85.076 Y68.247
G1 F1800 X97.944 Y81.115 E98.66288
G1 X98.067 Y81.238
G0 F3600 X96.447 Y80.608
G1 F1800 X84.086 Y68.247 E99.66033
G0 F3600 X83.096 Y68.247
G1 F1800 X95.31 Y80.461 E100.64591
G0 F3600 X94.342 Y80.483
G1 F1800 X82.106 Y68.247 E101.63327
G0 F3600 X81.116 Y68.247
G1 F1800 X93.489 Y80.62 E102.63169
G0 F3600 X92.722 Y80.842
G1 F1800 X80.126 Y68.247 E103.64806
G0 F3600 X79.137 Y68.247
G1 F1800 X92.021 Y81.132 E104.68775
G0 F3600 X91.377 Y81.478
G1 F1800 X78.147 Y68.247 E105.75536
G0 F3600 X77.157 Y68.247
G1 F1800 X90.785 Y81.875 E106.85505
G0 F3600 X90.258 Y82.339
G1 F1800 X76.167 Y68.247 E107.99214
G0 F3600 X75.177 Y68.247
G1 F1800 X89.778 Y82.848 E109.17034
G0 F3600 X89.345 Y83.405
G1 F1800 X74.187 Y68.247 E110.39349
G0 F3600 X73.197 Y68.247
G1 F1800 X88.96 Y84.01 E111.66545
G0 F3600 X88.633 Y84.673
G1 F1800 X72.207 Y68.247 E112.99092
G0 F3600 X71.217 Y68.247
G1 F1800 X88.378 Y85.408 E114.37569
G0 F3600 X88.196 Y86.216
G1 F1800 X70.227 Y68.247 E115.82567
G0 F3600 X69.327 Y68.337
G1 F1800 X88.106 Y87.116 E117.34101
G0 F3600 X88.144 Y88.144
G1 F1800 X69.243 Y69.243 E118.86619
G0 F3600 X69.243 Y70.233
G1 F1800 X88.419 Y89.409 E120.41356
G1 X88.542 Y89.532
G0 F3600 X89.408 Y91.388
G1 F1800 X69.243 Y71.223 E122.04074
G0 F3600 X69.243 Y72.213
G1 F1800 X98.783 Y101.753 E124.42441
G0 F3600 X97.793 Y101.753
G1 F1800 X69.243 Y73.203 E126.7282
G0 F3600 X69.244 Y74.193
G1 F1800 X96.803 Y101.753 E128.95207
G0 F3600 X95.813 Y101.753
G1 F1800 X69.244 Y75.183 E131.09604
G0 F3600 X69.244 Y76.173
G1 F1800 X94.823 Y101.753 E133.16014
G0 F3600 X93.833 Y101.753
G1 F1800 X69.244 Y77.163 E135.14434
G0 F3600 X69.244 Y78.154
G1 F1800 X92.843 Y101.753 E137.04862
G0 F3600 X91.853 Y101.753
G1 F1800 X69.244 Y79.144 E138.87301
G0 F3600 X69.244 Y80.134
G1 F1800 X90.863 Y101.753 E140.61752
G0 F3600 X89.874 Y101.754
G1 F1800 X69.244 Y81.124 E142.28222
G0 F3600 X69.244 Y82.114
G1 F1800 X88.884 Y101.754 E143.86703
G0 F3600 X87.894 Y101.754
G1 F1800 X69.245 Y83.104 E145.37192
G0 F3600 X69.245 Y84.094
G1 F1800 X86.904 Y101.754 E146.79692
G0 F3600 X85.914 Y101.754
G1 F1800 X69.245 Y85.084 E148.14203
G0 F3600 X69.245 Y86.074
G1 F1800 X84.924 Y101.754 E149.40726
G0 F3600 X83.934 Y101.754
G1 F1800 X69.245 Y87.064 E150.5926
G0 F3600 X69.246 Y88.055
G1 F1800 X82.945 Y101.754 E151.69802
G0 F3600 X81.955 Y101.754
G1 F1800 X69.246 Y89.045 E152.72355
G0 F3600 X69.246 Y90.035
G1 F1800 X80.965 Y101.754 E153.66919
G0 F3600 X79.975 Y101.754
G1 F1800 X69.246 Y91.025 E154.53495
G0 F3600 X69.246 Y92.015
G1 F1800 X78.985 Y101.754 E155.32082
G0 F3600 X77.995 Y101.754
G1 F1800 X69.246 Y93.005 E156.02681
G0 F3600 X69.246 Y93.995
G1 F1800 X77.006 Y101.754 E156.65294
G0 F3600 X76.016 Y101.754
G1 F1800 X69.246 Y94.985 E157.1992
G0 F3600 X69.246 Y95.975
G1 F1800 X75.026 Y101.754 E157.66556
G0 F3600 X74.036 Y101.754
G1 F1800 X69.247 Y96.966 E158.05196
G0 F3600 X69.247 Y97.956
G1 F1800 X73.046 Y101.754 E158.35847
G0 F3600 X72.056 Y101.754
G1 F1800 X69.247 Y98.946 E158.5851
G0 F3600 X69.247 Y99.936
