;FLAVOR:Marlin
;TIME:10400
;Filament used: 4.71791m
;Layer height: 0.4
;MINX:3.734
;MINY:69.859
;MINZ:0.52
;MAXX:149.981
;MAXY:100.111
;MAXZ:19.72
;Generated with Cura_SteamEngine 4.1.0
M82 ;absolute extrusion mode
M98 P0:/sys/startprint.g

G92 E0
G92 E0
G10
;LAYER_COUNT:49
;LAYER:0
M107
G0 F3600 X23.498 Y70.136 Z0.52
;TYPE:SKIRT
M220 S50
G11
G1 F1800 X23.992 Y69.984 E0.02949
G1 X24.668 Y69.903 E0.06834
G1 X25.484 Y69.889 E0.11491
G1 X56.757 Y69.889 E1.8993
G1 X57.455 Y69.899 E1.93913
G1 X58.015 Y69.955 E1.97125
G1 X59.078 Y70.151 E2.03292
G1 X61.814 Y70.62 E2.19131
G1 X64.554 Y71.009 E2.34922
G1 X67.225 Y71.314 E2.50261
G1 X69.952 Y71.545 E2.65877
G1 X72.694 Y71.7 E2.81547
G1 X75.439 Y71.778 E2.97216
G1 X78.147 Y71.778 E3.12668
G1 X80.891 Y71.7 E3.28331
G1 X83.633 Y71.545 E3.44002
G1 X86.334 Y71.315 E3.59469
G1 X89.09 Y71.002 E3.75295
G1 X91.764 Y70.621 E3.90707
G1 X94.909 Y70.074 E4.08921
G1 X95.657 Y69.932 E4.13265
G1 X96.227 Y69.873 E4.16535
G1 X97.061 Y69.859 E4.21295
G1 X128.333 Y69.859 E5.99729
G1 X129.031 Y69.869 E6.03712
G1 X129.546 Y69.917 E6.06663
G1 X130.048 Y70.043 E6.09616
G1 X130.524 Y70.245 E6.12566
G1 X130.964 Y70.517 E6.15518
G1 X131.47 Y70.974 E6.19408
G1 X132.027 Y71.591 E6.24151
G1 X132.064 Y71.634 E6.24475
G1 X147.716 Y89.572 E7.60313
G1 X148.702 Y90.685 E7.68797
G1 X148.859 Y90.876 E7.70208
G1 X149.112 Y91.208 E7.72589
G1 X149.169 Y91.286 E7.73141
G1 X149.311 Y91.484 E7.74531
G1 X149.579 Y91.926 E7.7748
G1 X149.804 Y92.494 E7.80966
G1 X149.838 Y92.61 E7.81656
G1 X149.944 Y93.116 E7.84606
G1 X149.973 Y93.505 E7.86831
G1 X149.98 Y94.002 E7.89668
G1 X149.98 Y94.047 E7.89924
G1 X149.981 Y95.757 E7.99681
G1 X149.981 Y95.802 E7.99938
G1 X149.972 Y96.496 E8.03898
G1 X149.925 Y97.012 E8.06855
G1 X149.8 Y97.514 E8.09807
G1 X149.599 Y97.99 E8.12755
G1 X149.326 Y98.43 E8.15709
G1 X148.99 Y98.823 E8.1866
G1 X148.597 Y99.159 E8.2161
G1 X148.157 Y99.431 E8.24561
G1 X147.902 Y99.549 E8.26165
G1 X147.452 Y99.735 E8.28943
G1 X146.96 Y99.895 E8.31895
G1 X146.696 Y99.948 E8.33431
G1 X146.248 Y100.019 E8.3602
G1 X145.818 Y100.059 E8.38484
G1 X145.105 Y100.079 E8.42554
G1 X145.011 Y100.08 E8.4309
G1 X124.194 Y100.081 E9.61869
G1 X124.146 Y100.081 E9.62143
G1 X123.446 Y100.071 E9.66137
G1 X123.168 Y100.055 E9.67726
G1 X122.23 Y99.963 E9.73104
G1 X119.48 Y99.729 E9.88852
G1 X116.734 Y99.573 E10.04545
G1 X113.993 Y99.495 E10.20192
G1 X111.286 Y99.495 E10.35637
G1 X108.537 Y99.573 E10.51329
G1 X105.804 Y99.727 E10.66948
G1 X103.082 Y99.958 E10.82535
G1 X102.136 Y100.055 E10.87961
G1 X101.89 Y100.071 E10.89368
G1 X101.571 Y100.08 E10.91189
G1 X101.477 Y100.081 E10.91725
G1 X80.32 Y100.081 E12.12444
G1 X78.705 Y100.058 E12.2166
G1 X75.976 Y100.058 E12.37231
G1 X74.464 Y100.098 E12.45862
G1 X74.414 Y100.099 E12.46147
G1 X73.474 Y100.11 E12.51511
G1 X73.435 Y100.11 E12.51733
G1 X52.618 Y100.111 E13.70513
G1 X52.57 Y100.111 E13.70786
G1 X51.871 Y100.101 E13.74775
G1 X51.593 Y100.085 E13.76364
G1 X50.655 Y99.993 E13.81742
G1 X47.904 Y99.759 E13.97495
G1 X45.158 Y99.603 E14.13189
G1 X42.417 Y99.525 E14.28835
G1 X39.71 Y99.525 E14.44281
G1 X36.961 Y99.603 E14.59973
G1 X34.228 Y99.757 E14.75591
G1 X31.506 Y99.988 E14.91179
G1 X30.56 Y100.085 E14.96605
G1 X30.314 Y100.101 E14.98011
G1 X29.995 Y100.11 E14.99832
G1 X29.901 Y100.111 E15.00369
G1 X8.729 Y100.111 E16.21173
G1 X8.032 Y100.101 E16.25151
G1 X7.628 Y100.07 E16.27463
G1 X7.151 Y100.005 E16.30209
G1 X6.442 Y99.828 E16.34379
G1 X6.101 Y99.702 E16.36453
G1 X6.018 Y99.67 E16.36961
G1 X5.863 Y99.608 E16.37913
G1 X5.399 Y99.38 E16.40863
G1 X4.976 Y99.082 E16.43816
G1 X4.603 Y98.723 E16.4677
G1 X4.29 Y98.311 E16.49722
G1 X4.045 Y97.856 E16.52671
G1 X3.872 Y97.368 E16.55625
G1 X3.777 Y96.86 E16.58574
G1 X3.758 Y96.569 E16.60238
G1 X3.736 Y95.532 E16.66156
G1 X3.735 Y95.463 E16.6655
G1 X3.734 Y94.081 E16.74435
G1 X3.735 Y94.002 E16.74886
G1 X3.748 Y93.433 E16.78133
G1 X3.8 Y92.919 E16.81081
G1 X3.93 Y92.418 E16.84035
G1 X4.136 Y91.944 E16.86984
G1 X4.384 Y91.544 E16.89669
G1 X4.684 Y91.13 E16.92586
G1 X4.777 Y91.009 E16.93457
G1 X4.914 Y90.837 E16.94712
G1 X5.001 Y90.732 E16.9549
G1 X5.547 Y90.101 E17.00251
G1 X5.569 Y90.075 E17.00445
G1 X7.144 Y88.292 E17.1402
G1 X7.145 Y88.292 E17.14025
G1 X21.758 Y71.544 E18.40849
G1 X21.79 Y71.507 E18.41128
G1 X22.233 Y71.014 E18.4491
G1 X22.608 Y70.657 E18.47864
G1 X23.033 Y70.362 E18.50816
G1 X23.498 Y70.136 E18.53766
G10
;MESH:psumount.stl
G0 F3600 X25.208 Y72.355
G0 X25.208 Y74.307
G0 X53.029 Y77.441
G0 X52.959 Y77.511
;TYPE:WALL-INNER
G11
G1 F1800 X29.181 Y77.511 E19.8944
G1 X29.181 Y95.711 E20.93287
G1 X8.489 Y95.711 E22.11353
G1 X8.144 Y95.711 E22.13321
G1 X8.135 Y95.71 E22.13373
G1 X8.135 Y95.365 E22.15342
G1 X8.136 Y93.848 E22.23997
G1 X8.215 Y93.738 E22.2477
G1 X8.495 Y93.408 E22.2724
G1 X10.245 Y91.43 E22.42309
G1 X25.2 Y74.289 E23.72105
G1 X56.94 Y74.289 E25.5321
G1 X73.486 Y93.254 E26.96816
G1 X73.847 Y93.64 E26.99832
G1 X74.004 Y93.852 E27.01337
G1 X74.005 Y95.36 E27.09942
G1 X74.005 Y95.709 E27.11933
G1 X73.656 Y95.709 E27.13221
G1 X53.308 Y95.711 E28.29324
G1 X52.959 Y95.711 E28.31315
G1 X52.959 Y95.362 E28.32604
G1 X52.959 Y77.511 E29.34459
G0 F3600 X52.309 Y78.161
;TYPE:WALL-OUTER
G1 F1800 X29.831 Y78.161 E30.62716
G1 X29.831 Y96.361 E31.66562
G1 X8.133 Y96.361 E32.90368
G1 X8.096 Y96.361 E32.90579
G1 X7.685 Y96.303 E32.92948
G1 X7.485 Y96.226 E32.94171
G1 X7.485 Y96.189 E32.94382
G1 X7.486 Y93.637 E33.08943
G1 X7.7 Y93.341 E33.11027
G1 X8.008 Y92.977 E33.13748
G1 X9.757 Y91.001 E33.28805
G1 X24.905 Y73.639 E34.60275
G1 X57.235 Y73.639 E36.44746
G1 X73.969 Y92.818 E37.89978
G1 X74.35 Y93.226 E37.93164
G1 X74.654 Y93.637 E37.9608
G1 X74.655 Y96.19 E38.10647
G1 X74.655 Y96.227 E38.10859
G1 X74.46 Y96.303 E38.12053
G1 X74.044 Y96.36 E38.14449
G1 X74.007 Y96.36 E38.1466
G1 X52.659 Y96.361 E39.36469
G1 X52.309 Y96.361 E39.38466
G1 X52.309 Y96.011 E39.39758
G1 X52.309 Y78.161 E40.41608
G0 F3600 X51.909 Y78.161
G0 X51.909 Y77.391
G0 X53.649 Y76.821
;TYPE:SKIN
G1 F1800 X28.491 Y76.821 E41.85156
G1 X28.491 Y95.021 E42.89003
G1 X8.825 Y95.021 E44.01214
G1 X8.826 Y94.084 E44.06561
G1 X9.012 Y93.865 E44.082
G1 X10.763 Y91.885 E44.23282
G1 X25.514 Y74.979 E45.51303
G1 X56.626 Y74.979 E47.28824
G1 X72.974 Y93.717 E48.70712
G1 X73.314 Y94.081 E48.73554
G1 X73.315 Y95.019 E48.78906
G1 X53.649 Y95.021 E49.91118
G1 X53.649 Y76.821 E50.94964
G0 F3600 X55.494 Y75.293
G1 F1800 X63.243 Y83.042 E51.57494
G1 X63.366 Y83.165
G0 F3600 X53.964 Y82.672
G1 F1800 X65.994 Y94.703 E52.54571
G0 F3600 X65.005 Y94.703
G1 F1800 X53.964 Y83.662 E53.43665
G0 F3600 X53.964 Y84.652
G1 F1800 X64.015 Y94.703 E54.24769
G0 F3600 X63.025 Y94.704
G1 F1800 X53.964 Y85.642 E54.9789
G0 F3600 X53.964 Y86.632
G1 F1800 X62.035 Y94.704 E55.63021
G0 F3600 X61.045 Y94.704
G1 F1800 X53.964 Y87.622 E56.20164
G0 F3600 X53.964 Y88.612
G1 F1800 X60.055 Y94.704 E56.69318
G0 F3600 X59.066 Y94.704
G1 F1800 X53.964 Y89.602 E57.10488
G0 F3600 X53.964 Y90.592
G1 F1800 X58.076 Y94.704 E57.43669
G0 F3600 X57.086 Y94.704
G1 F1800 X53.964 Y91.582 E57.68861
G0 F3600 X53.964 Y92.572
G1 F1800 X56.096 Y94.704 E57.86065
G0 F3600 X55.106 Y94.704
G1 F1800 X53.964 Y93.562 E57.9528
G0 F3600 X53.964 Y94.552
G1 F1800 X54.116 Y94.704 E57.96507
G0 F3600 X66.984 Y94.703
G1 F1800 X53.964 Y81.682 E59.01573
G0 F3600 X53.964 Y80.692
G1 F1800 X67.974 Y94.703 E60.14628
G0 F3600 X68.964 Y94.703
G1 F1800 X53.964 Y79.702 E61.35672
G0 F3600 X53.964 Y78.713
G1 F1800 X69.954 Y94.703 E62.64701
G0 F3600 X70.944 Y94.703
G1 F1800 X53.964 Y77.723 E64.01718
G0 F3600 X53.964 Y76.733
G1 F1800 X71.934 Y94.703 E65.46723
G0 F3600 X72.924 Y94.703
G1 F1800 X53.514 Y75.293 E67.03349
G0 F3600 X52.524 Y75.293
G1 F1800 X53.736 Y76.505 E67.13129
G0 F3600 X52.746 Y76.505
G1 F1800 X51.534 Y75.293 E67.22909
G0 F3600 X50.544 Y75.293
G1 F1800 X51.756 Y76.505 E67.32689
G0 F3600 X50.766 Y76.505
G1 F1800 X49.554 Y75.293 E67.42469
G0 F3600 X48.564 Y75.293
G1 F1800 X49.776 Y76.505 E67.52249
G0 F3600 X48.786 Y76.505
G1 F1800 X47.574 Y75.293 E67.62029
G0 F3600 X46.584 Y75.293
G1 F1800 X47.796 Y76.505 E67.71809
G0 F3600 X46.806 Y76.505
G1 F1800 X45.594 Y75.293 E67.81589
G0 F3600 X44.605 Y75.293
G1 F1800 X45.816 Y76.505 E67.91365
G0 F3600 X44.827 Y76.505
G1 F1800 X43.615 Y75.293 E68.01145
G0 F3600 X42.625 Y75.293
G1 F1800 X43.837 Y76.505 E68.10925
G0 F3600 X42.847 Y76.505
G1 F1800 X41.635 Y75.293 E68.20705
G0 F3600 X40.645 Y75.293
G1 F1800 X41.857 Y76.505 E68.30485
G0 F3600 X40.867 Y76.505
G1 F1800 X39.655 Y75.293 E68.40265
G0 F3600 X38.665 Y75.293
G1 F1800 X39.877 Y76.505 E68.50045
G0 F3600 X38.887 Y76.505
G1 F1800 X37.675 Y75.293 E68.59825
G0 F3600 X36.685 Y75.293
G1 F1800 X37.897 Y76.505 E68.69605
G0 F3600 X36.907 Y76.505
G1 F1800 X35.695 Y75.293 E68.79385
G0 F3600 X34.705 Y75.293
G1 F1800 X35.917 Y76.505 E68.89165
G0 F3600 X34.927 Y76.505
G1 F1800 X33.715 Y75.293 E68.98945
G0 F3600 X32.725 Y75.293
G1 F1800 X33.937 Y76.505 E69.08725
G0 F3600 X32.947 Y76.505
G1 F1800 X31.735 Y75.293 E69.18505
G0 F3600 X30.745 Y75.293
G1 F1800 X31.957 Y76.505 E69.28285
G0 F3600 X30.967 Y76.505
G1 F1800 X29.755 Y75.293 E69.38065
G0 F3600 X28.765 Y75.293
G1 F1800 X29.977 Y76.505 E69.47845
G0 F3600 X28.987 Y76.505
G1 F1800 X27.775 Y75.293 E69.57625
G0 F3600 X26.785 Y75.293
G1 F1800 X28.176 Y76.683 E69.68845
G0 F3600 X28.176 Y77.673
G1 F1800 X25.795 Y75.293 E69.88054
G0 F3600 X25.259 Y75.747
G1 F1800 X28.176 Y78.663 E70.11589
G0 F3600 X28.176 Y79.653
G1 F1800 X24.798 Y76.276 E70.38843
G0 F3600 X24.337 Y76.805
G1 F1800 X28.176 Y80.643 E70.69817
G0 F3600 X28.176 Y81.633
G1 F1800 X23.876 Y77.333 E71.04515
G0 F3600 X23.415 Y77.862
G1 F1800 X28.176 Y82.623 E71.42933
G0 F3600 X28.176 Y83.613
G1 F1800 X22.954 Y78.391 E71.85071
G0 F3600 X22.492 Y78.919
G1 F1800 X28.176 Y84.603 E72.30937
G0 F3600 X28.176 Y85.593
G1 F1800 X22.031 Y79.448 E72.80523
G0 F3600 X21.57 Y79.977
G1 F1800 X28.176 Y86.583 E73.33829
G0 F3600 X28.176 Y87.573
G1 F1800 X21.108 Y80.505 E73.90863
G0 F3600 X20.647 Y81.034
G1 F1800 X28.176 Y88.563 E74.51617
G0 F3600 X28.176 Y89.552
G1 F1800 X20.186 Y81.563 E75.16086
G0 F3600 X19.724 Y82.091
G1 F1800 X28.176 Y90.542 E75.84284
G0 F3600 X28.176 Y91.532
G1 F1800 X19.263 Y82.62 E76.56202
G0 F3600 X18.801 Y83.148
G1 F1800 X28.176 Y92.522 E77.31848
G0 F3600 X28.176 Y93.512
G1 F1800 X18.34 Y83.677 E78.11214
G0 F3600 X17.879 Y84.206
G1 F1800 X28.176 Y94.502 E78.94299
G0 F3600 X27.388 Y94.704
G1 F1800 X17.418 Y84.734 E79.7475
G0 F3600 X16.957 Y85.263
G1 F1800 X26.398 Y94.704 E80.50933
G0 F3600 X25.408 Y94.704
G1 F1800 X16.496 Y85.792 E81.22847
G0 F3600 X16.034 Y86.32
G1 F1800 X24.418 Y94.704 E81.905
G0 F3600 X23.428 Y94.704
G1 F1800 X15.573 Y86.849 E82.53884
G0 F3600 X15.112 Y87.378
G1 F1800 X22.438 Y94.704 E83.13
G0 F3600 X21.448 Y94.704
G1 F1800 X14.65 Y87.906 E83.67855
G0 F3600 X14.189 Y88.435
G1 F1800 X20.458 Y94.704 E84.18442
G0 F3600 X19.468 Y94.704
G1 F1800 X13.728 Y88.964 E84.6476
G0 F3600 X13.266 Y89.492
G1 F1800 X18.478 Y94.704 E85.06817
G0 F3600 X17.488 Y94.704
G1 F1800 X12.805 Y90.021 E85.44606
G0 F3600 X12.344 Y90.55
G1 F1800 X16.498 Y94.704 E85.78125
G0 F3600 X15.508 Y94.704
G1 F1800 X11.882 Y91.078 E86.07385
G0 F3600 X11.421 Y91.607
G1 F1800 X14.519 Y94.704 E86.3238
G0 F3600 X13.529 Y94.704
G1 F1800 X10.96 Y92.136 E86.53106
G0 F3600 X10.495 Y92.661
G1 F1800 X12.539 Y94.704 E86.69595
G0 F3600 X11.549 Y94.704
G1 F1800 X10.031 Y93.186 E86.81844
G0 F3600 X9.566 Y93.712
G1 F1800 X10.559 Y94.704 E86.89853
G0 F3600 X9.569 Y94.704
G1 F1800 X9.14 Y94.276 E86.93311
G0 F3600 X29.153 Y77.483
G0 X54.504 Y75.293
G1 F1800 X70.013 Y90.802 E88.18458
G1 X70.136 Y90.925
G10
;MESH:psumount.stl(1)
G0 F3600 X73.472 Y93.267
G0 X74.922 Y91.959
G0 X78.597 Y92.128
G0 X80.086 Y93.391
G0 X100.729 Y77.453
G0 X124.605 Y77.411
G0 X124.535 Y77.481
;TYPE:WALL-INNER
G11
G1 F1800 X100.757 Y77.481 E89.54132
G1 X100.757 Y95.681 E90.57979
G1 X79.72 Y95.681 E91.78013
G1 X79.711 Y95.68 E91.78065
G1 X79.711 Y93.82 E91.88678
G1 X79.796 Y93.703 E91.89503
G1 X80.071 Y93.378 E91.91932
G1 X81.821 Y91.4 E92.07002
G1 X96.776 Y74.259 E93.36798
G1 X128.516 Y74.259 E95.17902
G1 X145.063 Y93.224 E96.61513
G1 X145.426 Y93.611 E96.6454
G1 X145.58 Y93.82 E96.66022
G1 X145.581 Y95.33 E96.74637
G1 X145.581 Y95.679 E96.76629
G1 X145.232 Y95.679 E96.77917
G1 X124.884 Y95.681 E97.9402
G1 X124.535 Y95.681 E97.96011
G1 X124.535 Y95.332 E97.97299
G1 X124.535 Y77.481 E98.99155
G0 F3600 X123.885 Y78.131
;TYPE:WALL-OUTER
G1 F1800 X101.407 Y78.131 E100.27411
G1 X101.407 Y96.331 E101.31258
G1 X79.672 Y96.331 E102.55275
G1 X79.261 Y96.273 E102.57644
G1 X79.061 Y96.196 E102.58866
G1 X79.061 Y93.611 E102.73616
G1 X79.285 Y93.3 E102.75803
G1 X79.584 Y92.947 E102.78443
G1 X81.333 Y90.971 E102.935
G1 X96.481 Y73.609 E104.2497
G1 X128.811 Y73.609 E106.09441
G1 X145.545 Y92.788 E107.54673
G1 X145.93 Y93.199 E107.57886
G1 X146.23 Y93.606 E107.60771
G1 X146.231 Y96.16 E107.75344
G1 X146.231 Y96.197 E107.75555
G1 X146.036 Y96.273 E107.76749
G1 X145.62 Y96.33 E107.79145
G1 X145.583 Y96.33 E107.79356
G1 X124.235 Y96.331 E109.01165
G1 X123.885 Y96.331 E109.03162
G1 X123.885 Y95.981 E109.04455
G1 X123.885 Y78.131 E110.06304
G0 F3600 X123.485 Y78.131
G0 X123.485 Y77.361
G0 X125.225 Y76.791
;TYPE:SKIN
G1 F1800 X100.067 Y76.791 E111.49853
G1 X100.067 Y94.991 E112.53699
G1 X80.401 Y94.991 E113.65911
G1 X80.401 Y94.056 E113.71246
G1 X80.588 Y93.835 E113.72898
G1 X82.339 Y91.855 E113.8798
G1 X97.09 Y74.949 E115.16
G1 X128.202 Y74.949 E116.93521
G1 X144.551 Y93.687 E118.35413
G1 X144.889 Y94.047 E118.38231
G1 X144.891 Y94.989 E118.43606
G1 X125.225 Y94.991 E119.55817
G1 X125.225 Y76.791 E120.59664
G0 F3600 X127.731 Y75.264
G1 F1800 X130.294 Y77.827 E120.80346
G1 X130.417 Y77.95
G0 F3600 X126.741 Y75.264
G1 F1800 X137.068 Y85.591 E121.63678
G1 X137.191 Y85.714
G0 F3600 X137.242 Y94.674
G1 F1800 X125.539 Y82.971 E122.58113
G0 F3600 X125.539 Y81.981
G1 F1800 X138.231 Y94.673 E123.60529
G0 F3600 X139.221 Y94.673
G1 F1800 X125.539 Y80.991 E124.70933
G0 F3600 X125.539 Y80.001
G1 F1800 X140.211 Y94.673 E125.89326
G0 F3600 X141.201 Y94.673
G1 F1800 X125.539 Y79.011 E127.15708
G0 F3600 X125.539 Y78.021
G1 F1800 X142.191 Y94.673 E128.50078
G0 F3600 X143.181 Y94.673
G1 F1800 X125.539 Y77.031 E129.92437
G0 F3600 X124.983 Y76.475
G1 F1800 X123.771 Y75.264 E130.02213
G0 F3600 X122.782 Y75.264
G1 F1800 X123.993 Y76.475 E130.11985
G0 F3600 X123.003 Y76.475
G1 F1800 X121.792 Y75.264 E130.21757
G0 F3600 X120.802 Y75.264
G1 F1800 X122.013 Y76.475 E130.31529
G0 F3600 X121.023 Y76.475
G1 F1800 X119.812 Y75.264 E130.41301
G0 F3600 X118.822 Y75.264
G1 F1800 X120.033 Y76.475 E130.51072
G0 F3600 X119.043 Y76.475
G1 F1800 X117.832 Y75.264 E130.60844
G0 F3600 X116.842 Y75.264
G1 F1800 X118.053 Y76.475 E130.70616
G0 F3600 X117.063 Y76.475
G1 F1800 X115.852 Y75.264 E130.80388
G0 F3600 X114.862 Y75.264
G1 F1800 X116.073 Y76.475 E130.9016
G0 F3600 X115.083 Y76.475
G1 F1800 X113.872 Y75.264 E130.99932
G0 F3600 X112.882 Y75.264
G1 F1800 X114.093 Y76.475 E131.09704
G0 F3600 X113.103 Y76.475
G1 F1800 X111.892 Y75.264 E131.19476
G0 F3600 X110.902 Y75.264
G1 F1800 X112.113 Y76.475 E131.29248
G0 F3600 X111.123 Y76.475
G1 F1800 X109.912 Y75.264 E131.3902
G0 F3600 X108.922 Y75.264
G1 F1800 X110.134 Y76.475 E131.48796
G0 F3600 X109.144 Y76.475
G1 F1800 X107.932 Y75.264 E131.58572
G0 F3600 X106.942 Y75.264
G1 F1800 X108.154 Y76.475 E131.68348
G0 F3600 X107.164 Y76.475
G1 F1800 X105.952 Y75.264 E131.78124
G0 F3600 X104.962 Y75.264
G1 F1800 X106.174 Y76.475 E131.879
G0 F3600 X105.184 Y76.475
G1 F1800 X103.972 Y75.264 E131.97676
G0 F3600 X102.983 Y75.264
G1 F1800 X104.194 Y76.475 E132.07448
G0 F3600 X103.204 Y76.475
G1 F1800 X101.993 Y75.264 E132.1722
G0 F3600 X101.003 Y75.264
G1 F1800 X102.214 Y76.475 E132.26992
G0 F3600 X101.224 Y76.475
G1 F1800 X100.013 Y75.264 E132.36764
G0 F3600 X99.023 Y75.264
G1 F1800 X100.234 Y76.475 E132.46536
G0 F3600 X99.751 Y76.982
G1 F1800 X98.033 Y75.264 E132.60399
G0 F3600 X97.143 Y75.364
G1 F1800 X99.751 Y77.972 E132.81443
G0 F3600 X99.751 Y78.962
G1 F1800 X96.682 Y75.893 E133.06208
G0 F3600 X96.22 Y76.421
