;FLAVOR:Marlin
;TIME:9416
;Filament used: 5.31125m
;Layer height: 0.4
;MINX:30.889
;MINY:63.389
;MINZ:0.52
;MAXX:159.111
;MAXY:106.611
;MAXZ:57.32
;Generated with Cura_SteamEngine 4.1.0
M82 ;absolute extrusion mode
M98 P0:/sys/startprint.g

G92 E0
G92 E0
G10
;LAYER_COUNT:143
;LAYER:0
M107
G0 F3600 X33.606 Y63.971 Z0.52
;TYPE:SKIRT
G11
G1 F1800 X34.072 Y63.745 E0.02955
G1 X34.473 Y63.617 E0.05357
G1 X34.675 Y63.566 E0.06546
G1 X34.81 Y63.535 E0.07336
G1 X35.107 Y63.473 E0.09067
G1 X35.684 Y63.404 E0.12383
G1 X35.901 Y63.397 E0.13622
G1 X35.981 Y63.395 E0.14078
G1 X36.22 Y63.393 E0.15442
G1 X36.247 Y63.393 E0.15596
G1 X48.155 Y63.39 E0.83542
G1 X115.134 Y63.389 E4.65715
G1 X153.395 Y63.39 E6.84027
G1 X153.443 Y63.39 E6.84301
G1 X154.146 Y63.4 E6.88313
G1 X154.566 Y63.433 E6.90717
G1 X154.991 Y63.493 E6.93166
G1 X155.496 Y63.605 E6.96117
G1 X155.87 Y63.743 E6.98392
G1 X156.364 Y63.96 E7.0147
G1 X156.82 Y64.204 E7.04421
G1 X157.284 Y64.56 E7.07758
G1 X157.654 Y64.9 E7.10626
G1 X158.006 Y65.279 E7.13577
G1 X158.283 Y65.683 E7.16372
G1 X158.529 Y66.106 E7.19164
G1 X158.754 Y66.572 E7.22117
G1 X158.9 Y67.048 E7.24957
G1 X159.014 Y67.55 E7.27895
G1 X159.095 Y68.168 E7.31451
G1 X159.103 Y68.384 E7.32684
G1 X159.105 Y68.476 E7.3321
G1 X159.107 Y68.688 E7.34419
G1 X159.107 Y68.72 E7.34602
G1 X159.111 Y100.887 E9.18142
G1 X159.111 Y100.935 E9.18416
G1 X159.101 Y101.636 E9.22417
G1 X159.078 Y101.984 E9.24407
G1 X159.051 Y102.211 E9.25711
G1 X159.03 Y102.356 E9.26547
G1 X158.995 Y102.57 E9.27784
G1 X158.872 Y103.072 E9.30733
G1 X158.756 Y103.378 E9.326
G1 X158.555 Y103.835 E9.35449
G1 X158.31 Y104.291 E9.38403
G1 X157.996 Y104.707 E9.41377
G1 X157.641 Y105.108 E9.44433
G1 X157.27 Y105.467 E9.47378
G1 X156.818 Y105.782 E9.50522
G1 X156.392 Y106.03 E9.53334
G1 X155.927 Y106.255 E9.56282
G1 X155.527 Y106.383 E9.58678
G1 X155.325 Y106.434 E9.59867
G1 X155.187 Y106.466 E9.60675
G1 X154.889 Y106.528 E9.62412
G1 X154.316 Y106.596 E9.65704
G1 X154.1 Y106.603 E9.66938
G1 X154.019 Y106.605 E9.674
G1 X153.776 Y106.607 E9.68786
G1 X153.749 Y106.607 E9.68941
G1 X144.313 Y106.611 E10.22781
G1 X144.266 Y106.611 E10.23049
G1 X143.606 Y106.602 E10.26816
G1 X143.045 Y106.547 E10.30032
G1 X142.1 Y106.373 E10.35515
G1 X139.406 Y105.912 E10.5111
G1 X136.7 Y105.528 E10.66704
G1 X133.966 Y105.219 E10.82404
G1 X131.264 Y104.99 E10.97876
G1 X128.52 Y104.835 E11.13558
G1 X124.443 Y104.75 E11.36826
G1 X65.561 Y104.75 E14.72799
G1 X62.77 Y104.789 E14.88725
G1 X60.063 Y104.904 E15.04185
G1 X57.32 Y105.099 E15.19876
G1 X54.594 Y105.369 E15.35506
G1 X51.876 Y105.717 E15.51141
G1 X49.211 Y106.136 E15.66534
G1 X47.56 Y106.442 E15.76115
G1 X47.52 Y106.449 E15.76347
G1 X46.936 Y106.55 E15.79728
G1 X46.467 Y106.597 E15.82418
G1 X46.105 Y106.608 E15.84484
G1 X46.003 Y106.61 E15.85066
G1 X36.613 Y106.611 E16.38645
G1 X36.566 Y106.611 E16.38913
G1 X35.922 Y106.602 E16.42588
G1 X35.527 Y106.573 E16.44848
G1 X35.024 Y106.506 E16.47743
G1 X34.275 Y106.316 E16.52152
G1 X34.041 Y106.227 E16.53581
G1 X33.797 Y106.123 E16.55094
G1 X33.586 Y106.023 E16.56426
G1 X33.137 Y105.766 E16.59378
G1 X32.846 Y105.544 E16.61467
G1 X32.545 Y105.287 E16.63725
G1 X32.116 Y104.846 E16.67235
G1 X31.938 Y104.626 E16.6885
G1 X31.661 Y104.229 E16.71612
G1 X31.512 Y103.978 E16.73278
G1 X31.283 Y103.514 E16.7623
G1 X31.162 Y103.152 E16.78408
G1 X31.029 Y102.666 E16.81283
G1 X30.931 Y102.158 E16.84235
G1 X30.91 Y101.836 E16.86076
G1 X30.899 Y101.148 E16.90002
G1 X30.899 Y101.096 E16.90299
G1 X30.89 Y87.277 E17.69149
G1 X30.89 Y87.275 E17.6916
G1 X30.889 Y69.079 E18.72984
G1 X30.889 Y69.03 E18.73264
G1 X30.899 Y68.352 E18.77133
G1 X30.926 Y67.974 E18.79295
G1 X30.954 Y67.756 E18.80549
G1 X30.968 Y67.657 E18.81119
G1 X31.002 Y67.443 E18.82356
G1 X31.123 Y66.94 E18.85308
G1 X31.247 Y66.615 E18.87293
G1 X31.453 Y66.149 E18.902
G1 X31.698 Y65.693 E18.93153
G1 X32.02 Y65.27 E18.96187
G1 X32.367 Y64.882 E18.99157
G1 X32.741 Y64.524 E19.02111
G1 X33.177 Y64.221 E19.0514
G1 X33.606 Y63.971 E19.07973
G10
;MESH:psushield.stl
G0 F3600 X48.155 Y65.857
G0 X48.156 Y67.145
G0 X144.34 Y67.89
G0 X144.34 Y67.789
;TYPE:WALL-INNER
G11
G1 F1800 X144.847 Y67.789 E19.10866
G1 X154.027 Y67.79 E19.63246
G1 X154.261 Y67.823 E19.64595
G1 X154.434 Y67.903 E19.65682
G1 X154.566 Y68.024 E19.66704
G1 X154.658 Y68.183 E19.67752
G1 X154.707 Y68.403 E19.69038
G1 X154.711 Y101.523 E21.58016
G1 X154.677 Y101.761 E21.59388
G1 X154.597 Y101.934 E21.60476
G1 X154.476 Y102.066 E21.61497
G1 X154.317 Y102.158 E21.62546
G1 X154.097 Y102.207 E21.63832
G1 X145.038 Y102.211 E22.15521
G1 X144.689 Y102.211 E22.17513
G1 X144.689 Y101.862 E22.18801
G1 X144.69 Y100.699 E22.25437
G1 X144.69 Y100.35 E22.27428
G1 X144.341 Y100.35 E22.28716
G1 X45.311 Y100.35 E27.93768
G1 X45.31 Y102.21 E28.04381
G1 X35.979 Y102.211 E28.57623
G1 X35.721 Y102.172 E28.59111
G1 X35.577 Y102.105 E28.60018
G1 X35.44 Y101.985 E28.61057
G1 X35.35 Y101.839 E28.62035
G1 X35.299 Y101.644 E28.63186
G1 X35.29 Y87.213 E29.45527
G1 X35.289 Y68.475 E30.52443
G1 X35.323 Y68.239 E30.53804
G1 X35.403 Y68.066 E30.54892
G1 X35.524 Y67.934 E30.55913
G1 X35.683 Y67.842 E30.56961
G1 X35.903 Y67.793 E30.58247
G1 X45.149 Y67.791 E31.11004
G1 X45.658 Y67.791 E31.13908
G1 X48.156 Y67.79 E31.28161
G1 X109.41 Y67.79 E34.77669
G1 X115.135 Y67.789 E35.10335
G1 X144.34 Y67.789 E36.76975
G0 F3600 X144.34 Y67.89
G0 X144.918 Y69.114
G0 X142.351 Y71.686
G0 X142.066 Y71
;TYPE:WALL-OUTER
G1 F1800 X143.97 Y69.096 E36.92339
G1 X144.111 Y68.955 E36.93477
G1 X143.906 Y68.461 E36.96528
G1 X143.706 Y68.461 E36.97669
G1 X109.411 Y68.461 E38.93352
G1 X46.293 Y68.46 E42.53495
G1 X46.093 Y68.46 E42.54636
G1 X45.888 Y68.954 E42.57688
G1 X46.029 Y69.095 E42.58826
G1 X47.934 Y71 E42.74198
G1 X142.066 Y71 E48.11303
G0 F3600 X142.348 Y70.718
G0 X142.891 Y71.263
G0 X142.335 Y71.65
;TYPE:WALL-INNER
G1 F1800 X144.878 Y69.107 E48.31823
G1 X144.534 Y68.279 E48.36939
G1 X144.34 Y67.811 E48.38665
G1 X115.135 Y67.811 E48.4391
G1 X109.411 Y67.811 E48.44912
G1 X48.156 Y67.811 E48.55415
G1 X45.659 Y67.81 E48.5582
G1 X45.464 Y68.28 E48.57547
G1 X45.121 Y69.106 E48.6265
G1 X47.665 Y71.65 E48.83179
G1 X142.335 Y71.65 E54.23353
G0 F3600 X142.335 Y71.75
G0 X144.789 Y101.001
G0 X144.04 Y101
;TYPE:WALL-OUTER
G1 F1800 X143.69 Y101 E54.2535
G1 X45.961 Y101 E59.82979
G1 X45.96 Y102.86 E59.93592
G1 X35.927 Y102.861 E60.50839
G1 X35.532 Y102.801 E60.53119
G1 X35.221 Y102.658 E60.55072
G1 X34.938 Y102.409 E60.57223
G1 X34.745 Y102.096 E60.59321
G1 X34.649 Y101.727 E60.61496
G1 X34.64 Y87.213 E61.44311
G1 X34.639 Y68.428 E62.51496
G1 X34.692 Y68.053 E62.53657
G1 X34.856 Y67.701 E62.55873
G1 X35.112 Y67.422 E62.58033
G1 X35.443 Y67.23 E62.60217
G1 X35.834 Y67.143 E62.62502
G1 X48.156 Y67.14 E63.3281
G1 X115.135 Y67.139 E67.14984
G1 X154.074 Y67.14 E69.37164
G1 X154.447 Y67.192 E69.39313
G1 X154.799 Y67.356 E69.41529
G1 X155.078 Y67.612 E69.4369
G1 X155.27 Y67.943 E69.45873
G1 X155.357 Y68.334 E69.48158
G1 X155.361 Y101.572 E71.3781
G1 X155.308 Y101.947 E71.39971
G1 X155.144 Y102.299 E71.42187
G1 X154.888 Y102.578 E71.44347
G1 X154.557 Y102.77 E71.46531
G1 X154.166 Y102.857 E71.48816
G1 X144.389 Y102.861 E72.04603
G1 X144.039 Y102.861 E72.066
G1 X144.039 Y102.511 E72.07892
G1 X144.04 Y101.35 E72.14517
G1 X144.04 Y101 E72.15809
G0 F3600 X143.69 Y101
G0 X143.64 Y101
G0 X143.64 Y100.23
G0 X145.38 Y99.66
;TYPE:SKIN
G1 F1800 X44.621 Y99.66 E77.90727
G1 X44.62 Y101.52 E78.01339
G1 X36.028 Y101.521 E78.50364
G1 X35.989 Y101.515 E78.50589
G1 X35.98 Y87.213 E79.32195
G1 X35.979 Y68.524 E80.38832
G1 X35.985 Y68.483 E80.39068
G1 X44.634 Y68.481 E80.88418
G1 X44.307 Y69.268 E80.93281
G1 X47.379 Y72.34 E81.1807
G1 X142.621 Y72.34 E86.61508
G1 X145.692 Y69.269 E86.86289
G1 X145.365 Y68.48 E86.91162
G1 X153.972 Y68.48 E87.40273
G1 X154.017 Y68.486 E87.40532
G1 X154.021 Y101.476 E89.28769
G1 X154.015 Y101.517 E89.29005
G1 X145.379 Y101.521 E89.78281
G1 X145.38 Y99.66 E89.88899
G0 F3600 X153.702 Y69.556
G1 F1800 X152.94 Y68.795 E89.95044
G0 F3600 X151.95 Y68.795
G1 F1800 X153.702 Y70.546 E90.09178
G0 F3600 X153.702 Y71.536
G1 F1800 X150.96 Y68.795 E90.313
G0 F3600 X149.97 Y68.795
G1 F1800 X153.702 Y72.526 E90.6141
G0 F3600 X153.702 Y73.516
G1 F1800 X148.981 Y68.795 E90.99506
G0 F3600 X147.991 Y68.795
G1 F1800 X153.702 Y74.506 E91.45589
G0 F3600 X153.703 Y75.497
G1 F1800 X147.001 Y68.795 E91.9967
G0 F3600 X146.011 Y68.795
G1 F1800 X153.703 Y76.487 E92.61739
G0 F3600 X153.703 Y77.476
G1 F1800 X145.816 Y69.589 E93.25382
G0 F3600 X145.321 Y70.084
G1 F1800 X153.703 Y78.466 E93.93019
G0 F3600 X153.703 Y79.456
G1 F1800 X144.826 Y70.579 E94.6465
G0 F3600 X144.331 Y71.074
G1 F1800 X153.703 Y80.446 E95.40276
G0 F3600 X153.703 Y81.436
G1 F1800 X143.836 Y71.569 E96.19896
G0 F3600 X143.341 Y72.064
G1 F1800 X153.703 Y82.427 E97.03514
G0 F3600 X153.703 Y83.417
G1 F1800 X142.846 Y72.559 E97.91127
G0 F3600 X141.951 Y72.655
G1 F1800 X153.703 Y84.407 E98.85957
G0 F3600 X153.703 Y85.397
G1 F1800 X140.961 Y72.655 E99.88777
G0 F3600 X139.971 Y72.655
G1 F1800 X153.703 Y86.387 E100.99584
G0 F3600 X153.703 Y87.377
G1 F1800 X138.981 Y72.655 E102.18381
G0 F3600 X137.991 Y72.655
G1 F1800 X153.704 Y88.367 E103.4517
G0 F3600 X153.704 Y89.357
G1 F1800 X137.001 Y72.655 E104.79948
G0 F3600 X136.011 Y72.655
G1 F1800 X153.704 Y90.347 E106.22714
G0 F3600 X153.704 Y91.337
G1 F1800 X135.022 Y72.655 E107.73465
G0 F3600 X134.032 Y72.655
G1 F1800 X153.704 Y92.327 E109.32205
G0 F3600 X153.704 Y93.317
G1 F1800 X133.042 Y72.655 E110.98933
G0 F3600 X132.052 Y72.655
G1 F1800 X153.704 Y94.307 E112.7365
G0 F3600 X153.705 Y95.298
G1 F1800 X131.062 Y72.655 E114.56363
G0 F3600 X130.072 Y72.655
G1 F1800 X153.705 Y96.288 E116.47066
G0 F3600 X153.705 Y97.278
G1 F1800 X129.082 Y72.655 E118.45756
G0 F3600 X128.092 Y72.655
G1 F1800 X153.705 Y98.268 E120.52436
G0 F3600 X153.705 Y99.257
G1 F1800 X127.102 Y72.655 E122.671
G0 F3600 X126.112 Y72.655
G1 F1800 X153.705 Y100.247 E124.89752
G0 F3600 X153.669 Y101.202
G1 F1800 X125.122 Y72.655 E127.20107
G0 F3600 X124.132 Y72.655
G1 F1800 X152.679 Y101.202 E129.50462
G0 F3600 X151.69 Y101.203
G1 F1800 X123.142 Y72.655 E131.80825
G0 F3600 X122.152 Y72.655
G1 F1800 X150.7 Y101.203 E134.11188
G0 F3600 X149.711 Y101.203
G1 F1800 X121.162 Y72.655 E136.41555
G0 F3600 X120.172 Y72.655
G1 F1800 X148.722 Y101.204 E138.7193
G0 F3600 X147.732 Y101.204
G1 F1800 X119.182 Y72.655 E141.02305
G0 F3600 X118.192 Y72.655
G1 F1800 X144.881 Y99.344 E143.17667
G0 F3600 X143.891 Y99.344
G1 F1800 X117.202 Y72.655 E145.33029
G0 F3600 X116.212 Y72.655
G1 F1800 X142.902 Y99.344 E147.48395
G0 F3600 X141.912 Y99.344
G1 F1800 X115.223 Y72.655 E149.63757
G0 F3600 X114.233 Y72.655
G1 F1800 X140.922 Y99.344 E151.79119
G0 F3600 X139.932 Y99.344
G1 F1800 X113.243 Y72.655 E153.94481
G0 F3600 X112.253 Y72.655
G1 F1800 X138.942 Y99.344 E156.09843
G0 F3600 X137.952 Y99.344
G1 F1800 X111.263 Y72.655 E158.25205
G0 F3600 X110.273 Y72.655
G1 F1800 X136.962 Y99.344 E160.40567
G0 F3600 X135.972 Y99.344
G1 F1800 X109.283 Y72.655 E162.55929
G0 F3600 X108.293 Y72.655
G1 F1800 X134.982 Y99.344 E164.71291
G0 F3600 X133.992 Y99.344
G1 F1800 X107.303 Y72.655 E166.86653
G0 F3600 X106.313 Y72.655
G1 F1800 X133.002 Y99.344 E169.02015
G0 F3600 X132.012 Y99.344
G1 F1800 X105.323 Y72.655 E171.17377
G0 F3600 X104.333 Y72.655
G1 F1800 X131.022 Y99.344 E173.32739
G0 F3600 X130.032 Y99.344
G1 F1800 X103.343 Y72.655 E175.48101
G0 F3600 X102.353 Y72.655
G1 F1800 X129.042 Y99.344 E177.63463
G0 F3600 X128.052 Y99.344
G1 F1800 X101.363 Y72.655 E179.78825
G0 F3600 X100.373 Y72.655
G1 F1800 X127.062 Y99.344 E181.94187
G0 F3600 X126.072 Y99.344
G1 F1800 X99.383 Y72.655 E184.09549
G0 F3600 X98.393 Y72.655
G1 F1800 X125.082 Y99.344 E186.24911
G0 F3600 X124.092 Y99.344
G1 F1800 X97.403 Y72.655 E188.40273
G0 F3600 X96.414 Y72.655
G1 F1800 X123.103 Y99.344 E190.55635
G0 F3600 X122.113 Y99.344
G1 F1800 X95.424 Y72.655 E192.70997
G0 F3600 X94.433 Y72.654
G1 F1800 X121.123 Y99.344 E194.86367
G0 F3600 X120.133 Y99.344
G1 F1800 X93.443 Y72.654 E197.01737
G0 F3600 X92.453 Y72.654
G1 F1800 X119.143 Y99.344 E199.17107
G0 F3600 X118.153 Y99.344
G1 F1800 X91.463 Y72.654 E201.32477
G0 F3600 X90.473 Y72.654
G1 F1800 X117.163 Y99.344 E203.47847
G0 F3600 X116.173 Y99.344
G1 F1800 X89.483 Y72.654 E205.63217
G0 F3600 X88.493 Y72.654
G1 F1800 X115.183 Y99.344 E207.78587
G0 F3600 X114.193 Y99.344
G1 F1800 X87.503 Y72.654 E209.93957
G0 F3600 X86.513 Y72.654
G1 F1800 X113.203 Y99.344 E212.09327
G0 F3600 X112.213 Y99.344
G1 F1800 X85.523 Y72.654 E214.24697
G0 F3600 X84.533 Y72.654
G1 F1800 X111.223 Y99.344 E216.40068
G0 F3600 X110.233 Y99.344
G1 F1800 X83.543 Y72.654 E218.55438
G0 F3600 X82.554 Y72.654
G1 F1800 X109.243 Y99.344 E220.70804
G0 F3600 X108.253 Y99.344
G1 F1800 X81.564 Y72.654 E222.8617
G0 F3600 X80.574 Y72.654
G1 F1800 X107.263 Y99.344 E225.01536
G0 F3600 X106.273 Y99.344
G1 F1800 X79.584 Y72.654 E227.16902
G0 F3600 X78.594 Y72.654
G1 F1800 X105.283 Y99.344 E229.32268
G0 F3600 X104.294 Y99.344
G1 F1800 X77.604 Y72.654 E231.47638
G0 F3600 X76.614 Y72.654
G1 F1800 X103.304 Y99.344 E233.63008
G0 F3600 X102.314 Y99.344
G1 F1800 X75.624 Y72.654 E235.78378
G0 F3600 X74.634 Y72.654
G1 F1800 X101.324 Y99.344 E237.93748
G0 F3600 X100.334 Y99.344
G1 F1800 X73.644 Y72.654 E240.09118
G0 F3600 X72.654 Y72.654
G1 F1800 X99.344 Y99.344 E242.24488
G0 F3600 X98.354 Y99.344
G1 F1800 X71.664 Y72.654 E244.39858
G0 F3600 X70.674 Y72.654
G1 F1800 X97.364 Y99.344 E246.55228
G0 F3600 X96.374 Y99.344
G1 F1800 X69.684 Y72.654 E248.70598
G0 F3600 X68.694 Y72.654
G1 F1800 X95.384 Y99.344 E250.85969
G0 F3600 X94.394 Y99.344
G1 F1800 X67.704 Y72.654 E253.01339
G0 F3600 X66.714 Y72.654
G1 F1800 X93.404 Y99.344 E255.16709
G0 F3600 X92.414 Y99.344
G1 F1800 X65.724 Y72.654 E257.32079
G0 F3600 X64.734 Y72.654
G1 F1800 X91.424 Y99.344 E259.47449
G0 F3600 X90.434 Y99.344
G1 F1800 X63.744 Y72.654 E261.62819
G0 F3600 X62.755 Y72.654
G1 F1800 X89.444 Y99.344 E263.78185
G0 F3600 X88.454 Y99.344
G1 F1800 X61.765 Y72.654 E265.93551
G0 F3600 X60.775 Y72.654
G1 F1800 X87.464 Y99.344 E268.08917
G0 F3600 X86.474 Y99.344
G1 F1800 X59.785 Y72.654 E270.24283
G0 F3600 X58.795 Y72.654
G1 F1800 X85.484 Y99.344 E272.39649
G0 F3600 X84.495 Y99.344
G1 F1800 X57.805 Y72.654 E274.55019
G0 F3600 X56.815 Y72.654
G1 F1800 X83.505 Y99.344 E276.70389
G0 F3600 X82.515 Y99.344
G1 F1800 X55.825 Y72.654 E278.85759
G0 F3600 X54.835 Y72.654
G1 F1800 X81.525 Y99.344 E281.01129
G0 F3600 X80.535 Y99.344
G1 F1800 X53.845 Y72.654 E283.16499
G0 F3600 X52.855 Y72.654
G1 F1800 X79.545 Y99.344 E285.3187
G0 F3600 X78.555 Y99.344
G1 F1800 X51.865 Y72.654 E287.4724
G0 F3600 X50.875 Y72.654
G1 F1800 X77.565 Y99.344 E289.6261
G0 F3600 X76.575 Y99.344
G1 F1800 X49.885 Y72.654 E291.7798
G0 F3600 X48.895 Y72.654
G1 F1800 X75.585 Y99.344 E293.9335
G0 F3600 X74.595 Y99.344
G1 F1800 X47.905 Y72.654 E296.0872
G1 X47.782 Y72.531
G0 F3600 X43.057 Y68.795
G1 F1800 X73.605 Y99.344 E298.55225
G0 F3600 X72.615 Y99.344
G1 F1800 X42.067 Y68.795 E301.01731
G0 F3600 X41.077 Y68.796
G1 F1800 X71.625 Y99.344 E303.48232
G0 F3600 X70.635 Y99.344
G1 F1800 X40.088 Y68.796 E305.9473
G0 F3600 X39.098 Y68.796
G1 F1800 X69.645 Y99.344 E308.41227
G0 F3600 X68.655 Y99.344
G1 F1800 X38.108 Y68.797 E310.87721
G0 F3600 X37.118 Y68.797
G1 F1800 X67.665 Y99.344 E313.34214
G0 F3600 X66.675 Y99.344
G1 F1800 X36.294 Y68.962 E315.79372
G0 F3600 X36.294 Y69.952
G1 F1800 X65.685 Y99.344 E318.16541
G0 F3600 X64.696 Y99.344
G1 F1800 X36.294 Y70.942 E320.45726
G0 F3600 X36.294 Y71.932
G1 F1800 X63.706 Y99.344 E322.66922
G0 F3600 X62.716 Y99.344
G1 F1800 X36.294 Y72.922 E324.8013
G0 F3600 X36.294 Y73.912
G1 F1800 X61.726 Y99.344 E326.85349
G0 F3600 X60.736 Y99.344
G1 F1800 X36.294 Y74.902 E328.82579
G0 F3600 X36.294 Y75.892
G1 F1800 X59.746 Y99.344 E330.71821
G0 F3600 X58.756 Y99.344
G1 F1800 X36.294 Y76.882 E332.53074
G0 F3600 X36.294 Y77.872
G1 F1800 X57.766 Y99.344 E334.26338
G0 F3600 X56.776 Y99.344
G1 F1800 X36.294 Y78.862 E335.91614
G0 F3600 X36.294 Y79.852
G1 F1800 X55.786 Y99.344 E337.48901
G0 F3600 X54.796 Y99.344
G1 F1800 X36.294 Y80.842 E338.98199
