;FLAVOR:Marlin
;TIME:9371
;Filament used: 5.10363m
;Layer height: 0.4
;MINX:30.889
;MINY:96.755
;MINZ:0.52
;MAXX:159.111
;MAXY:139.977
;MAXZ:57.32
;Generated with Cura_SteamEngine 4.1.0
M82 ;absolute extrusion mode
M98 P0:/sys/startprint.g

G92 E0
G92 E0
G10
;LAYER_COUNT:143
;LAYER:0
M107
G0 F3600 X34.07 Y97.113 Z0.52
;TYPE:SKIRT
G11
G1 F1800 X34.506 Y96.976 E0.02608
G1 X34.954 Y96.868 E0.05237
G1 X35.683 Y96.775 E0.0943
G1 X36.405 Y96.763 E0.13551
G1 X36.459 Y96.763 E0.13859
G1 X48.154 Y96.756 E0.80589
G1 X48.156 Y96.756 E0.806
G1 X115.135 Y96.755 E4.62774
G1 X153.395 Y96.756 E6.8108
G1 X153.443 Y96.756 E6.81354
G1 X154.146 Y96.766 E6.85366
G1 X154.563 Y96.798 E6.87752
G1 X155.027 Y96.863 E6.90425
G1 X155.532 Y96.975 E6.93377
G1 X155.965 Y97.139 E6.96019
G1 X156.379 Y97.33 E6.9862
G1 X156.831 Y97.582 E7.01573
G1 X157.166 Y97.837 E7.03975
G1 X157.556 Y98.174 E7.06916
G1 X157.92 Y98.542 E7.0987
G1 X158.21 Y98.939 E7.12675
G1 X158.449 Y99.323 E7.15256
G1 X158.688 Y99.782 E7.18209
G1 X158.817 Y100.143 E7.20396
G1 X158.901 Y100.427 E7.22086
G1 X158.924 Y100.508 E7.22566
G1 X158.971 Y100.683 E7.236
G1 X159.084 Y101.442 E7.27979
G1 X159.093 Y101.717 E7.29549
G1 X159.095 Y101.823 E7.30154
G1 X159.11 Y116.053 E8.11348
G1 X159.11 Y116.057 E8.11371
G1 X159.111 Y134.242 E9.15132
G1 X159.111 Y134.289 E9.154
G1 X159.101 Y135.007 E9.19498
G1 X159.075 Y135.377 E9.21614
G1 X159.047 Y135.6 E9.22896
G1 X159.031 Y135.713 E9.23548
G1 X158.997 Y135.925 E9.24773
G1 X158.876 Y136.428 E9.27725
G1 X158.755 Y136.745 E9.29661
G1 X158.549 Y137.213 E9.32578
G1 X158.305 Y137.669 E9.35529
G1 X157.999 Y138.075 E9.3843
G1 X157.678 Y138.44 E9.41203
G1 X157.307 Y138.801 E9.44157
G1 X156.943 Y139.066 E9.46726
G1 X156.551 Y139.312 E9.49367
G1 X156.093 Y139.552 E9.52317
G1 X155.656 Y139.705 E9.54959
G1 X155.189 Y139.833 E9.57722
G1 X154.681 Y139.931 E9.60674
G1 X154.368 Y139.951 E9.62464
G1 X153.491 Y139.968 E9.67469
G1 X153.432 Y139.969 E9.67805
G1 X149.426 Y139.976 E9.90663
G1 X149.421 Y139.976 E9.90691
G1 X144.355 Y139.977 E10.19597
G1 X144.307 Y139.977 E10.19871
G1 X143.596 Y139.967 E10.23929
G1 X143.081 Y139.919 E10.2688
G1 X142.579 Y139.794 E10.29832
G1 X142.055 Y139.567 E10.3309
G1 X140.89 Y138.94 E10.40639
G1 X138.482 Y137.684 E10.56135
G1 X136.006 Y136.48 E10.71845
G1 X133.514 Y135.354 E10.87448
G1 X130.956 Y134.284 E11.03269
G1 X128.453 Y133.322 E11.18569
G1 X125.863 Y132.409 E11.34239
G1 X123.265 Y131.573 E11.49811
G1 X120.617 Y130.804 E11.65545
G1 X117.989 Y130.121 E11.81038
G1 X115.314 Y129.505 E11.96701
G1 X112.658 Y128.974 E12.12155
G1 X109.959 Y128.512 E12.27779
G1 X107.244 Y128.126 E12.43427
G1 X104.514 Y127.816 E12.59104
G1 X101.818 Y127.587 E12.74542
G1 X99.075 Y127.432 E12.90218
G1 X96.332 Y127.355 E13.05876
G1 X93.624 Y127.355 E13.21327
G1 X90.878 Y127.434 E13.37002
G1 X88.137 Y127.589 E13.52667
G1 X85.406 Y127.822 E13.68306
G1 X82.742 Y128.125 E13.83604
G1 X79.994 Y128.517 E13.99443
G1 X77.285 Y128.981 E14.15125
G1 X74.663 Y129.508 E14.30385
G1 X71.964 Y130.129 E14.46188
G1 X69.339 Y130.812 E14.61664
G1 X66.68 Y131.585 E14.77464
G1 X64.103 Y132.414 E14.9291
G1 X61.498 Y133.334 E15.08674
G1 X58.968 Y134.309 E15.24145
G1 X56.429 Y135.372 E15.3985
G1 X53.958 Y136.488 E15.55321
G1 X51.502 Y137.683 E15.70905
G1 X49.054 Y138.96 E15.86659
G1 X48.063 Y139.505 E15.93113
G1 X47.972 Y139.553 E15.937
G1 X47.88 Y139.6 E15.94289
G1 X47.403 Y139.799 E15.97238
G1 X46.9 Y139.923 E16.00194
G1 X46.464 Y139.965 E16.02693
G1 X46.154 Y139.975 E16.04463
G1 X46.046 Y139.977 E16.0508
G1 X36.561 Y139.977 E16.592
G1 X35.909 Y139.968 E16.6292
G1 X35.514 Y139.939 E16.6518
G1 X35.055 Y139.878 E16.67822
G1 X34.415 Y139.728 E16.71573
G1 X34.195 Y139.653 E16.72899
G1 X33.782 Y139.48 E16.75454
G1 X33.485 Y139.332 E16.77347
G1 X33.041 Y139.067 E16.80298
G1 X32.754 Y138.839 E16.82389
G1 X32.432 Y138.553 E16.84847
G1 X32.073 Y138.18 E16.87801
G1 X31.84 Y137.861 E16.90055
G1 X31.6 Y137.488 E16.92585
G1 X31.273 Y136.831 E16.96773
G1 X31.191 Y136.608 E16.98128
G1 X31.083 Y136.254 E17.0024
G1 X31.008 Y135.95 E17.02027
G1 X30.91 Y135.202 E17.06331
G1 X30.899 Y134.514 E17.10257
G1 X30.899 Y134.462 E17.10554
G1 X30.89 Y120.643 E17.89404
G1 X30.89 Y120.641 E17.89415
G1 X30.889 Y102.475 E18.93068
G1 X30.889 Y102.428 E18.93336
G1 X30.899 Y101.72 E18.97376
G1 X30.927 Y101.338 E18.99562
G1 X30.959 Y101.09 E19.00988
G1 X30.974 Y100.986 E19.01588
G1 X31.003 Y100.806 E19.02628
G1 X31.124 Y100.303 E19.0558
G1 X31.247 Y99.982 E19.07542
G1 X31.461 Y99.499 E19.10556
G1 X31.707 Y99.044 E19.13507
G1 X32.042 Y98.607 E19.16649
G1 X32.38 Y98.234 E19.19521
G1 X32.756 Y97.878 E19.22476
G1 X33.175 Y97.589 E19.2538
G1 X33.604 Y97.339 E19.28213
G1 X34.07 Y97.113 E19.31168
G10
;MESH:psushield.stl
G0 F3600 X45.034 Y99.224
G0 X45.036 Y101.827
G0 X144.978 Y101.814
G0 X144.978 Y134.923
G0 X144.689 Y135.559
;TYPE:WALL-INNER
G11
G1 F1800 X144.95 Y135.56 E19.32657
G1 X144.95 Y101.515 E21.26914
G1 X144.95 Y101.177 E21.28842
G1 X115.135 Y101.177 E22.98963
G1 X109.671 Y101.177 E23.3014
G1 X48.156 Y101.177 E26.81136
G1 X45.39 Y101.176 E26.96919
G1 X45.05 Y101.176 E26.98859
G1 X45.05 Y101.516 E27.00114
G1 X45.05 Y135.556 E28.94342
G1 X45.31 Y135.556 E28.95825
G1 X45.311 Y135.577 E28.95945
G1 X45.05 Y135.577 E28.95993
G1 X35.982 Y135.577 E29.47734
G1 X35.727 Y135.539 E29.49205
G1 X35.558 Y135.457 E29.50276
G1 X35.446 Y135.358 E29.51129
G1 X35.349 Y135.2 E29.52187
G1 X35.299 Y135.009 E29.53314
G1 X35.29 Y120.579 E30.35649
G1 X35.289 Y101.843 E31.42555
G1 X35.323 Y101.605 E31.43926
G1 X35.402 Y101.435 E31.44996
G1 X35.525 Y101.3 E31.46038
G1 X35.687 Y101.206 E31.47107
G1 X35.875 Y101.163 E31.48207
G1 X44.709 Y101.158 E31.98613
G1 X45.049 Y101.158 E32.00553
G1 X48.156 Y101.156 E32.18281
G1 X109.67 Y101.156 E32.28823
G1 X115.135 Y101.155 E32.29785
G1 X144.95 Y101.155 E32.35139
G1 X145.288 Y101.155 E32.36407
G1 X154.026 Y101.156 E32.86265
G1 X154.264 Y101.19 E32.87637
G1 X154.434 Y101.269 E32.88707
G1 X154.558 Y101.38 E32.89656
G1 X154.649 Y101.525 E32.90633
G1 X154.696 Y101.694 E32.91634
G1 X154.71 Y116.154 E33.74141
G1 X154.711 Y134.889 E34.8104
G1 X154.677 Y135.129 E34.82423
G1 X154.597 Y135.302 E34.83511
G1 X154.484 Y135.427 E34.84472
G1 X154.349 Y135.512 E34.85383
G1 X154.143 Y135.567 E34.86599
G1 X149.418 Y135.576 E35.13559
G1 X144.951 Y135.576 E35.39048
G1 X144.689 Y135.577 E35.39087
G1 X144.689 Y135.559
G0 F3600 X144.3 Y134.908
;TYPE:WALL-OUTER
G1 F1800 X144.3 Y101.827 E37.27843
G1 X109.671 Y101.827 E39.25431
G1 X45.7 Y101.826 E42.90441
G1 X45.7 Y134.906 E44.79191
G1 X45.96 Y134.906 E44.80675
G1 X45.961 Y135.877 E44.86215
G1 X45.961 Y136.227 E44.88212
G1 X45.611 Y136.227 E44.89505
G1 X35.932 Y136.227 E45.44732
G1 X35.533 Y136.167 E45.47034
G1 X35.194 Y136.004 E45.4918
G1 X34.942 Y135.78 E45.51104
G1 X34.745 Y135.46 E45.53248
G1 X34.649 Y135.093 E45.55413
G1 X34.64 Y120.579 E46.38228
G1 X34.639 Y101.794 E47.45413
G1 X34.692 Y101.419 E47.47574
G1 X34.856 Y101.068 E47.49784
G1 X35.113 Y100.787 E47.51957
G1 X35.443 Y100.596 E47.54133
G1 X35.802 Y100.513 E47.56235
G1 X48.156 Y100.506 E48.26725
G1 X115.135 Y100.505 E52.08899
G1 X154.074 Y100.506 E54.31079
G1 X154.45 Y100.559 E54.33246
G1 X154.797 Y100.721 E54.35431
G1 X155.062 Y100.959 E54.37464
G1 X155.249 Y101.259 E54.39481
G1 X155.346 Y101.605 E54.41531
G1 X155.36 Y116.153 E55.2454
G1 X155.361 Y134.938 E56.31725
G1 X155.308 Y135.313 E56.33886
G1 X155.144 Y135.666 E56.36107
G1 X154.907 Y135.929 E56.38127
G1 X154.609 Y136.115 E56.40131
G1 X154.231 Y136.217 E56.42365
G1 X149.419 Y136.226 E56.69822
G1 X144.389 Y136.227 E56.98522
G1 X144.039 Y136.227 E57.00519
G1 X144.039 Y135.877 E57.01812
G1 X144.039 Y134.907 E57.07346
G1 X144.3 Y134.908 E57.08836
G0 F3600 X144.3 Y134.508
G0 X145.07 Y134.508
G0 X145.64 Y134.887
;TYPE:SKIN
G1 F1800 X145.64 Y101.846 E58.97363
G1 X154.006 Y101.849 E59.45098
G1 X154.02 Y116.154 E60.26721
G1 X154.021 Y134.834 E61.33307
G1 X154.015 Y134.877 E61.33554
G1 X149.416 Y134.886 E61.59796
G1 X145.64 Y134.887 E61.81341
G0 F3600 X146.451 Y134.571
G1 F1800 X145.953 Y134.074 E61.85356
G0 F3600 X145.953 Y133.084
G1 F1800 X147.44 Y134.571 E61.97355
G0 F3600 X148.43 Y134.57
G1 F1800 X145.953 Y132.094 E62.17338
G0 F3600 X145.953 Y131.104
G1 F1800 X149.419 Y134.57 E62.45307
G0 F3600 X150.407 Y134.568
G1 F1800 X145.953 Y130.114 E62.81247
G0 F3600 X145.953 Y129.124
G1 F1800 X151.395 Y134.566 E63.2516
G0 F3600 X152.383 Y134.564
G1 F1800 X145.953 Y128.134 E63.77046
G0 F3600 X145.953 Y127.144
G1 F1800 X153.371 Y134.562 E64.36904
G0 F3600 X153.705 Y133.906
G1 F1800 X145.953 Y126.154 E64.99458
G0 F3600 X145.953 Y125.164
G1 F1800 X153.705 Y132.916 E65.62011
G0 F3600 X153.705 Y131.926
G1 F1800 X145.953 Y124.175 E66.2456
G0 F3600 X145.953 Y123.185
G1 F1800 X153.705 Y130.936 E66.8711
G0 F3600 X153.705 Y129.946
G1 F1800 X145.953 Y122.195 E67.49659
G0 F3600 X145.953 Y121.205
G1 F1800 X153.705 Y128.956 E68.12208
G0 F3600 X153.705 Y127.966
G1 F1800 X145.953 Y120.215 E68.74758
G0 F3600 X145.953 Y119.225
G1 F1800 X153.705 Y126.976 E69.37307
G0 F3600 X153.705 Y125.986
G1 F1800 X145.953 Y118.235 E69.99856
G0 F3600 X145.953 Y117.245
G1 F1800 X153.705 Y124.996 E70.62406
G0 F3600 X153.705 Y124.006
G1 F1800 X145.953 Y116.255 E71.24955
G0 F3600 X145.953 Y115.265
G1 F1800 X153.705 Y123.016 E71.87504
G0 F3600 X153.705 Y122.026
G1 F1800 X145.953 Y114.275 E72.50054
G0 F3600 X145.953 Y113.285
G1 F1800 X153.705 Y121.036 E73.12603
G0 F3600 X153.705 Y120.046
G1 F1800 X145.953 Y112.295 E73.75152
G0 F3600 X145.953 Y111.305
G1 F1800 X153.705 Y119.056 E74.37701
G0 F3600 X153.705 Y118.067
G1 F1800 X145.953 Y110.315 E75.00255
G0 F3600 X145.953 Y109.325
G1 F1800 X153.705 Y117.077 E75.62808
G0 F3600 X153.704 Y116.086
G1 F1800 X145.953 Y108.335 E76.25353
G0 F3600 X145.953 Y107.345
G1 F1800 X153.703 Y115.095 E76.87891
G0 F3600 X153.703 Y114.105
G1 F1800 X145.953 Y106.355 E77.50428
G0 F3600 X145.953 Y105.365
G1 F1800 X153.701 Y113.113 E78.12949
G0 F3600 X153.7 Y112.123
G1 F1800 X145.953 Y104.376 E78.75462
G0 F3600 X145.953 Y103.386
G1 F1800 X153.699 Y111.131 E79.37963
G0 F3600 X153.698 Y110.141
G1 F1800 X145.953 Y102.396 E80.0046
G0 F3600 X146.709 Y102.161
G1 F1800 X153.697 Y109.149 E80.56848
G0 F3600 X153.696 Y108.159
G1 F1800 X147.699 Y102.161 E81.05244
G0 F3600 X148.689 Y102.162
G1 F1800 X153.696 Y107.168 E81.45643
G0 F3600 X153.694 Y106.177
G1 F1800 X149.679 Y102.162 E81.78041
G0 F3600 X150.67 Y102.162
G1 F1800 X153.693 Y105.186 E82.02439
G0 F3600 X153.692 Y104.195
G1 F1800 X151.66 Y102.162 E82.1884
G0 F3600 X152.65 Y102.163
G1 F1800 X153.691 Y103.204 E82.2724
G1 X153.814 Y103.327
G0 F3600 X144.978 Y101.814
G0 X45.022 Y101.813
G0 X44.36 Y101.848
G1 F1800 X44.36 Y134.887 E84.15756
G1 X36.03 Y134.887 E84.63286
G1 X35.989 Y134.881 E84.63522
G1 X35.98 Y120.579 E85.45128
G1 X35.979 Y101.885 E86.51793
G1 X35.984 Y101.853 E86.51978
G1 X44.36 Y101.848 E86.9977
G0 F3600 X44.044 Y102.451
G1 F1800 X43.755 Y102.162 E87.02102
G0 F3600 X42.766 Y102.163
G1 F1800 X44.044 Y103.441 E87.12415
G0 F3600 X44.044 Y104.431
G1 F1800 X41.777 Y102.164 E87.30708
G0 F3600 X40.787 Y102.164
G1 F1800 X44.044 Y105.421 E87.5699
G0 F3600 X44.044 Y106.411
G1 F1800 X39.798 Y102.164 E87.91256
G0 F3600 X38.808 Y102.165
G1 F1800 X44.044 Y107.401 E88.33507
G0 F3600 X44.044 Y108.391
G1 F1800 X37.819 Y102.166 E88.83739
G0 F3600 X36.83 Y102.167
G1 F1800 X44.044 Y109.381 E89.41951
G0 F3600 X44.044 Y110.371
G1 F1800 X36.294 Y102.62 E90.04492
G0 F3600 X36.294 Y103.61
G1 F1800 X44.044 Y111.361 E90.67033
G0 F3600 X44.044 Y112.351
G1 F1800 X36.294 Y104.6 E91.29574
G0 F3600 X36.294 Y105.59
G1 F1800 X44.044 Y113.341 E91.92116
G0 F3600 X44.044 Y114.331
G1 F1800 X36.294 Y106.58 E92.54657
G0 F3600 X36.294 Y107.57
G1 F1800 X44.044 Y115.321 E93.17198
G0 F3600 X44.044 Y116.311
G1 F1800 X36.294 Y108.56 E93.79739
G0 F3600 X36.294 Y109.55
G1 F1800 X44.044 Y117.301 E94.42281
G0 F3600 X44.044 Y118.291
G1 F1800 X36.294 Y110.54 E95.04822
G0 F3600 X36.294 Y111.53
G1 F1800 X44.044 Y119.281 E95.67363
G0 F3600 X44.044 Y120.271
G1 F1800 X36.294 Y112.52 E96.29904
G0 F3600 X36.294 Y113.51
G1 F1800 X44.044 Y121.261 E96.92446
G0 F3600 X44.044 Y122.25
G1 F1800 X36.294 Y114.5 E97.54983
G0 F3600 X36.294 Y115.49
G1 F1800 X44.044 Y123.24 E98.1752
G0 F3600 X44.044 Y124.23
G1 F1800 X36.294 Y116.48 E98.80057
G0 F3600 X36.294 Y117.47
G1 F1800 X44.044 Y125.22 E99.42594
G0 F3600 X44.044 Y126.21
G1 F1800 X36.294 Y118.46 E100.05132
G0 F3600 X36.294 Y119.45
G1 F1800 X44.044 Y127.2 E100.67669
G0 F3600 X44.044 Y128.19
G1 F1800 X36.294 Y120.44 E101.30206
G0 F3600 X36.295 Y121.43
G1 F1800 X44.044 Y129.18 E101.92739
G0 F3600 X44.044 Y130.17
G1 F1800 X36.295 Y122.421 E102.55268
G0 F3600 X36.296 Y123.412
G1 F1800 X44.044 Y131.16 E103.17789
G0 F3600 X44.044 Y132.15
G1 F1800 X36.297 Y124.402 E103.80306
G0 F3600 X36.297 Y125.393
G1 F1800 X44.044 Y133.14 E104.42819
G0 F3600 X44.044 Y134.13
G1 F1800 X36.298 Y126.384 E105.05324
G0 F3600 X36.299 Y127.374
G1 F1800 X43.495 Y134.57 E105.63391
G0 F3600 X42.505 Y134.57
G1 F1800 X36.3 Y128.365 E106.13461
G0 F3600 X36.3 Y129.355
G1 F1800 X41.515 Y134.57 E106.55543
G0 F3600 X40.525 Y134.57
G1 F1800 X36.301 Y130.346 E106.89628
G0 F3600 X36.301 Y131.336
G1 F1800 X39.535 Y134.57 E107.15724
G0 F3600 X38.545 Y134.57
G1 F1800 X36.302 Y132.327 E107.33823
G0 F3600 X36.302 Y133.317
G1 F1800 X37.555 Y134.57 E107.43934
G0 F3600 X36.565 Y134.57
G1 F1800 X36.303 Y134.308 E107.46048
;MESH:NONMESH
G0 F3600 X45.022 Y101.813
G0 X144.978 Y101.814
G0 X154.35 Y134.624
;TIME_ELAPSED:142.820233
;LAYER:1
M106 S255
;MESH:psushield.stl
G0 F5400 X154.35 Y134.624 Z0.92
;TYPE:WALL-INNER
G1 F2700 X154.35 Y101.83 E108.89985
G1 X154.35 Y101.516 E108.91364
G1 X154.037 Y101.516 E108.92737
G1 X35.711 Y101.516 E114.12086
G1 X35.65 Y101.516 E114.12353
G1 X35.65 Y101.774 E114.13051
G1 X35.65 Y133.892 E115.54022
G1 X35.651 Y133.92 E115.54145
G1 X35.739 Y135.216 E115.59846
G1 X36.005 Y135.216 E115.61013
G1 X45.65 Y135.216 E116.03347
G1 X45.65 Y135.916 E116.06419
G1 X35.968 Y135.916 E116.48915
G1 X35.928 Y135.91 E116.49092
G1 X35.664 Y135.877 E116.50231
G1 X35.502 Y135.813 E116.50971
G1 X35.441 Y135.788 E116.51249
G1 X35.362 Y135.73 E116.51679
G1 X35.248 Y135.646 E116.52276
G1 X35.233 Y135.628 E116.52376
G1 X35.101 Y135.465 E116.53276
G1 X35.001 Y135.242 E116.54349
G1 X34.953 Y134.961 E116.556
G1 X34.953 Y133.922 E116.6016
G1 X34.953 Y133.893 E116.60287
G1 X34.951 Y101.774 E118.0106
G1 X35.003 Y101.483 E118.02312
G1 X35.106 Y101.261 E118.03329
G1 X35.205 Y101.143 E118.04005
G1 X35.262 Y101.075 E118.04354
G1 X35.314 Y101.039 E118.04631
G1 X35.466 Y100.932 E118.05379
G1 X35.711 Y100.843 E118.06466
G1 X35.954 Y100.816 E118.0754
G1 X154.028 Y100.816 E123.25782
G1 X154.037 Y100.818 E123.25822
G1 X154.348 Y100.857 E123.27159
G1 X154.568 Y100.949 E123.28205
G1 X154.704 Y101.053 E123.28957
G1 X154.765 Y101.1 E123.29267
G1 X154.812 Y101.161 E123.29577
G1 X154.914 Y101.294 E123.30258
G1 X155.008 Y101.522 E123.3134
G1 X155.049 Y101.83 E123.32664
G1 X155.05 Y134.624 E124.76601
G1 X155.045 Y135.019 E124.78335
G1 X154.987 Y135.282 E124.79517
G1 X154.879 Y135.49 E124.80545
G1 X154.87 Y135.507 E124.8063
G1 X154.779 Y135.607 E124.81223
G1 X154.705 Y135.688 E124.81705
G1 X154.665 Y135.713 E124.81912
G1 X154.499 Y135.818 E124.82774
G1 X154.249 Y135.897 E124.83925
G1 X154.037 Y135.914 E124.84858
G1 X154.025 Y135.916 E124.84912
G1 X144.35 Y135.916 E125.27376
G1 X144.35 Y135.216 E125.30449
G1 X154.037 Y135.216 E125.72966
G1 X154.249 Y135.216 E125.73866
G1 X154.35 Y135.216 E125.74238
G1 X154.35 Y135.019 E125.7477
G1 X154.35 Y134.624 E125.76499
G0 F5400 X153.7 Y134.566
;TYPE:WALL-OUTER
G1 F1800 X153.7 Y102.166 E127.18707
G1 X36.3 Y102.166 E132.33991
G1 X36.3 Y133.87 E133.73144
G1 X36.347 Y134.566 E133.76205
G1 X46.3 Y134.566 E134.1989
G1 X46.3 Y136.566 E134.28669
G1 X35.926 Y136.566 E134.74201
G1 X35.499 Y136.512 E134.76091
G1 X35.124 Y136.361 E134.77865
G1 X34.794 Y136.118 E134.79664
G1 X34.543 Y135.808 E134.81414
G1 X34.374 Y135.432 E134.83224
G1 X34.303 Y135.019 E134.85063
G1 X34.301 Y101.716 E136.31234
G1 X34.377 Y101.288 E136.33142
G1 X34.554 Y100.907 E136.34986
