;FLAVOR:Marlin
;TIME:9235
;Filament used: 5.05149m
;Layer height: 0.4
;MINX:30.889
;MINY:63.389
;MINZ:0.52
;MAXX:159.111
;MAXY:106.611
;MAXZ:57.32
;Generated with Cura_SteamEngine 4.1.0
M82 ;absolute extrusion mode
M98 P0:/sys/startprint.g

G92 E0
G92 E0
G10
;LAYER_COUNT:143
;LAYER:0
M107
G0 F3600 X33.606 Y63.971 Z0.52
;TYPE:SKIRT
G11
G1 F1800 X34.072 Y63.745 E0.02955
G1 X34.473 Y63.617 E0.05357
G1 X34.675 Y63.566 E0.06546
G1 X34.813 Y63.534 E0.07354
G1 X35.111 Y63.472 E0.09091
G1 X35.684 Y63.404 E0.12383
G1 X35.899 Y63.397 E0.13611
G1 X35.98 Y63.395 E0.14073
G1 X36.216 Y63.393 E0.1542
G1 X36.244 Y63.393 E0.15579
G1 X80.139 Y63.39 E2.66038
G1 X147.118 Y63.389 E6.48212
G1 X147.122 Y63.389 E6.48235
G1 X147.964 Y63.39 E6.53039
G1 X153.441 Y63.39 E6.8429
G1 X154.139 Y63.4 E6.88273
G1 X154.554 Y63.432 E6.90648
G1 X154.984 Y63.492 E6.93125
G1 X155.489 Y63.603 E6.96076
G1 X155.864 Y63.741 E6.98356
G1 X156.36 Y63.958 E7.01445
G1 X156.816 Y64.201 E7.04393
G1 X157.284 Y64.56 E7.07758
G1 X157.654 Y64.9 E7.10626
G1 X158.006 Y65.279 E7.13577
G1 X158.283 Y65.683 E7.16372
G1 X158.529 Y66.106 E7.19164
G1 X158.754 Y66.572 E7.22117
G1 X158.9 Y67.048 E7.24958
G1 X159.014 Y67.55 E7.27895
G1 X159.095 Y68.168 E7.31451
G1 X159.103 Y68.384 E7.32685
G1 X159.105 Y68.476 E7.3321
G1 X159.107 Y68.688 E7.34419
G1 X159.107 Y68.72 E7.34602
G1 X159.111 Y100.846 E9.17909
G1 X159.111 Y100.89 E9.1816
G1 X159.102 Y101.574 E9.22063
G1 X159.072 Y101.974 E9.24352
G1 X159.004 Y102.483 E9.27282
G1 X158.897 Y102.989 E9.30233
G1 X158.81 Y103.243 E9.31765
G1 X158.723 Y103.469 E9.33146
G1 X158.627 Y103.695 E9.34547
G1 X158.526 Y103.909 E9.35898
G1 X158.269 Y104.358 E9.3885
G1 X158.046 Y104.651 E9.40951
G1 X157.793 Y104.948 E9.43177
G1 X157.353 Y105.378 E9.46687
G1 X157.131 Y105.558 E9.48318
G1 X156.738 Y105.833 E9.51055
G1 X156.49 Y105.981 E9.52703
G1 X156.026 Y106.211 E9.55658
G1 X155.669 Y106.332 E9.57808
G1 X155.172 Y106.47 E9.60751
G1 X154.665 Y106.569 E9.63699
G1 X154.324 Y106.592 E9.65649
G1 X153.633 Y106.602 E9.69592
G1 X153.588 Y106.602 E9.69849
G1 X144.308 Y106.61 E10.228
G1 X144.263 Y106.61 E10.23056
G1 X143.622 Y106.602 E10.26714
G1 X143.107 Y106.555 E10.29665
G1 X142.605 Y106.43 E10.32617
G1 X142.095 Y106.212 E10.35781
G1 X140.87 Y105.563 E10.43691
G1 X138.396 Y104.275 E10.59606
G1 X135.923 Y103.075 E10.7529
G1 X133.459 Y101.965 E10.9071
G1 X130.925 Y100.909 E11.06374
G1 X128.362 Y99.922 E11.22045
G1 X125.793 Y99.02 E11.37581
G1 X123.211 Y98.192 E11.53052
G1 X120.562 Y97.424 E11.6879
G1 X117.907 Y96.736 E11.84439
G1 X115.274 Y96.132 E11.99853
G1 X112.552 Y95.587 E12.15692
G1 X109.885 Y95.135 E12.31127
G1 X107.174 Y94.75 E12.46751
G1 X104.452 Y94.443 E12.62381
G1 X101.752 Y94.216 E12.77841
G1 X99.008 Y94.063 E12.93522
G1 X96.267 Y93.988 E13.09168
G1 X93.556 Y93.99 E13.24636
G1 X90.812 Y94.071 E13.403
G1 X88.073 Y94.228 E13.55954
G1 X85.336 Y94.463 E13.71629
G1 X82.644 Y94.771 E13.87089
G1 X79.923 Y95.161 E14.02773
G1 X77.252 Y95.621 E14.18238
G1 X74.587 Y96.157 E14.33749
G1 X71.894 Y96.779 E14.49519
G1 X69.259 Y97.468 E14.6506
G1 X66.616 Y98.238 E14.80767
G1 X64.041 Y99.069 E14.96206
G1 X61.46 Y99.983 E15.11829
G1 X58.902 Y100.971 E15.27475
G1 X56.387 Y102.024 E15.43033
G1 X53.9 Y103.149 E15.58607
G1 X51.413 Y104.361 E15.74393
G1 X49.009 Y105.617 E15.8987
G1 X48.015 Y106.164 E15.96343
G1 X47.544 Y106.378 E15.99295
G1 X47.046 Y106.516 E16.02244
G1 X46.689 Y106.566 E16.04301
G1 X46.32 Y106.598 E16.06414
G1 X46.031 Y106.611 E16.08065
G1 X36.559 Y106.611 E16.62111
G1 X35.862 Y106.601 E16.66088
G1 X35.494 Y106.575 E16.68193
G1 X35.262 Y106.546 E16.69527
G1 X35.153 Y106.531 E16.70155
G1 X34.945 Y106.498 E16.71357
G1 X34.442 Y106.377 E16.74308
G1 X34.117 Y106.254 E16.76291
G1 X33.648 Y106.047 E16.79216
G1 X33.193 Y105.802 E16.82165
G1 X32.756 Y105.468 E16.85303
G1 X32.364 Y105.114 E16.88317
G1 X32.008 Y104.739 E16.91267
G1 X31.708 Y104.302 E16.94292
G1 X31.461 Y103.874 E16.97112
G1 X31.237 Y103.408 E17.00062
G1 X31.109 Y103.001 E17.02496
G1 X31.061 Y102.806 E17.03642
G1 X31.033 Y102.683 E17.04362
G1 X30.972 Y102.388 E17.06081
G1 X30.905 Y101.831 E17.09282
G1 X30.897 Y101.609 E17.10549
G1 X30.895 Y101.513 E17.11097
G1 X30.893 Y101.244 E17.12632
G1 X30.893 Y101.219 E17.12775
G1 X30.889 Y69.109 E18.9599
G1 X30.889 Y69.062 E18.96258
G1 X30.899 Y68.354 E19.00298
G1 X30.925 Y67.984 E19.02415
G1 X30.952 Y67.769 E19.03651
G1 X30.97 Y67.648 E19.04349
G1 X31.005 Y67.433 E19.05592
G1 X31.127 Y66.93 E19.08545
G1 X31.245 Y66.621 E19.10433
G1 X31.451 Y66.153 E19.1335
G1 X31.695 Y65.697 E19.16301
G1 X32.02 Y65.27 E19.19363
G1 X32.367 Y64.882 E19.22333
G1 X32.741 Y64.524 E19.25287
G1 X33.177 Y64.221 E19.28317
G1 X33.606 Y63.971 E19.3115
G10
;MESH:psushield.stl
G0 F3600 X35.443 Y67.235
G0 X35.822 Y67.811
;TYPE:WALL-INNER
G11
G1 F1800 X35.903 Y67.793 E19.31623
G1 X80.139 Y67.79 E21.84028
G1 X103.112 Y67.79 E23.15109
G1 X147.118 Y67.789 E25.66202
G1 X147.959 Y67.79 E25.71
G1 X154.027 Y67.79 E26.05623
G1 X154.178 Y67.811 E26.06493
G1 X154.027 Y67.811 E26.06506
G1 X147.959 Y67.811 E26.07546
G1 X147.118 Y67.811 E26.07694
G1 X103.113 Y67.81 E26.15235
G1 X80.139 Y67.81 E26.18988
G1 X35.904 Y67.81 E26.25665
G1 X35.822 Y67.811 E26.25671
G0 F3600 X35.311 Y68.321
G1 F1800 X35.311 Y68.475 E26.2655
G1 X35.311 Y101.597 E28.1554
G1 X35.311 Y101.678 E28.16002
G1 X35.293 Y101.597 E28.16014
G1 X35.289 Y68.475 E28.21421
G1 X35.311 Y68.321 E28.21441
G0 F3600 X35.821 Y102.189
G1 F1800 X35.977 Y102.189 E28.22331
G1 X45.311 Y102.189 E28.75589
G1 X45.311 Y102.211 E28.75715
G1 X35.977 Y102.211 E28.77391
G1 X35.821 Y102.189 E28.77411
G0 F3600 X35.948 Y68.448
G0 X154.052 Y68.448
G0 X154.052 Y101.552
G0 X144.689 Y102.189
G1 F1800 X154.143 Y102.189 E29.31354
G1 X154.19 Y102.189 E29.31622
G1 X154.143 Y102.201 E29.3163
G1 X144.689 Y102.21 E29.32904
G1 X144.689 Y102.189 E29.33024
G0 F3600 X154.052 Y101.552
G0 X154.689 Y68.322
G1 F1800 X154.707 Y68.403 E29.33497
G1 X154.711 Y101.521 E31.22464
G1 X154.689 Y101.666 E31.23301
G1 X154.689 Y101.521 E31.23314
G1 X154.689 Y68.403 E31.28721
G1 X154.689 Y68.322 E31.28727
G0 F3600 X154.094 Y101.594
G0 X154.039 Y101.539
;TYPE:WALL-OUTER
G1 F1800 X154.039 Y68.461 E33.17465
G1 X103.113 Y68.46 E36.08042
G1 X35.961 Y68.461 E39.91203
G1 X35.961 Y101.539 E41.79942
G1 X45.961 Y101.539 E42.37
G1 X45.961 Y102.861 E42.44543
G1 X35.928 Y102.861 E43.0179
G1 X35.553 Y102.808 E43.03951
G1 X35.201 Y102.644 E43.06167
G1 X34.922 Y102.388 E43.08328
G1 X34.73 Y102.057 E43.10511
G1 X34.643 Y101.666 E43.12797
G1 X34.639 Y68.428 E45.02448
G1 X34.692 Y68.053 E45.04609
G1 X34.856 Y67.701 E45.06825
G1 X35.112 Y67.422 E45.08985
G1 X35.443 Y67.23 E45.11169
G1 X35.834 Y67.143 E45.13454
G1 X80.139 Y67.14 E47.66253
G1 X147.118 Y67.139 E51.48426
G1 X147.96 Y67.14 E51.53231
G1 X154.074 Y67.14 E51.88116
G1 X154.447 Y67.192 E51.90265
G1 X154.799 Y67.356 E51.92481
G1 X155.078 Y67.612 E51.94642
G1 X155.27 Y67.943 E51.96825
G1 X155.357 Y68.334 E51.9911
G1 X155.361 Y101.573 E53.88768
G1 X155.301 Y101.968 E53.91048
G1 X155.158 Y102.279 E53.93001
G1 X154.909 Y102.562 E53.95151
G1 X154.596 Y102.755 E53.9725
G1 X154.227 Y102.851 E53.99425
G1 X144.389 Y102.861 E54.5556
G1 X144.039 Y102.861 E54.57557
G1 X144.039 Y102.511 E54.58849
G1 X144.039 Y101.539 E54.64395
G1 X154.039 Y101.539 E55.21454
G0 F3600 X154.039 Y101.139
G0 X154.675 Y101.138
;MESH:NONMESH
G0 X154.35 Y101.284
;TIME_ELAPSED:59.579984
;LAYER:1
;MESH:psushield.stl
G0 F5400 X154.35 Y101.284 Z0.92
;TYPE:WALL-INNER
G1 F2700 X154.35 Y68.468 E56.65487
G1 X154.35 Y68.15 E56.66883
G1 X154.037 Y68.15 E56.68257
G1 X35.708 Y68.15 E61.87618
G1 X35.65 Y68.15 E61.87873
G1 X35.65 Y68.406 E61.88563
G1 X35.65 Y100.526 E63.29542
G1 X35.739 Y101.85 E63.35366
G1 X36.005 Y101.85 E63.36534
G1 X45.65 Y101.85 E63.78867
G1 X45.65 Y102.55 E63.8194
G1 X35.972 Y102.55 E64.24418
G1 X35.916 Y102.542 E64.24666
G1 X35.652 Y102.509 E64.2581
G1 X35.492 Y102.442 E64.26572
G1 X35.432 Y102.417 E64.26857
G1 X35.351 Y102.355 E64.27286
G1 X35.236 Y102.266 E64.27899
G1 X35.224 Y102.25 E64.27987
G1 X35.086 Y102.072 E64.28955
G1 X34.992 Y101.845 E64.30033
G1 X34.951 Y101.532 E64.31419
G1 X34.951 Y100.526 E64.35834
G1 X34.951 Y68.406 E65.76813
G1 X35.002 Y68.119 E65.78049
G1 X35.107 Y67.892 E65.79088
G1 X35.205 Y67.776 E65.79755
G1 X35.26 Y67.71 E65.80093
G1 X35.315 Y67.671 E65.80352
G1 X35.465 Y67.567 E65.81087
G1 X35.708 Y67.478 E65.82166
G1 X35.962 Y67.45 E65.83287
G1 X154.028 Y67.45 E71.01494
G1 X154.037 Y67.452 E71.01535
G1 X154.348 Y67.491 E71.02871
G1 X154.568 Y67.583 E71.03918
G1 X154.705 Y67.688 E71.04619
G1 X154.764 Y67.734 E71.0492
G1 X154.809 Y67.793 E71.05246
G1 X154.914 Y67.928 E71.0594
G1 X155.008 Y68.155 E71.07018
G1 X155.049 Y68.468 E71.08363
G1 X155.05 Y101.245 E72.52226
G1 X155.048 Y101.284 E72.52397
G1 X155.038 Y101.708 E72.54259
G1 X154.975 Y101.949 E72.55352
G1 X154.868 Y102.14 E72.56313
G1 X154.859 Y102.156 E72.56393
G1 X154.769 Y102.25 E72.56965
G1 X154.692 Y102.331 E72.57455
G1 X154.658 Y102.351 E72.57628
G1 X154.485 Y102.458 E72.58521
G1 X154.246 Y102.532 E72.59619
G1 X154.038 Y102.549 E72.60535
G1 X154.026 Y102.55 E72.60588
G1 X144.35 Y102.55 E73.03057
G1 X144.35 Y101.85 E73.0613
G1 X154.038 Y101.85 E73.48652
G1 X154.246 Y101.85 E73.49534
G1 X154.35 Y101.85 E73.49917
G1 X154.35 Y101.708 E73.50291
G1 X154.35 Y101.284 E73.52137
G0 F5400 X153.7 Y101.2
;TYPE:WALL-OUTER
G1 F1800 X153.7 Y68.8 E74.94345
G1 X36.3 Y68.8 E80.09629
G1 X36.3 Y100.504 E81.48782
G1 X36.347 Y101.2 E81.51844
G1 X46.3 Y101.2 E81.95529
G1 X46.3 Y103.2 E82.04307
G1 X35.928 Y103.2 E82.49831
G1 X35.484 Y103.143 E82.51796
G1 X35.105 Y102.985 E82.53598
G1 X34.772 Y102.73 E82.55439
G1 X34.517 Y102.397 E82.5728
G1 X34.36 Y102.018 E82.59081
G1 X34.301 Y101.572 E82.61055
G1 X34.301 Y68.35 E84.06871
G1 X34.377 Y67.92 E84.08787
G1 X34.553 Y67.541 E84.10622
G1 X34.819 Y67.225 E84.12434
G1 X35.162 Y66.985 E84.14272
G1 X35.557 Y66.841 E84.16117
G1 X35.926 Y66.8 E84.17747
G1 X154.072 Y66.8 E89.36305
G1 X154.516 Y66.857 E89.3827
G1 X154.895 Y67.015 E89.40072
G1 X155.228 Y67.27 E89.41913
G1 X155.483 Y67.603 E89.43754
G1 X155.64 Y67.982 E89.45554
G1 X155.699 Y68.428 E89.47529
G1 X155.7 Y101.262 E90.91642
G1 X155.686 Y101.797 E90.93991
G1 X155.583 Y102.195 E90.95795
G1 X155.386 Y102.546 E90.97562
G1 X155.104 Y102.84 E90.9935
G1 X154.755 Y103.055 E91.01149
G1 X154.367 Y103.174 E91.0293
G1 X154.056 Y103.2 E91.043
G1 X143.7 Y103.2 E91.49754
G1 X143.7 Y101.2 E91.58532
G1 X153.7 Y101.2 E92.02423
G0 F5400 X153.7 Y100.8
G0 X154.47 Y100.8
G0 X154.378 Y68.122
G0 X35.622 Y68.122
G0 X35.398 Y101.709
G0 X35.361 Y101.746
;TYPE:SKIN
G1 F1800 X35.324 Y101.288 E92.02918
G0 F5400 X35.651 Y101.268
;MESH:NONMESH
G0 X35.6 Y101.27
G0 X35.622 Y68.122
G0 X154.378 Y68.122
G0 X154.45 Y101.438
G0 X154.35 Y101.438
;TIME_ELAPSED:101.247259
;LAYER:2
;MESH:psushield.stl
G0 F7200 X154.35 Y101.438 Z1.32
;TYPE:WALL-INNER
G1 F3600 X154.35 Y68.467 E93.47632
G1 X154.35 Y68.15 E93.49023
G1 X154.037 Y68.15 E93.50397
G1 X39.419 Y68.15 E98.5347
G1 X35.845 Y68.15 E98.69157
G1 X35.65 Y68.15 E98.70013
G1 X35.65 Y68.246 E98.70102
G1 X35.65 Y68.579 E98.71563
G1 X35.65 Y101.533 E100.16203
G1 X35.65 Y101.85 E100.17594
G1 X35.963 Y101.85 E100.18968
G1 X45.65 Y101.85 E100.61485
G1 X45.65 Y102.55 E100.64558
G1 X35.975 Y102.55 E101.07023
G1 X35.966 Y102.548 E101.07063
G1 X35.655 Y102.508 E101.08405
G1 X35.431 Y102.416 E101.09468
G1 X35.296 Y102.313 E101.10158
G1 X35.234 Y102.265 E101.10473
G1 X35.189 Y102.207 E101.10769
G1 X35.086 Y102.073 E101.11456
G1 X34.992 Y101.846 E101.12534
G1 X34.951 Y101.533 E101.13879
G1 X34.95 Y100.763 E101.17259
G1 X34.95 Y68.598 E102.58435
G1 X34.952 Y68.579 E102.58519
G1 X34.969 Y68.246 E102.59963
G1 X35.045 Y68.007 E102.61012
G1 X35.154 Y67.835 E102.61833
G1 X35.181 Y67.793 E102.62015
G1 X35.256 Y67.724 E102.62415
G1 X35.357 Y67.631 E102.62967
G1 X35.375 Y67.622 E102.63035
G1 X35.573 Y67.519 E102.63941
G1 X35.845 Y67.459 E102.6511
G1 X39.419 Y67.45 E102.80707
G1 X154.025 Y67.45 E107.83728
G1 X154.034 Y67.452 E107.83768
G1 X154.345 Y67.492 E107.8511
G1 X154.569 Y67.584 E107.86173
G1 X154.704 Y67.687 E107.86863
G1 X154.766 Y67.735 E107.87178
G1 X154.811 Y67.793 E107.87474
G1 X154.914 Y67.927 E107.88161
G1 X155.008 Y68.154 E107.89239
G1 X155.049 Y68.467 E107.90584
G1 X155.05 Y70.103 E107.97765
G1 X155.05 Y101.426 E109.35245
G1 X155.048 Y101.439 E109.35303
G1 X155.02 Y101.801 E109.36897
G1 X154.943 Y102.019 E109.37911
G1 X154.836 Y102.178 E109.38753
G1 X154.806 Y102.222 E109.38986
G1 X154.734 Y102.285 E109.39406
G1 X154.627 Y102.38 E109.40034
G1 X154.415 Y102.488 E109.41079
G1 X154.162 Y102.542 E109.42214
G1 X144.699 Y102.55 E109.83748
G1 X144.35 Y102.55 E109.8528
G1 X144.35 Y102.201 E109.86271
G1 X144.35 Y101.85 E109.87812
G1 X154.162 Y101.85 E110.3087
G1 X154.35 Y101.85 E110.31621
G1 X154.35 Y101.801
G1 X154.35 Y101.438 E110.33181
G0 F7200 X153.7 Y101.2
;TYPE:WALL-OUTER
G1 F1800 X153.7 Y68.8 E111.75389
G1 X36.3 Y68.8 E116.90673
G1 X36.3 Y101.2 E118.3288
G1 X46.3 Y101.2 E118.76772
G1 X46.3 Y103.2 E118.8555
G1 X35.929 Y103.2 E119.3107
G1 X35.485 Y103.142 E119.33035
G1 X35.106 Y102.985 E119.34836
G1 X34.772 Y102.73 E119.3668
G1 X34.517 Y102.398 E119.38517
G1 X34.36 Y102.019 E119.40318
G1 X34.301 Y101.573 E119.42293
G1 X34.3 Y100.764 E119.45843
G1 X34.3 Y68.58 E120.87103
G1 X34.325 Y68.127 E120.89094
G1 X34.451 Y67.729 E120.90927
G1 X34.676 Y67.375 E120.92768
G1 X34.981 Y67.094 E120.94588
G1 X35.351 Y66.902 E120.96418
G1 X35.771 Y66.809 E120.98306
G1 X39.417 Y66.8 E121.14308
G1 X154.071 Y66.8 E126.1754
G1 X154.515 Y66.858 E126.19505
G1 X154.894 Y67.015 E126.21306
G1 X155.228 Y67.27 E126.2315
G1 X155.483 Y67.602 E126.24987
G1 X155.64 Y67.981 E126.26788
G1 X155.699 Y68.427 E126.28763
G1 X155.7 Y70.103 E126.36119
G1 X155.7 Y101.453 E127.73718
G1 X155.661 Y101.937 E127.75849
G1 X155.528 Y102.314 E127.77604
G1 X155.299 Y102.654 E127.79403
G1 X154.994 Y102.923 E127.81188
G1 X154.634 Y103.105 E127.82959
G1 X154.23 Y103.192 E127.84772
G1 X144.05 Y103.2 E128.29454
G1 X143.7 Y103.2 E128.3099
G1 X143.7 Y102.85 E128.31984
G1 X143.7 Y101.2 E128.39226
G1 X153.7 Y101.2 E128.83118
G0 F7200 X153.7 Y100.8
G0 X154.47 Y100.8
;MESH:NONMESH
G0 X154.35 Y101.363
;TIME_ELAPSED:137.836537
;LAYER:3
;MESH:psushield.stl
G0 X154.35 Y101.363 Z1.72
;TYPE:WALL-INNER
G1 F3600 X154.35 Y68.473 E130.27476
G1 X154.35 Y68.15 E130.28894
G1 X154.04 Y68.15 E130.30254
G1 X42.123 Y68.15 E135.21473
G1 X35.778 Y68.15 E135.49322
G1 X35.65 Y68.15 E135.49883
G1 X35.65 Y68.29 E135.5026
G1 X35.65 Y68.711 E135.52108
G1 X35.65 Y101.527 E136.96142
G1 X35.65 Y101.85 E136.9756
G1 X35.96 Y101.85 E136.9892
G1 X45.65 Y101.85 E137.41451
G1 X45.65 Y102.55 E137.44523
G1 X35.973 Y102.55 E137.86997
G1 X35.964 Y102.548 E137.87037
G1 X35.656 Y102.509 E137.88367
G1 X35.429 Y102.415 E137.89445
G1 X35.296 Y102.313 E137.90181
G1 X35.237 Y102.268 E137.90507
G1 X35.188 Y102.204 E137.90861
G1 X35.087 Y102.072 E137.91535
G1 X34.993 Y101.846 E137.92609
G1 X34.951 Y101.527 E137.93979
G1 X34.95 Y100.121 E138.0015
G1 X34.95 Y68.747 E139.37855
G1 X34.952 Y68.711 E139.38013
G1 X34.963 Y68.29 E139.39846
G1 X35.028 Y68.043 E139.40917
G1 X35.137 Y67.853 E139.41804
G1 X35.151 Y67.83 E139.41887
G1 X35.241 Y67.74 E139.42391
G1 X35.327 Y67.654 E139.42871
G1 X35.355 Y67.638 E139.43012
G1 X35.538 Y67.533 E139.43863
G1 X35.778 Y67.468 E139.44902
G1 X42.123 Y67.45 E139.72412
G1 X154.027 Y67.45 E144.63574
G1 X154.036 Y67.452 E144.63614
G1 X154.344 Y67.491 E144.64944
G1 X154.571 Y67.585 E144.66022
G1 X154.704 Y67.687 E144.66758
G1 X154.763 Y67.732 E144.67084
G1 X154.812 Y67.796 E144.67437
G1 X154.913 Y67.928 E144.68112
G1 X155.007 Y68.154 E144.69186
G1 X155.049 Y68.473 E144.70556
G1 X155.05 Y71.565 E144.84127
G1 X155.05 Y101.343 E146.14827
G1 X155.048 Y101.363 E146.14915
G1 X155.029 Y101.754 E146.16633
G1 X154.958 Y101.988 E146.17706
G1 X154.851 Y102.16 E146.18595
G1 X154.834 Y102.188 E146.18739
G1 X154.751 Y102.267 E146.19242
G1 X154.659 Y102.356 E146.19804
G1 X154.641 Y102.366 E146.19894
G1 X154.453 Y102.472 E146.20842
G1 X154.22 Y102.533 E146.21899
G1 X144.35 Y102.548 E146.65219
