;FLAVOR:Marlin
;TIME:3206
;Filament used: 1.17357m
;Layer height: 0.2
;MINX:77.434
;MINY:61.934
;MINZ:0.28
;MAXX:112.566
;MAXY:108.066
;MAXZ:9.48
;Generated with Cura_SteamEngine 4.1.0
M82 ;absolute extrusion mode
M98 P0:/sys/startprint.g

G92 E0
G92 E0
G10
;LAYER_COUNT:47
;LAYER:0
M107
G0 F3600 X78.09 Y63.433 Z0.28
;TYPE:SKIRT
M220 S50
G11
G1 F1800 X78.429 Y63.024 E0.00816
G1 X78.824 Y62.671 E0.0163
G1 X79.269 Y62.381 E0.02446
G1 X79.752 Y62.16 E0.03262
G1 X80.262 Y62.015 E0.04076
G1 X80.872 Y61.945 E0.0502
G1 X81.201 Y61.936 E0.05525
G1 X81.297 Y61.935 E0.05673
G1 X108.334 Y61.934 E0.47207
G1 X108.384 Y61.934 E0.47284
G1 X109.082 Y61.944 E0.48356
G1 X109.611 Y61.992 E0.49172
G1 X110.126 Y62.118 E0.49986
G1 X110.617 Y62.32 E0.50802
G1 X111.072 Y62.594 E0.51618
G1 X111.48 Y62.933 E0.52433
G1 X111.833 Y63.329 E0.53248
G1 X112.123 Y63.774 E0.54064
G1 X112.342 Y64.257 E0.54878
G1 X112.487 Y64.768 E0.55694
G1 X112.556 Y65.369 E0.56624
G1 X112.565 Y65.685 E0.57109
G1 X112.566 Y65.785 E0.57263
G1 X112.566 Y103.849 E1.15737
G1 X112.557 Y104.576 E1.16854
G1 X112.51 Y105.104 E1.17668
G1 X112.385 Y105.62 E1.18484
G1 X112.184 Y106.111 E1.19299
G1 X111.911 Y106.566 E1.20114
G1 X111.573 Y106.975 E1.20929
G1 X111.177 Y107.329 E1.21745
G1 X110.733 Y107.619 E1.22559
G1 X110.25 Y107.84 E1.23375
G1 X109.74 Y107.985 E1.2419
G1 X109.131 Y108.056 E1.25132
G1 X108.81 Y108.065 E1.25625
G1 X108.711 Y108.066 E1.25777
G1 X81.621 Y108.066 E1.67393
G1 X80.923 Y108.057 E1.68465
G1 X80.394 Y108.01 E1.69281
G1 X79.878 Y107.884 E1.70097
G1 X79.387 Y107.683 E1.70912
G1 X78.932 Y107.41 E1.71727
G1 X78.523 Y107.072 E1.72542
G1 X78.17 Y106.676 E1.73357
G1 X77.88 Y106.232 E1.74172
G1 X77.66 Y105.749 E1.74987
G1 X77.514 Y105.238 E1.75803
G1 X77.444 Y104.627 E1.76748
G1 X77.435 Y104.294 E1.7726
G1 X77.434 Y104.199 E1.77406
G1 X77.435 Y90.163 E1.98968
G1 X77.435 Y90.115 E1.99042
G1 X77.445 Y89.383 E2.00166
G1 X77.448 Y89.278 E2.00328
G1 X77.457 Y89.071 E2.00646
G1 X77.533 Y86.335 E2.04851
G1 X77.533 Y83.625 E2.09014
G1 X77.468 Y81.207 E2.1273
G1 X77.445 Y80.618 E2.13635
G1 X77.442 Y80.522 E2.13783
G1 X77.435 Y79.945 E2.14669
G1 X77.435 Y79.902 E2.14735
G1 X77.434 Y66.16 E2.35845
G1 X77.434 Y66.114 E2.35916
G1 X77.443 Y65.423 E2.36978
G1 X77.49 Y64.895 E2.37792
G1 X77.616 Y64.379 E2.38608
G1 X77.817 Y63.888 E2.39423
G1 X78.09 Y63.433 E2.40238
G0 F3600 X78.437 Y63.552
G1 F1800 X78.772 Y63.176 E2.41012
G1 X79.162 Y62.858 E2.41785
G1 X79.597 Y62.605 E2.42558
G1 X80.068 Y62.424 E2.43333
G1 X80.56 Y62.32 E2.44106
G1 X80.881 Y62.295 E2.446
G1 X81.21 Y62.286 E2.45106
G1 X81.297 Y62.285 E2.45239
G1 X108.334 Y62.284 E2.86774
G1 X108.379 Y62.284 E2.86843
G1 X109.077 Y62.294 E2.87915
G1 X109.579 Y62.341 E2.8869
G1 X110.066 Y62.467 E2.89462
G1 X110.528 Y62.669 E2.90237
G1 X110.952 Y62.94 E2.9101
G1 X111.328 Y63.276 E2.91785
G1 X111.646 Y63.666 E2.92558
G1 X111.898 Y64.102 E2.93331
G1 X112.078 Y64.572 E2.94104
G1 X112.181 Y65.065 E2.94878
G1 X112.206 Y65.379 E2.95362
G1 X112.215 Y65.695 E2.95848
G1 X112.216 Y65.785 E2.95986
G1 X112.216 Y103.844 E3.54452
G1 X112.207 Y104.571 E3.55569
G1 X112.161 Y105.073 E3.56343
G1 X112.036 Y105.561 E3.57117
G1 X111.835 Y106.023 E3.57891
G1 X111.564 Y106.447 E3.58664
G1 X111.23 Y106.823 E3.59437
G1 X110.84 Y107.142 E3.60211
G1 X110.404 Y107.395 E3.60985
G1 X109.934 Y107.576 E3.61759
G1 X109.442 Y107.68 E3.62531
G1 X109.121 Y107.706 E3.63026
G1 X108.8 Y107.715 E3.63519
G1 X108.711 Y107.716 E3.63656
G1 X81.625 Y107.716 E4.05265
G1 X80.927 Y107.707 E4.06338
G1 X80.426 Y107.66 E4.07111
G1 X79.938 Y107.535 E4.07885
G1 X79.476 Y107.335 E4.08658
G1 X79.052 Y107.063 E4.09432
G1 X78.675 Y106.729 E4.10206
G1 X78.357 Y106.338 E4.1098
G1 X78.104 Y105.903 E4.11753
G1 X77.923 Y105.433 E4.12527
G1 X77.819 Y104.94 E4.13301
G1 X77.794 Y104.618 E4.13797
G1 X77.785 Y104.285 E4.14309
G1 X77.784 Y104.199 E4.14441
G1 X77.785 Y90.163 E4.36003
G1 X77.785 Y90.12 E4.36069
G1 X77.795 Y89.388 E4.37193
G1 X77.798 Y89.293 E4.37339
G1 X77.805 Y89.127 E4.37595
G1 X77.883 Y86.344 E4.41871
G1 X77.883 Y83.615 E4.46064
G1 X77.819 Y81.237 E4.49718
G1 X77.794 Y80.604 E4.50691
G1 X77.792 Y80.518 E4.50823
G1 X77.785 Y79.941 E4.5171
G1 X77.785 Y79.902 E4.5177
G1 X77.784 Y66.16 E4.7288
G1 X77.784 Y66.119 E4.72943
G1 X77.793 Y65.428 E4.74005
G1 X77.84 Y64.926 E4.74779
G1 X77.965 Y64.438 E4.75553
G1 X78.166 Y63.977 E4.76326
G1 X78.437 Y63.552 E4.771
G10
;MESH:slidingblockouter.stl
G0 F3600 X80.264 Y65.999
G0 X81.498 Y65.998
G0 X85.418 Y68.086
G0 X86.213 Y68.951
G0 X86.522 Y70.203
G0 X86.424 Y70.195
;TYPE:WALL-INNER
G11
G1 F1800 X86.379 Y69.522 E4.78136
G1 X86.177 Y68.969 E4.79041
G1 X85.843 Y68.492 E4.79935
G1 X85.396 Y68.118 E4.80831
G1 X84.868 Y67.874 E4.81724
G1 X84.297 Y67.772 E4.82615
G1 X83.716 Y67.823 E4.83511
G1 X83.168 Y68.024 E4.84408
G1 X82.693 Y68.358 E4.853
G1 X82.318 Y68.804 E4.86195
G1 X82.074 Y69.332 E4.87089
G1 X81.972 Y69.909 E4.87989
G1 X82.044 Y70.573 E4.89015
G1 X82.27 Y71.116 E4.89918
G1 X82.624 Y71.578 E4.90812
G1 X83.091 Y71.935 E4.91715
G1 X83.717 Y72.179 E4.92747
G1 X84.395 Y72.224 E4.93791
G1 X85.049 Y72.063 E4.94826
G1 X85.559 Y71.768 E4.95731
G1 X85.97 Y71.356 E4.96625
G1 X86.263 Y70.847 E4.97527
G1 X86.424 Y70.195 E4.98559
G0 F3600 X86.096 Y70.166
;TYPE:WALL-OUTER
G1 F1800 X86.058 Y69.59 E4.99446
G1 X85.886 Y69.121 E5.00213
G1 X85.601 Y68.714 E5.00976
G1 X85.22 Y68.395 E5.0174
G1 X84.77 Y68.187 E5.02501
G1 X84.282 Y68.1 E5.03263
G1 X83.787 Y68.143 E5.04026
G1 X83.32 Y68.314 E5.0479
G1 X82.915 Y68.599 E5.05551
G1 X82.595 Y68.98 E5.06315
G1 X82.387 Y69.43 E5.07077
G1 X82.3 Y69.92 E5.07841
G1 X82.362 Y70.491 E5.08724
G1 X82.554 Y70.952 E5.09491
G1 X82.856 Y71.346 E5.10253
G1 X83.252 Y71.649 E5.11019
G1 X83.788 Y71.858 E5.11903
G1 X84.366 Y71.896 E5.12793
G1 X84.926 Y71.758 E5.13679
G1 X85.359 Y71.508 E5.14447
G1 X85.71 Y71.157 E5.1521
G1 X85.958 Y70.725 E5.15975
G1 X86.096 Y70.166 E5.16859
G0 F3600 X86.083 Y69.967
G0 X86.467 Y69.943
G0 X86.506 Y69.942
G0 X99.203 Y82.678
G0 X99.195 Y82.776
;TYPE:WALL-INNER
G1 F1800 X98.522 Y82.821 E5.17895
G1 X97.969 Y83.024 E5.188
G1 X97.493 Y83.357 E5.19693
G1 X97.118 Y83.804 E5.20589
G1 X96.874 Y84.332 E5.21483
G1 X96.772 Y84.909 E5.22383
G1 X96.844 Y85.573 E5.23409
G1 X97.07 Y86.116 E5.24312
G1 X97.424 Y86.578 E5.25206
G1 X97.891 Y86.935 E5.26109
G1 X98.517 Y87.179 E5.27142
G1 X99.195 Y87.224 E5.28185
G1 X99.849 Y87.063 E5.2922
G1 X100.359 Y86.768 E5.30125
G1 X100.77 Y86.357 E5.31018
G1 X101.061 Y85.852 E5.31913
G1 X101.21 Y85.289 E5.32808
G1 X101.21 Y84.708 E5.33701
G1 X101.06 Y84.146 E5.34594
G1 X100.768 Y83.641 E5.3549
G1 X100.356 Y83.23 E5.36384
G1 X99.847 Y82.937 E5.37286
G1 X99.195 Y82.776 E5.38318
G0 F3600 X99.166 Y83.104
;TYPE:WALL-OUTER
G1 F1800 X98.59 Y83.142 E5.39205
G1 X98.121 Y83.314 E5.39972
G1 X97.715 Y83.599 E5.40734
G1 X97.395 Y83.98 E5.41499
G1 X97.187 Y84.43 E5.4226
G1 X97.1 Y84.92 E5.43025
G1 X97.162 Y85.491 E5.43907
G1 X97.354 Y85.952 E5.44674
G1 X97.656 Y86.346 E5.45437
G1 X98.052 Y86.649 E5.46203
G1 X98.588 Y86.858 E5.47087
G1 X99.166 Y86.896 E5.47976
G1 X99.726 Y86.758 E5.48862
G1 X100.159 Y86.508 E5.49631
G1 X100.51 Y86.157 E5.50393
G1 X100.758 Y85.727 E5.51156
G1 X100.885 Y85.247 E5.51918
G1 X100.885 Y84.751 E5.5268
G1 X100.757 Y84.271 E5.53443
G1 X100.508 Y83.841 E5.54207
G1 X100.157 Y83.49 E5.54969
G1 X99.725 Y83.242 E5.55735
G1 X99.166 Y83.104 E5.56619
G0 F3600 X98.967 Y83.117
G0 X98.943 Y82.733
G0 X98.942 Y82.694
G0 X97.95 Y82.988
G0 X97.252 Y83.583
G0 X86.522 Y100.203
G0 X86.424 Y100.195
;TYPE:WALL-INNER
G1 F1800 X86.379 Y99.522 E5.57655
G1 X86.177 Y98.969 E5.5856
G1 X85.843 Y98.492 E5.59454
G1 X85.396 Y98.118 E5.6035
G1 X84.868 Y97.874 E5.61243
G1 X84.297 Y97.772 E5.62134
G1 X83.716 Y97.823 E5.6303
G1 X83.168 Y98.024 E5.63927
G1 X82.693 Y98.358 E5.64819
G1 X82.318 Y98.804 E5.65714
G1 X82.074 Y99.332 E5.66607
G1 X81.972 Y99.909 E5.67508
G1 X82.044 Y100.573 E5.68534
G1 X82.27 Y101.116 E5.69437
G1 X82.624 Y101.578 E5.70331
G1 X83.091 Y101.935 E5.71234
G1 X83.717 Y102.179 E5.72266
G1 X84.395 Y102.224 E5.7331
G1 X85.049 Y102.063 E5.74345
G1 X85.559 Y101.768 E5.7525
G1 X85.97 Y101.356 E5.76144
G1 X86.263 Y100.847 E5.77046
G1 X86.424 Y100.195 E5.78078
G0 F3600 X86.096 Y100.166
;TYPE:WALL-OUTER
G1 F1800 X86.058 Y99.59 E5.78965
G1 X85.886 Y99.121 E5.79732
G1 X85.601 Y98.714 E5.80495
G1 X85.22 Y98.395 E5.81259
G1 X84.77 Y98.187 E5.8202
G1 X84.282 Y98.1 E5.82782
G1 X83.787 Y98.143 E5.83545
G1 X83.32 Y98.314 E5.84309
G1 X82.915 Y98.599 E5.8507
G1 X82.595 Y98.98 E5.85834
G1 X82.387 Y99.43 E5.86596
G1 X82.3 Y99.92 E5.8736
G1 X82.362 Y100.491 E5.88242
G1 X82.554 Y100.952 E5.8901
G1 X82.856 Y101.346 E5.89772
G1 X83.252 Y101.649 E5.90538
G1 X83.788 Y101.858 E5.91422
G1 X84.366 Y101.896 E5.92312
G1 X84.926 Y101.758 E5.93198
G1 X85.359 Y101.508 E5.93966
G1 X85.71 Y101.157 E5.94728
G1 X85.958 Y100.725 E5.95494
G1 X86.096 Y100.166 E5.96378
G0 F3600 X86.083 Y99.967
G0 X86.467 Y99.943
G0 X86.506 Y99.942
G0 X86.213 Y98.951
G0 X82.905 Y95.295
G0 X82.975 Y95.225
;TYPE:WALL-INNER
G1 F1800 X86.525 Y95.225 E6.01832
G1 X86.525 Y88.475 E6.12201
G1 X84.952 Y88.475 E6.14617
G1 X84.951 Y88.475 E6.14619
G1 X84.569 Y88.475 E6.15206
G1 X84.821 Y88.187 E6.15526
G1 X84.954 Y88.034 E6.15837
G1 X85.318 Y87.492 E6.1684
G1 X85.606 Y86.908 E6.17841
G1 X85.816 Y86.29 E6.18843
G1 X85.943 Y85.649 E6.19847
G1 X85.985 Y85 E6.20846
G1 X85.943 Y84.351 E6.21845
G1 X85.816 Y83.71 E6.22849
G1 X85.606 Y83.092 E6.23852
G1 X85.318 Y82.508 E6.24852
G1 X84.954 Y81.966 E6.25855
G1 X84.821 Y81.813 E6.26166
G1 X84.569 Y81.525 E6.26754
G1 X84.951 Y81.525 E6.27074
G1 X84.952 Y81.525 E6.27075
G1 X86.525 Y81.525 E6.29492
G1 X86.525 Y74.775 E6.39861
G1 X82.975 Y74.775 E6.45315
G1 X82.975 Y80.198 E6.53645
G1 X82.975 Y80.394 E6.53947
G1 X82.975 Y80.427 E6.53997
G1 X82.908 Y80.394 E6.54046
G1 X82.723 Y80.331 E6.54247
G1 X82.29 Y80.184 E6.5495
G1 X81.65 Y80.057 E6.55952
G1 X81.485 Y80.046 E6.56206
G1 X81.484 Y66.158 E6.77541
G1 X81.484 Y65.984 E6.77808
G1 X81.658 Y65.984 E6.77981
G1 X108.516 Y65.984 E7.1924
G1 X108.516 Y104.016 E7.77665
G1 X81.658 Y104.016 E8.18924
G1 X81.484 Y104.016 E8.19191
G1 X81.484 Y103.842 E8.19364
G1 X81.485 Y89.953 E8.407
G1 X81.649 Y89.943 E8.40953
G1 X82.29 Y89.816 E8.41957
G1 X82.723 Y89.669 E8.42659
G1 X82.908 Y89.606 E8.42959
G1 X82.975 Y89.573 E8.43074
G1 X82.975 Y89.606
G1 X82.975 Y89.802 E8.43276
G1 X82.975 Y95.225 E8.51607
G0 F3600 X83.3 Y94.9
;TYPE:WALL-OUTER
G1 F1800 X86.2 Y94.9 E8.56062
G1 X86.2 Y88.8 E8.65433
G1 X84.163 Y88.8 E8.68562
G1 X83.836 Y88.8 E8.69064
G1 X83.681 Y88.8 E8.69303
G1 X83.836 Y88.696 E8.69375
G1 X84.082 Y88.481 E8.69712
G1 X84.295 Y88.295 E8.70146
G1 X84.696 Y87.836 E8.71082
G1 X85.036 Y87.329 E8.7202
G1 X85.305 Y86.783 E8.72955
G1 X85.501 Y86.206 E8.73891
G1 X85.62 Y85.607 E8.7483
G1 X85.659 Y85 E8.75764
G1 X85.62 Y84.393 E8.76698
G1 X85.501 Y83.794 E8.77636
G1 X85.305 Y83.217 E8.78573
G1 X85.036 Y82.671 E8.79508
G1 X84.696 Y82.164 E8.80445
G1 X84.295 Y81.705 E8.81382
G1 X84.082 Y81.519 E8.81816
G1 X83.836 Y81.304 E8.82318
G1 X83.681 Y81.2 E8.82605
G1 X83.836 Y81.2 E8.8263
G1 X84.163 Y81.2 E8.82967
G1 X86.2 Y81.2 E8.86096
G1 X86.2 Y75.1 E8.95467
G1 X83.3 Y75.1 E8.99922
G1 X83.3 Y80.669 E9.08477
G1 X83.3 Y80.67 E9.08478
G1 X83.3 Y80.95 E9.08909
G1 X83.048 Y80.826 E9.09157
G1 X82.783 Y80.695 E9.09611
G1 X82.206 Y80.499 E9.10547
G1 X81.607 Y80.38 E9.11485
G1 X81.16 Y80.35 E9.12173
G1 X81.159 Y65.834 E9.34473
G1 X81.159 Y65.659 E9.34741
G1 X81.334 Y65.659 E9.34915
G1 X108.841 Y65.659 E9.77172
G1 X108.841 Y104.341 E10.36595
G1 X81.334 Y104.341 E10.78851
G1 X81.159 Y104.341 E10.7912
G1 X81.159 Y104.166 E10.79294
G1 X81.16 Y89.648 E11.01596
G1 X81.607 Y89.62 E11.02284
G1 X82.206 Y89.501 E11.03222
G1 X82.783 Y89.305 E11.04158
G1 X83.048 Y89.174 E11.04613
G1 X83.3 Y89.05 E11.05044
G1 X83.3 Y89.33 E11.05291
G1 X83.3 Y89.331 E11.05293
G1 X83.3 Y94.9 E11.13848
G0 F3600 X83.5 Y94.9
G0 X83.5 Y95.285
G0 X82.635 Y95.565
;TYPE:SKIN
G1 F1800 X86.865 Y95.565 E11.20346
G1 X86.865 Y88.135 E11.3176
G1 X85.296 Y88.135 E11.3417
G1 X85.613 Y87.663 E11.35044
G1 X85.921 Y87.038 E11.36114
G1 X86.145 Y86.378 E11.37185
G1 X86.281 Y85.693 E11.38258
G1 X86.325 Y85 E11.39324
G1 X86.281 Y84.307 E11.40391
G1 X86.145 Y83.622 E11.41464
G1 X85.921 Y82.962 E11.42535
G1 X85.613 Y82.337 E11.43605
G1 X85.296 Y81.865 E11.44478
G1 X86.865 Y81.865 E11.46889
G1 X86.865 Y74.435 E11.58303
G1 X82.635 Y74.435 E11.64801
G1 X82.635 Y79.943 E11.73262
G1 X82.378 Y79.855 E11.73679
G1 X81.825 Y79.745 E11.74546
G1 X81.824 Y70.929 E11.88089
G1 X81.973 Y71.287 E11.88684
G1 X82.381 Y71.821 E11.89717
G1 X82.922 Y72.234 E11.90762
G1 X83.643 Y72.515 E11.91951
G1 X84.425 Y72.566 E11.93155
G1 X85.177 Y72.382 E11.94344
G1 X85.769 Y72.04 E11.95394
G1 X86.242 Y71.564 E11.96425
G1 X86.582 Y70.975 E11.9747
G1 X86.766 Y70.226 E11.98655
G1 X86.715 Y69.451 E11.99848
G1 X86.482 Y68.81 E12.00896
G1 X86.096 Y68.26 E12.01928
G1 X85.579 Y67.828 E12.02963
G1 X84.971 Y67.547 E12.03992
G1 X84.312 Y67.43 E12.0502
G1 X83.642 Y67.489 E12.06053
G1 X83.009 Y67.721 E12.07089
G1 X82.462 Y68.105 E12.08116
G1 X82.028 Y68.62 E12.0915
G1 X81.824 Y69.062 E12.09898
G1 X81.824 Y66.324 E12.14104
G1 X108.176 Y66.324 E12.54586
G1 X108.176 Y103.676 E13.11966
G1 X81.824 Y103.676 E13.52448
G1 X81.824 Y100.928 E13.56669
G1 X81.973 Y101.287 E13.57266
G1 X82.381 Y101.821 E13.58299
G1 X82.922 Y102.234 E13.59344
G1 X83.643 Y102.515 E13.60533
G1 X84.425 Y102.566 E13.61737
G1 X85.177 Y102.382 E13.62926
G1 X85.769 Y102.04 E13.63976
G1 X86.242 Y101.564 E13.65007
G1 X86.582 Y100.975 E13.66052
G1 X86.766 Y100.226 E13.67237
G1 X86.715 Y99.451 E13.6843
G1 X86.482 Y98.81 E13.69478
G1 X86.096 Y98.26 E13.7051
G1 X85.579 Y97.828 E13.71545
G1 X84.971 Y97.547 E13.72574
G1 X84.312 Y97.43 E13.73602
G1 X83.642 Y97.489 E13.74635
G1 X83.009 Y97.721 E13.75671
G1 X82.462 Y98.105 E13.76698
G1 X82.028 Y98.62 E13.77732
G1 X81.824 Y99.061 E13.78479
G1 X81.825 Y90.255 E13.92006
G1 X82.378 Y90.145 E13.92873
G1 X82.635 Y90.057 E13.9329
G1 X82.635 Y95.565 E14.01751
G0 F3600 X86.553 Y95.253
G0 X96.773 Y86.287
G1 F1800 X97.181 Y86.821 E14.02784
G1 X97.722 Y87.234 E14.03829
G1 X98.443 Y87.515 E14.05018
G1 X99.225 Y87.566 E14.06222
G1 X99.977 Y87.382 E14.07411
G1 X100.568 Y87.04 E14.0846
G1 X101.042 Y86.565 E14.09491
G1 X101.378 Y85.982 E14.10525
G1 X101.55 Y85.334 E14.11555
G1 X101.55 Y84.663 E14.12585
G1 X101.377 Y84.014 E14.13617
G1 X101.04 Y83.431 E14.14652
G1 X100.564 Y82.958 E14.15682
G1 X99.975 Y82.618 E14.16727
G1 X99.226 Y82.434 E14.17912
G1 X98.45 Y82.485 E14.19107
G1 X97.81 Y82.721 E14.20155
G1 X97.262 Y83.104 E14.21182
G1 X96.828 Y83.62 E14.22217
G1 X96.547 Y84.229 E14.23248
G1 X96.428 Y84.897 E14.2429
G1 X96.512 Y85.658 E14.25466
G1 X96.773 Y86.287 E14.26512
G0 F3600 X86.001 Y101.379
G0 X82.234 Y103.518
G1 F1800 X81.981 Y103.265 E14.27062
G0 F3600 X81.981 Y102.77
G1 F1800 X82.729 Y103.518 E14.28687
G0 F3600 X83.224 Y103.518
G1 F1800 X81.981 Y102.275 E14.31387
G0 F3600 X81.981 Y101.78
G1 F1800 X83.719 Y103.518 E14.35163
G0 F3600 X84.214 Y103.518
G1 F1800 X83.21 Y102.514 E14.37345
G0 F3600 X83.877 Y102.686
G1 F1800 X84.709 Y103.518 E14.39152
G0 F3600 X85.204 Y103.518
G1 F1800 X84.406 Y102.72 E14.40886
G0 F3600 X84.813 Y102.632
G1 F1800 X85.699 Y103.518 E14.42811
G0 F3600 X86.194 Y103.518
G1 F1800 X85.211 Y102.535 E14.44946
G0 F3600 X85.529 Y102.358
G1 F1800 X86.689 Y103.518 E14.47466
G0 F3600 X87.184 Y103.518
G1 F1800 X85.843 Y102.177 E14.5038
G0 F3600 X86.094 Y101.933
G1 F1800 X87.679 Y103.518 E14.53823
G0 F3600 X88.174 Y103.518
G1 F1800 X86.341 Y101.685 E14.57805
G0 F3600 X86.528 Y101.377
G1 F1800 X88.669 Y103.518 E14.62457
G0 F3600 X89.164 Y103.518
G1 F1800 X86.709 Y101.063 E14.6779
G0 F3600 X86.816 Y100.675
G1 F1800 X89.659 Y103.518 E14.73966
G0 F3600 X90.153 Y103.518
G1 F1800 X86.914 Y100.278 E14.81004
G0 F3600 X86.892 Y99.761
G1 F1800 X90.648 Y103.518 E14.89165
G0 F3600 X91.143 Y103.518
G1 F1800 X86.771 Y99.145 E14.98665
G1 X86.709 Y99.083
G0 F3600 X85.022 Y97.396
G1 F1800 X83.346 Y95.721 E15.02305
G0 F3600 X83.841 Y95.721
G1 F1800 X91.638 Y103.518 E15.19244
G0 F3600 X92.133 Y103.518
