;FLAVOR:Marlin
;TIME:2815
;Filament used: 1.27856m
;Layer height: 0.2
;MINX:77.434
;MINY:61.934
;MINZ:0.28
;MAXX:112.566
;MAXY:108.066
;MAXZ:9.48
;Generated with Cura_SteamEngine 4.1.0
M82 ;absolute extrusion mode
M98 P0:/sys/startprint.g

G92 E0
G92 E0
G10
;LAYER_COUNT:47
;LAYER:0
M107
G0 F3600 X78.091 Y63.431 Z0.28
;TYPE:SKIRT
G11
G1 F1800 X78.43 Y63.022 E0.00816
G1 X78.826 Y62.669 E0.01631
G1 X79.27 Y62.379 E0.02446
G1 X79.753 Y62.159 E0.03261
G1 X80.264 Y62.014 E0.04077
G1 X80.869 Y61.944 E0.05013
G1 X81.19 Y61.935 E0.05506
G1 X81.289 Y61.934 E0.05658
G1 X108.384 Y61.934 E0.47281
G1 X109.082 Y61.944 E0.48354
G1 X109.611 Y61.992 E0.4917
G1 X110.126 Y62.118 E0.49984
G1 X110.617 Y62.32 E0.508
G1 X111.072 Y62.594 E0.51616
G1 X111.48 Y62.933 E0.5243
G1 X111.833 Y63.329 E0.53245
G1 X112.123 Y63.774 E0.54061
G1 X112.342 Y64.257 E0.54876
G1 X112.487 Y64.768 E0.55692
G1 X112.556 Y65.37 E0.56623
G1 X112.565 Y65.689 E0.57113
G1 X112.566 Y65.788 E0.57265
G1 X112.565 Y79.837 E0.78847
G1 X112.565 Y79.885 E0.78921
G1 X112.555 Y80.617 E0.80046
G1 X112.552 Y80.722 E0.80207
G1 X112.543 Y80.929 E0.80525
G1 X112.467 Y83.665 E0.8473
G1 X112.467 Y86.375 E0.88893
G1 X112.532 Y88.793 E0.92609
G1 X112.555 Y89.382 E0.93514
G1 X112.558 Y89.478 E0.93662
G1 X112.565 Y90.055 E0.94548
G1 X112.565 Y90.098 E0.94614
G1 X112.566 Y103.815 E1.15686
G1 X112.566 Y103.859 E1.15754
G1 X112.557 Y104.575 E1.16854
G1 X112.51 Y105.104 E1.1767
G1 X112.385 Y105.62 E1.18485
G1 X112.183 Y106.111 E1.19301
G1 X111.911 Y106.566 E1.20115
G1 X111.572 Y106.975 E1.20931
G1 X111.177 Y107.328 E1.21745
G1 X110.733 Y107.619 E1.22561
G1 X110.25 Y107.839 E1.23376
G1 X109.739 Y107.984 E1.24192
G1 X109.128 Y108.055 E1.25137
G1 X108.799 Y108.064 E1.25643
G1 X108.703 Y108.065 E1.2579
G1 X81.666 Y108.066 E1.67324
G1 X81.621 Y108.066 E1.67393
G1 X80.923 Y108.057 E1.68466
G1 X80.394 Y108.01 E1.69282
G1 X79.878 Y107.884 E1.70098
G1 X79.387 Y107.683 E1.70913
G1 X78.932 Y107.41 E1.71728
G1 X78.523 Y107.072 E1.72543
G1 X78.17 Y106.676 E1.73358
G1 X77.88 Y106.232 E1.74172
G1 X77.66 Y105.749 E1.74988
G1 X77.514 Y105.238 E1.75804
G1 X77.444 Y104.627 E1.76749
G1 X77.435 Y104.294 E1.77261
G1 X77.434 Y104.199 E1.77407
G1 X77.434 Y66.085 E2.35957
G1 X77.443 Y65.42 E2.36979
G1 X77.49 Y64.892 E2.37793
G1 X77.616 Y64.376 E2.38609
G1 X77.818 Y63.885 E2.39425
G1 X78.091 Y63.431 E2.40238
G0 F3600 X78.438 Y63.55
G1 F1800 X78.773 Y63.174 E2.41012
G1 X79.163 Y62.856 E2.41785
G1 X79.599 Y62.603 E2.42559
G1 X80.069 Y62.423 E2.43333
G1 X80.562 Y62.319 E2.44107
G1 X80.879 Y62.294 E2.44595
G1 X81.2 Y62.285 E2.45088
G1 X81.289 Y62.284 E2.45225
G1 X108.379 Y62.284 E2.86841
G1 X109.077 Y62.294 E2.87913
G1 X109.579 Y62.341 E2.88688
G1 X110.066 Y62.467 E2.8946
G1 X110.528 Y62.669 E2.90235
G1 X110.952 Y62.94 E2.91008
G1 X111.328 Y63.276 E2.91783
G1 X111.646 Y63.666 E2.92556
G1 X111.898 Y64.102 E2.93329
G1 X112.078 Y64.572 E2.94102
G1 X112.181 Y65.065 E2.94876
G1 X112.206 Y65.379 E2.9536
G1 X112.215 Y65.698 E2.9585
G1 X112.216 Y65.788 E2.95989
G1 X112.215 Y79.837 E3.17571
G1 X112.215 Y79.88 E3.17637
G1 X112.205 Y80.612 E3.18761
G1 X112.202 Y80.707 E3.18907
G1 X112.195 Y80.865 E3.1915
G1 X112.117 Y83.656 E3.23439
G1 X112.117 Y86.385 E3.27632
G1 X112.181 Y88.763 E3.31286
G1 X112.206 Y89.396 E3.32259
G1 X112.208 Y89.482 E3.32391
G1 X112.215 Y90.059 E3.33278
G1 X112.215 Y90.098 E3.33338
G1 X112.216 Y103.815 E3.5441
G1 X112.216 Y103.855 E3.54471
G1 X112.207 Y104.571 E3.55571
G1 X112.161 Y105.072 E3.56344
G1 X112.036 Y105.56 E3.57118
G1 X111.835 Y106.022 E3.57892
G1 X111.564 Y106.447 E3.58666
G1 X111.229 Y106.823 E3.5944
G1 X110.839 Y107.141 E3.60213
G1 X110.404 Y107.394 E3.60986
G1 X109.934 Y107.575 E3.6176
G1 X109.441 Y107.68 E3.62534
G1 X109.119 Y107.705 E3.6303
G1 X108.79 Y107.714 E3.63536
G1 X108.703 Y107.715 E3.63669
G1 X81.666 Y107.716 E4.05203
G1 X81.625 Y107.716 E4.05266
G1 X80.927 Y107.707 E4.06339
G1 X80.426 Y107.66 E4.07112
G1 X79.938 Y107.535 E4.07886
G1 X79.476 Y107.335 E4.08659
G1 X79.052 Y107.063 E4.09433
G1 X78.675 Y106.729 E4.10207
G1 X78.357 Y106.338 E4.10981
G1 X78.104 Y105.903 E4.11754
G1 X77.923 Y105.433 E4.12528
G1 X77.819 Y104.94 E4.13302
G1 X77.794 Y104.618 E4.13798
G1 X77.785 Y104.285 E4.14309
G1 X77.784 Y104.199 E4.14442
G1 X77.784 Y66.09 E4.72984
G1 X77.793 Y65.425 E4.74006
G1 X77.84 Y64.924 E4.74779
G1 X77.965 Y64.436 E4.75553
G1 X78.166 Y63.974 E4.76327
G1 X78.438 Y63.55 E4.77101
G10
;MESH:slidingblockinner.stl
G0 F3600 X80.263 Y65.998
G0 X81.498 Y65.998
G0 X87.555 Y88.445
G0 X87.625 Y88.375
;TYPE:WALL-INNER
G11
G1 F1800 X94.375 Y88.375 E4.8747
G1 X94.375 Y81.625 E4.9784
G1 X87.625 Y81.625 E5.08209
G1 X87.625 Y88.375 E5.18578
G0 F3600 X87.95 Y88.05
;TYPE:WALL-OUTER
G1 F1800 X94.05 Y88.05 E5.27949
G1 X94.05 Y81.95 E5.3732
G1 X87.95 Y81.95 E5.46691
G1 X87.95 Y88.05 E5.56061
G0 F3600 X88.15 Y88.05
G0 X88.15 Y88.435
G0 X88.15 Y88.475
G0 X87.597 Y81.597
G0 X102.355 Y66.555
G0 X102.425 Y66.625
;TYPE:WALL-INNER
G1 F1800 X102.425 Y73.375 E5.66431
G1 X108.515 Y73.375 E5.75786
G1 X108.515 Y80.047 E5.86036
G1 X108.351 Y80.057 E5.86288
G1 X107.71 Y80.184 E5.87292
G1 X107.277 Y80.331 E5.87994
G1 X107.092 Y80.394 E5.88294
G1 X107.025 Y80.427 E5.88409
G1 X107.025 Y80.394
G1 X107.025 Y80.198 E5.88612
G1 X107.025 Y74.775 E5.96942
G1 X103.475 Y74.775 E6.02396
G1 X103.475 Y81.525 E6.12765
G1 X105.048 Y81.525 E6.15182
G1 X105.049 Y81.525 E6.15183
G1 X105.431 Y81.525 E6.1577
G1 X105.179 Y81.813 E6.1609
G1 X105.046 Y81.966 E6.16402
G1 X104.682 Y82.508 E6.17405
G1 X104.394 Y83.092 E6.18405
G1 X104.184 Y83.71 E6.19407
G1 X104.057 Y84.351 E6.20411
G1 X104.015 Y85 E6.2141
G1 X104.057 Y85.649 E6.22409
G1 X104.184 Y86.29 E6.23413
G1 X104.394 Y86.908 E6.24416
G1 X104.682 Y87.492 E6.25416
G1 X105.046 Y88.034 E6.26419
G1 X105.179 Y88.187 E6.26731
G1 X105.431 Y88.475 E6.27319
G1 X105.049 Y88.475 E6.27638
G1 X105.048 Y88.475 E6.2764
G1 X103.475 Y88.475 E6.30056
G1 X103.475 Y95.225 E6.40425
G1 X107.025 Y95.225 E6.45879
G1 X107.025 Y89.802 E6.5421
G1 X107.025 Y89.606 E6.54511
G1 X107.025 Y89.573 E6.54561
G1 X107.092 Y89.606 E6.5461
G1 X107.277 Y89.669 E6.54812
G1 X107.71 Y89.816 E6.55514
G1 X108.35 Y89.943 E6.56516
G1 X108.515 Y89.954 E6.5677
G1 X108.515 Y96.625 E6.67018
G1 X102.425 Y96.625 E6.76374
G1 X102.425 Y103.375 E6.86743
G1 X108.516 Y103.375 E6.961
G1 X108.516 Y104.016 E6.97085
G1 X81.484 Y104.016 E7.38611
G1 X81.484 Y65.984 E7.97036
G1 X108.516 Y65.984 E8.38562
G1 X108.516 Y66.625 E8.39547
G1 X102.425 Y66.625 E8.48904
G0 F3600 X102.75 Y66.95
;TYPE:WALL-OUTER
G1 F1800 X102.75 Y73.05 E8.58275
G1 X108.84 Y73.05 E8.6763
G1 X108.84 Y80.352 E8.78848
G1 X108.393 Y80.38 E8.79536
G1 X107.794 Y80.499 E8.80474
G1 X107.217 Y80.695 E8.8141
G1 X106.952 Y80.826 E8.81864
G1 X106.7 Y80.95 E8.82295
G1 X106.7 Y80.67 E8.82543
G1 X106.7 Y80.669 E8.82544
G1 X106.7 Y75.1 E8.91099
G1 X103.8 Y75.1 E8.95554
G1 X103.8 Y81.2 E9.04925
G1 X105.837 Y81.2 E9.08054
G1 X106.164 Y81.2 E9.08557
G1 X106.319 Y81.2 E9.08795
G1 X106.164 Y81.304 E9.08868
G1 X105.918 Y81.519 E9.09204
G1 X105.705 Y81.705 E9.09638
G1 X105.304 Y82.164 E9.10575
G1 X104.964 Y82.671 E9.11512
G1 X104.695 Y83.217 E9.12447
G1 X104.499 Y83.794 E9.13384
G1 X104.38 Y84.393 E9.14322
G1 X104.341 Y85 E9.15256
G1 X104.38 Y85.607 E9.1619
G1 X104.499 Y86.206 E9.17129
G1 X104.695 Y86.783 E9.18065
G1 X104.964 Y87.329 E9.19
G1 X105.304 Y87.836 E9.19938
G1 X105.705 Y88.295 E9.20874
G1 X105.918 Y88.481 E9.21308
G1 X106.164 Y88.696 E9.2181
G1 X106.319 Y88.8 E9.22097
G1 X106.164 Y88.8 E9.22122
G1 X105.837 Y88.8 E9.22459
G1 X103.8 Y88.8 E9.25588
G1 X103.8 Y94.9 E9.34959
G1 X106.7 Y94.9 E9.39414
G1 X106.7 Y89.331 E9.47969
G1 X106.7 Y89.33 E9.47971
G1 X106.7 Y89.05 E9.48401
G1 X106.952 Y89.174 E9.48649
G1 X107.217 Y89.305 E9.49103
G1 X107.794 Y89.501 E9.50039
G1 X108.393 Y89.62 E9.50977
G1 X108.84 Y89.65 E9.51665
G1 X108.84 Y96.95 E9.6288
G1 X102.75 Y96.95 E9.72235
G1 X102.75 Y103.05 E9.81606
G1 X108.841 Y103.05 E9.90963
G1 X108.841 Y104.341 E9.92946
G1 X81.159 Y104.341 E10.35471
G1 X81.159 Y65.659 E10.94894
G1 X108.841 Y65.659 E11.37419
G1 X108.841 Y66.95 E11.39402
G1 X102.75 Y66.95 E11.48759
G0 F3600 X102.75 Y67.15
G0 X102.365 Y67.15
G0 X102.085 Y66.324
;TYPE:SKIN
G1 F1800 X102.085 Y73.715 E11.60113
G1 X108.175 Y73.715 E11.69469
G1 X108.175 Y79.745 E11.78732
G1 X107.622 Y79.855 E11.79598
G1 X107.365 Y79.943 E11.80015
G1 X107.365 Y74.435 E11.88477
G1 X103.135 Y74.435 E11.94975
G1 X103.135 Y81.865 E12.06389
G1 X104.704 Y81.865 E12.08799
G1 X104.387 Y82.337 E12.09673
G1 X104.079 Y82.962 E12.10743
G1 X103.855 Y83.622 E12.11814
G1 X103.719 Y84.307 E12.12886
G1 X103.675 Y85 E12.13953
G1 X103.719 Y85.693 E12.1502
G1 X103.855 Y86.378 E12.16093
G1 X104.079 Y87.038 E12.17163
G1 X104.387 Y87.663 E12.18234
G1 X104.704 Y88.135 E12.19107
G1 X103.135 Y88.135 E12.21518
G1 X103.135 Y95.565 E12.32932
G1 X107.365 Y95.565 E12.3943
G1 X107.365 Y90.057 E12.47891
G1 X107.622 Y90.145 E12.48308
G1 X108.175 Y90.255 E12.49174
G1 X108.175 Y96.285 E12.58438
G1 X102.085 Y96.285 E12.67793
G1 X102.085 Y103.676 E12.79147
G1 X81.824 Y103.676 E13.10272
G1 X81.824 Y66.324 E13.67652
G1 X102.085 Y66.324 E13.98777
G0 F3600 X94.715 Y81.285
G1 F1800 X87.285 Y81.285 E14.10191
G1 X87.285 Y88.715 E14.21605
G1 X94.715 Y88.715 E14.33019
G1 X94.715 Y81.285 E14.44433
G0 F3600 X101.927 Y66.784
G1 F1800 X101.624 Y66.481 E14.45091
G0 F3600 X101.129 Y66.481
G1 F1800 X101.927 Y67.279 E14.46825
G0 F3600 X101.927 Y67.774
G1 F1800 X100.634 Y66.481 E14.49634
G0 F3600 X100.139 Y66.481
G1 F1800 X101.927 Y68.269 E14.53518
G0 F3600 X101.927 Y68.764
G1 F1800 X99.644 Y66.481 E14.58478
G0 F3600 X99.149 Y66.481
G1 F1800 X101.927 Y69.258 E14.64512
G0 F3600 X101.927 Y69.753
G1 F1800 X98.654 Y66.481 E14.71622
G0 F3600 X98.159 Y66.481
G1 F1800 X101.927 Y70.248 E14.79806
G0 F3600 X101.927 Y70.743
G1 F1800 X97.664 Y66.481 E14.89067
G0 F3600 X97.169 Y66.481
G1 F1800 X101.927 Y71.238 E14.99402
G0 F3600 X101.927 Y71.733
G1 F1800 X96.674 Y66.481 E15.10814
G0 F3600 X96.179 Y66.481
G1 F1800 X101.927 Y72.228 E15.233
G0 F3600 X101.927 Y72.723
G1 F1800 X95.684 Y66.481 E15.36862
G0 F3600 X95.19 Y66.481
G1 F1800 X101.927 Y73.218 E15.51498
G0 F3600 X101.927 Y73.713
G1 F1800 X94.695 Y66.481 E15.6721
G0 F3600 X94.2 Y66.481
G1 F1800 X102.977 Y75.258 E15.86278
G0 F3600 X102.977 Y74.763
G1 F1800 X102.085 Y73.872 E15.88215
G0 F3600 X102.58 Y73.872
G1 F1800 X102.986 Y74.278 E15.89097
G0 F3600 X103.075 Y73.872
G1 F1800 X103.481 Y74.278 E15.89979
G0 F3600 X103.57 Y73.872
G1 F1800 X103.976 Y74.278 E15.90861
G0 F3600 X104.065 Y73.872
G1 F1800 X104.471 Y74.278 E15.91743
G0 F3600 X104.56 Y73.872
G1 F1800 X104.966 Y74.278 E15.92625
G0 F3600 X105.055 Y73.872
G1 F1800 X105.461 Y74.278 E15.93507
G0 F3600 X105.55 Y73.872
G1 F1800 X105.956 Y74.278 E15.94389
G0 F3600 X106.045 Y73.872
G1 F1800 X106.451 Y74.278 E15.95271
G0 F3600 X106.54 Y73.872
G1 F1800 X106.946 Y74.278 E15.96153
G0 F3600 X107.035 Y73.872
G1 F1800 X107.441 Y74.278 E15.97035
G0 F3600 X107.521 Y74.357
G1 F1800 X108.017 Y74.854 E15.98114
G0 F3600 X108.017 Y74.359
G1 F1800 X107.53 Y73.872 E15.99172
G0 F3600 X107.521 Y74.852
G1 F1800 X108.017 Y75.349 E16.0025
G0 F3600 X108.017 Y75.844
G1 F1800 X107.521 Y75.347 E16.01329
G0 F3600 X107.521 Y75.842
G1 F1800 X108.017 Y76.339 E16.02408
G0 F3600 X108.017 Y76.834
G1 F1800 X107.521 Y76.337 E16.03486
G0 F3600 X107.521 Y76.832
G1 F1800 X108.017 Y77.329 E16.04565
G0 F3600 X108.017 Y77.824
G1 F1800 X107.521 Y77.327 E16.05644
G0 F3600 X107.521 Y77.822
G1 F1800 X108.017 Y78.319 E16.06722
G0 F3600 X108.017 Y78.814
G1 F1800 X107.521 Y78.317 E16.07801
G0 F3600 X107.521 Y78.812
G1 F1800 X108.017 Y79.309 E16.0888
G0 F3600 X107.86 Y79.647
G1 F1800 X107.521 Y79.307 E16.09617
G0 F3600 X107.053 Y74.747
G0 X103.447 Y74.747
G0 X103.447 Y81.553
G0 X104.363 Y82.089
G1 F1800 X104.296 Y82.022 E16.09763
G0 F3600 X104.179 Y82.4
G1 F1800 X103.801 Y82.022 E16.10584
G0 F3600 X103.306 Y82.022
G1 F1800 X104.016 Y82.732 E16.12126
G0 F3600 X103.872 Y83.083
G1 F1800 X87.27 Y66.481 E16.48194
G0 F3600 X87.765 Y66.481
G1 F1800 X102.977 Y81.693 E16.81243
G0 F3600 X102.977 Y81.198
G1 F1800 X88.26 Y66.481 E17.13215
G0 F3600 X88.755 Y66.481
G1 F1800 X102.977 Y80.703 E17.44113
G0 F3600 X102.977 Y80.208
G1 F1800 X89.25 Y66.481 E17.73935
G0 F3600 X89.745 Y66.481
G1 F1800 X102.977 Y79.713 E18.02681
G0 F3600 X102.977 Y79.218
G1 F1800 X90.24 Y66.481 E18.30353
G0 F3600 X90.735 Y66.481
G1 F1800 X102.977 Y78.723 E18.56948
G0 F3600 X102.977 Y78.228
G1 F1800 X91.23 Y66.481 E18.82469
G0 F3600 X91.725 Y66.481
G1 F1800 X102.977 Y77.733 E19.06914
G0 F3600 X102.977 Y77.238
G1 F1800 X92.22 Y66.481 E19.30284
G0 F3600 X92.715 Y66.481
G1 F1800 X102.977 Y76.743 E19.52578
G0 F3600 X102.977 Y76.248
G1 F1800 X93.21 Y66.481 E19.73797
G0 F3600 X93.705 Y66.481
G1 F1800 X102.977 Y75.753 E19.9394
G1 X103.039 Y75.815
G0 F3600 X103.447 Y81.553
G0 X103.747 Y83.453
G1 F1800 X86.775 Y66.481 E20.30812
G0 F3600 X86.28 Y66.481
G1 F1800 X103.649 Y83.85 E20.68546
G0 F3600 X103.567 Y84.263
G1 F1800 X85.785 Y66.481 E21.07178
G0 F3600 X85.29 Y66.481
G1 F1800 X103.535 Y84.726 E21.46815
G0 F3600 X103.531 Y85.217
G1 F1800 X84.795 Y66.481 E21.8752
G0 F3600 X84.3 Y66.481
G1 F1800 X103.569 Y85.75 E22.29382
G0 F3600 X103.693 Y86.369
G1 F1800 X83.805 Y66.481 E22.72588
G0 F3600 X83.31 Y66.481
G1 F1800 X103.937 Y87.108 E23.17401
G1 X103.999 Y87.17
G0 F3600 X103.816 Y87.977
G1 F1800 X82.32 Y66.481 E23.64101
G0 F3600 X81.98 Y66.636
G1 F1800 X103.321 Y87.977 E24.10465
G0 F3600 X102.977 Y88.128
G1 F1800 X81.98 Y67.131 E24.56081
G0 F3600 X81.98 Y67.626
G1 F1800 X102.977 Y88.623 E25.01697
G0 F3600 X102.977 Y89.118
G1 F1800 X81.98 Y68.121 E25.47313
G0 F3600 X81.98 Y68.616
G1 F1800 X94.492 Y81.127 E25.74494
G0 F3600 X93.997 Y81.127
G1 F1800 X81.98 Y69.111 E26.006
G0 F3600 X81.98 Y69.606
G1 F1800 X93.502 Y81.127 E26.25631
G0 F3600 X93.007 Y81.127
G1 F1800 X81.98 Y70.101 E26.49586
G0 F3600 X81.98 Y70.596
G1 F1800 X92.512 Y81.127 E26.72466
G0 F3600 X92.017 Y81.127
G1 F1800 X81.98 Y71.091 E26.9427
G0 F3600 X81.98 Y71.586
G1 F1800 X91.522 Y81.127 E27.14999
G0 F3600 X91.027 Y81.127
G1 F1800 X81.98 Y72.081 E27.34653
G0 F3600 X81.98 Y72.576
G1 F1800 X90.532 Y81.127 E27.53231
G0 F3600 X90.037 Y81.127
G1 F1800 X81.98 Y73.071 E27.70734
G0 F3600 X81.98 Y73.565
G1 F1800 X89.542 Y81.127 E27.87162
G0 F3600 X89.047 Y81.127
G1 F1800 X81.98 Y74.06 E28.02515
G0 F3600 X81.98 Y74.555
G1 F1800 X88.552 Y81.127 E28.16793
G0 F3600 X88.057 Y81.127
G1 F1800 X81.98 Y75.05 E28.29995
G0 F3600 X81.98 Y75.545
G1 F1800 X87.562 Y81.127 E28.42122
G0 F3600 X87.127 Y81.187
G1 F1800 X81.98 Y76.04 E28.53304
G0 F3600 X81.98 Y76.535
G1 F1800 X87.127 Y81.682 E28.64486
G0 F3600 X87.127 Y82.177
G1 F1800 X81.98 Y77.03 E28.75668
G0 F3600 X81.98 Y77.525
G1 F1800 X87.127 Y82.672 E28.8685
G0 F3600 X87.127 Y83.167
G1 F1800 X81.98 Y78.02 E28.98032
G0 F3600 X81.98 Y78.515
G1 F1800 X87.127 Y83.662 E29.09214
G0 F3600 X87.127 Y84.157
G1 F1800 X81.98 Y79.01 E29.20396
G0 F3600 X81.98 Y79.505
G1 F1800 X87.127 Y84.652 E29.31578
G0 F3600 X87.127 Y85.147
G1 F1800 X81.98 Y80 E29.4276
G0 F3600 X81.98 Y80.495
G1 F1800 X87.127 Y85.642 E29.53941
G0 F3600 X87.127 Y86.137
G1 F1800 X81.98 Y80.99 E29.65123
G0 F3600 X81.98 Y81.485
G1 F1800 X87.127 Y86.632 E29.76305
G0 F3600 X87.127 Y87.127
G1 F1800 X81.98 Y81.98 E29.87487
G0 F3600 X81.98 Y82.475
G1 F1800 X87.127 Y87.622 E29.98669
G0 F3600 X87.127 Y88.117
G1 F1800 X81.98 Y82.97 E30.09851
G0 F3600 X81.98 Y83.465
G1 F1800 X87.127 Y88.612 E30.21033
G0 F3600 X87.387 Y88.872
G1 F1800 X101.927 Y103.412 E30.52621
G0 F3600 X101.538 Y103.518
G1 F1800 X81.98 Y83.96 E30.95111
G0 F3600 X81.98 Y84.455
G1 F1800 X101.043 Y103.518 E31.36526
G0 F3600 X100.548 Y103.518
G1 F1800 X81.98 Y84.95 E31.76865
G0 F3600 X81.98 Y85.445
G1 F1800 X100.053 Y103.518 E32.16128
G0 F3600 X99.558 Y103.518
G1 F1800 X81.98 Y85.94 E32.54317
G0 F3600 X81.98 Y86.435
G1 F1800 X99.063 Y103.518 E32.9143
G0 F3600 X98.568 Y103.518
G1 F1800 X81.98 Y86.93 E33.27467
G0 F3600 X81.98 Y87.425
G1 F1800 X98.073 Y103.518 E33.62429
G0 F3600 X97.578 Y103.518
G1 F1800 X81.98 Y87.92 E33.96316
G0 F3600 X81.98 Y88.415
