;FLAVOR:Marlin
;TIME:5983
;Filament used: 2.5545m
;Layer height: 0.2
;MINX:43.434
;MINY:61.934
;MINZ:0.28
;MAXX:112.566
;MAXY:108.066
;MAXZ:9.48
;Generated with Cura_SteamEngine 4.1.0
M82 ;absolute extrusion mode
M98 P0:/sys/startprint.g

G92 E0
G92 E0
G10
;LAYER_COUNT:47
;LAYER:0
M107
G0 F3600 X44.826 Y62.669 Z0.28
;TYPE:SKIRT
G11
G1 F1800 X45.27 Y62.379 E0.00815
G1 X45.753 Y62.159 E0.0163
G1 X46.264 Y62.014 E0.02446
G1 X46.869 Y61.944 E0.03382
G1 X47.19 Y61.935 E0.03875
G1 X47.289 Y61.934 E0.04027
G1 X74.384 Y61.934 E0.4565
G1 X76.339 Y61.962 E0.48654
G1 X76.384 Y61.963 E0.48723
G1 X76.829 Y61.975 E0.49407
G1 X79.562 Y61.973 E0.53605
G1 X81.186 Y61.935 E0.56101
G1 X81.268 Y61.934 E0.56227
G1 X108.384 Y61.934 E0.97882
G1 X109.082 Y61.944 E0.98954
G1 X109.611 Y61.992 E0.9977
G1 X110.126 Y62.118 E1.00585
G1 X110.617 Y62.32 E1.01401
G1 X111.072 Y62.594 E1.02216
G1 X111.48 Y62.933 E1.03031
G1 X111.833 Y63.329 E1.03846
G1 X112.123 Y63.774 E1.04662
G1 X112.342 Y64.257 E1.05477
G1 X112.487 Y64.768 E1.06293
G1 X112.556 Y65.37 E1.07224
G1 X112.565 Y65.689 E1.07714
G1 X112.566 Y65.788 E1.07866
G1 X112.565 Y79.837 E1.29448
G1 X112.565 Y79.885 E1.29522
G1 X112.555 Y80.617 E1.30646
G1 X112.552 Y80.722 E1.30808
G1 X112.543 Y80.929 E1.31126
G1 X112.467 Y83.665 E1.35331
G1 X112.467 Y86.375 E1.39494
G1 X112.532 Y88.793 E1.4321
G1 X112.555 Y89.382 E1.44115
G1 X112.558 Y89.478 E1.44263
G1 X112.565 Y90.055 E1.45149
G1 X112.565 Y90.098 E1.45215
G1 X112.566 Y103.815 E1.66287
G1 X112.566 Y103.859 E1.66355
G1 X112.557 Y104.575 E1.67455
G1 X112.51 Y105.104 E1.68271
G1 X112.385 Y105.62 E1.69086
G1 X112.183 Y106.111 E1.69902
G1 X111.911 Y106.566 E1.70716
G1 X111.572 Y106.975 E1.71532
G1 X111.177 Y107.328 E1.72346
G1 X110.733 Y107.619 E1.73162
G1 X110.25 Y107.839 E1.73977
G1 X109.739 Y107.984 E1.74793
G1 X109.128 Y108.055 E1.75738
G1 X108.799 Y108.064 E1.76244
G1 X108.703 Y108.065 E1.76391
G1 X81.666 Y108.066 E2.17925
G1 X81.616 Y108.066 E2.18002
G1 X79.856 Y108.041 E2.20706
G1 X79.802 Y108.039 E2.20789
G1 X79.393 Y108.027 E2.21417
G1 X76.634 Y108.023 E2.25656
G1 X74.783 Y108.064 E2.285
G1 X74.705 Y108.065 E2.2862
G1 X47.666 Y108.066 E2.70157
G1 X47.616 Y108.066 E2.70234
G1 X46.918 Y108.056 E2.71306
G1 X46.389 Y108.008 E2.72122
G1 X45.874 Y107.882 E2.72937
G1 X45.383 Y107.68 E2.73752
G1 X44.928 Y107.406 E2.74568
G1 X44.52 Y107.067 E2.75383
G1 X44.167 Y106.671 E2.76198
G1 X43.877 Y106.226 E2.77014
G1 X43.658 Y105.743 E2.77829
G1 X43.513 Y105.232 E2.78645
G1 X43.444 Y104.627 E2.7958
G1 X43.435 Y104.295 E2.8009
G1 X43.434 Y104.199 E2.80238
G1 X43.434 Y66.085 E3.38788
G1 X43.443 Y65.42 E3.3981
G1 X43.49 Y64.892 E3.40624
G1 X43.616 Y64.376 E3.4144
G1 X43.818 Y63.885 E3.42256
G1 X44.091 Y63.431 E3.4307
G1 X44.43 Y63.022 E3.43886
G1 X44.826 Y62.669 E3.44701
G0 F3600 X45.163 Y62.856
G1 F1800 X45.599 Y62.603 E3.45475
G1 X46.069 Y62.423 E3.46248
G1 X46.562 Y62.319 E3.47022
G1 X46.879 Y62.294 E3.47511
G1 X47.2 Y62.285 E3.48004
G1 X47.289 Y62.284 E3.48141
G1 X74.379 Y62.284 E3.89756
G1 X76.334 Y62.312 E3.9276
G1 X76.374 Y62.313 E3.92821
G1 X76.819 Y62.325 E3.93505
G1 X79.57 Y62.323 E3.97731
G1 X81.194 Y62.285 E4.00227
G1 X81.268 Y62.284 E4.0034
G1 X108.379 Y62.284 E4.41988
G1 X109.077 Y62.294 E4.43061
G1 X109.579 Y62.341 E4.43835
G1 X110.066 Y62.467 E4.44608
G1 X110.528 Y62.669 E4.45383
G1 X110.952 Y62.94 E4.46156
G1 X111.328 Y63.276 E4.4693
G1 X111.646 Y63.666 E4.47703
G1 X111.898 Y64.102 E4.48477
G1 X112.078 Y64.572 E4.4925
G1 X112.181 Y65.065 E4.50024
G1 X112.206 Y65.379 E4.50508
G1 X112.215 Y65.698 E4.50998
G1 X112.216 Y65.788 E4.51136
G1 X112.215 Y79.837 E4.72718
G1 X112.215 Y79.88 E4.72784
G1 X112.205 Y80.612 E4.73909
G1 X112.202 Y80.707 E4.74055
G1 X112.195 Y80.865 E4.74298
G1 X112.117 Y83.656 E4.78587
G1 X112.117 Y86.385 E4.82779
G1 X112.181 Y88.763 E4.86434
G1 X112.206 Y89.396 E4.87407
G1 X112.208 Y89.482 E4.87539
G1 X112.215 Y90.059 E4.88425
G1 X112.215 Y90.098 E4.88485
G1 X112.216 Y103.815 E5.09557
G1 X112.216 Y103.855 E5.09619
G1 X112.207 Y104.571 E5.10719
G1 X112.161 Y105.072 E5.11492
G1 X112.036 Y105.56 E5.12265
G1 X111.835 Y106.022 E5.13039
G1 X111.564 Y106.447 E5.13814
G1 X111.229 Y106.823 E5.14587
G1 X110.839 Y107.141 E5.1536
G1 X110.404 Y107.394 E5.16133
G1 X109.934 Y107.575 E5.16907
G1 X109.441 Y107.68 E5.17681
G1 X109.119 Y107.705 E5.18178
G1 X108.79 Y107.714 E5.18683
G1 X108.703 Y107.715 E5.18817
G1 X81.666 Y107.716 E5.60351
G1 X81.621 Y107.716 E5.6042
G1 X79.861 Y107.691 E5.63124
G1 X79.812 Y107.69 E5.63199
G1 X79.368 Y107.677 E5.63882
G1 X76.626 Y107.673 E5.68094
G1 X74.775 Y107.714 E5.70938
G1 X74.705 Y107.715 E5.71046
G1 X47.666 Y107.716 E6.12583
G1 X47.621 Y107.716 E6.12652
G1 X46.923 Y107.706 E6.13724
G1 X46.421 Y107.659 E6.14499
G1 X45.934 Y107.533 E6.15272
G1 X45.472 Y107.331 E6.16046
G1 X45.048 Y107.06 E6.16819
G1 X44.672 Y106.724 E6.17594
G1 X44.354 Y106.334 E6.18367
G1 X44.102 Y105.898 E6.19141
G1 X43.922 Y105.428 E6.19914
G1 X43.819 Y104.935 E6.20687
G1 X43.794 Y104.617 E6.21178
G1 X43.785 Y104.285 E6.21688
G1 X43.784 Y104.199 E6.2182
G1 X43.784 Y66.09 E6.80363
G1 X43.793 Y65.425 E6.81384
G1 X43.84 Y64.924 E6.82157
G1 X43.965 Y64.436 E6.82931
G1 X44.166 Y63.974 E6.83705
G1 X44.438 Y63.55 E6.84479
G1 X44.773 Y63.174 E6.85253
G1 X45.163 Y62.856 E6.86026
G10
;MESH:slidingblockinner.stl(1)
G0 F3600 X47.498 Y64.763
G0 X47.498 Y65.998
G0 X53.555 Y88.445
G0 X53.625 Y88.375
;TYPE:WALL-INNER
G11
G1 F1800 X60.375 Y88.375 E6.96395
G1 X60.375 Y81.625 E7.06764
G1 X53.625 Y81.625 E7.17134
G1 X53.625 Y88.375 E7.27503
G0 F3600 X53.95 Y88.05
;TYPE:WALL-OUTER
G1 F1800 X60.05 Y88.05 E7.36874
G1 X60.05 Y81.95 E7.46245
G1 X53.95 Y81.95 E7.55615
G1 X53.95 Y88.05 E7.64986
G0 F3600 X54.15 Y88.05
G0 X54.15 Y88.435
G0 X54.15 Y88.475
G0 X53.597 Y81.597
G0 X68.355 Y66.555
G0 X68.425 Y66.625
;TYPE:WALL-INNER
G1 F1800 X68.425 Y73.375 E7.75355
G1 X74.515 Y73.375 E7.84711
G1 X74.515 Y80.047 E7.9496
G1 X74.351 Y80.057 E7.95213
G1 X73.71 Y80.184 E7.96217
G1 X73.277 Y80.331 E7.96919
G1 X73.092 Y80.394 E7.97219
G1 X73.025 Y80.427 E7.97334
G1 X73.025 Y80.394
G1 X73.025 Y80.198 E7.97536
G1 X73.025 Y74.775 E8.05867
G1 X69.475 Y74.775 E8.11321
G1 X69.475 Y81.525 E8.2169
G1 X71.048 Y81.525 E8.24107
G1 X71.049 Y81.525 E8.24108
G1 X71.431 Y81.525 E8.24695
G1 X71.179 Y81.813 E8.25015
G1 X71.046 Y81.966 E8.25326
G1 X70.682 Y82.508 E8.26329
G1 X70.394 Y83.092 E8.2733
G1 X70.184 Y83.71 E8.28332
G1 X70.057 Y84.351 E8.29336
G1 X70.015 Y85 E8.30335
G1 X70.057 Y85.649 E8.31334
G1 X70.184 Y86.29 E8.32338
G1 X70.394 Y86.908 E8.33341
G1 X70.682 Y87.492 E8.34341
G1 X71.046 Y88.034 E8.35344
G1 X71.179 Y88.187 E8.35656
G1 X71.431 Y88.475 E8.36243
G1 X71.049 Y88.475 E8.36563
G1 X71.048 Y88.475 E8.36565
G1 X69.475 Y88.475 E8.38981
G1 X69.475 Y95.225 E8.4935
G1 X73.025 Y95.225 E8.54804
G1 X73.025 Y89.802 E8.63135
G1 X73.025 Y89.606 E8.63436
G1 X73.025 Y89.573 E8.63486
G1 X73.092 Y89.606 E8.63535
G1 X73.277 Y89.669 E8.63737
G1 X73.71 Y89.816 E8.64439
G1 X74.35 Y89.943 E8.65441
G1 X74.515 Y89.954 E8.65695
G1 X74.515 Y96.625 E8.75943
G1 X68.425 Y96.625 E8.85299
G1 X68.425 Y103.375 E8.95668
G1 X74.516 Y103.375 E9.05025
G1 X74.516 Y104.016 E9.0601
G1 X47.484 Y104.016 E9.47536
G1 X47.484 Y65.984 E10.05961
G1 X74.516 Y65.984 E10.47487
G1 X74.516 Y66.625 E10.48472
G1 X68.425 Y66.625 E10.57829
G0 F3600 X68.75 Y66.95
;TYPE:WALL-OUTER
G1 F1800 X68.75 Y73.05 E10.672
G1 X74.84 Y73.05 E10.76555
G1 X74.84 Y80.352 E10.87772
G1 X74.393 Y80.38 E10.8846
G1 X73.794 Y80.499 E10.89399
G1 X73.217 Y80.695 E10.90335
G1 X72.952 Y80.826 E10.90789
G1 X72.7 Y80.95 E10.9122
G1 X72.7 Y80.67 E10.91468
G1 X72.7 Y80.669 E10.91469
G1 X72.7 Y75.1 E11.00024
G1 X69.8 Y75.1 E11.04479
G1 X69.8 Y81.2 E11.1385
G1 X71.837 Y81.2 E11.16979
G1 X72.164 Y81.2 E11.17482
G1 X72.319 Y81.2 E11.1772
G1 X72.164 Y81.304 E11.17792
G1 X71.918 Y81.519 E11.18129
G1 X71.705 Y81.705 E11.18563
G1 X71.304 Y82.164 E11.19499
G1 X70.964 Y82.671 E11.20437
G1 X70.695 Y83.217 E11.21372
G1 X70.499 Y83.794 E11.22308
G1 X70.38 Y84.393 E11.23247
G1 X70.341 Y85 E11.24181
G1 X70.38 Y85.607 E11.25115
G1 X70.499 Y86.206 E11.26054
G1 X70.695 Y86.783 E11.2699
G1 X70.964 Y87.329 E11.27925
G1 X71.304 Y87.836 E11.28862
G1 X71.705 Y88.295 E11.29799
G1 X71.918 Y88.481 E11.30233
G1 X72.164 Y88.696 E11.30735
G1 X72.319 Y88.8 E11.31022
G1 X72.164 Y88.8 E11.31047
G1 X71.837 Y88.8 E11.31384
G1 X69.8 Y88.8 E11.34513
G1 X69.8 Y94.9 E11.43884
G1 X72.7 Y94.9 E11.48339
G1 X72.7 Y89.331 E11.56894
G1 X72.7 Y89.33 E11.56895
G1 X72.7 Y89.05 E11.57326
G1 X72.952 Y89.174 E11.57574
G1 X73.217 Y89.305 E11.58028
G1 X73.794 Y89.501 E11.58964
G1 X74.393 Y89.62 E11.59902
G1 X74.84 Y89.65 E11.6059
G1 X74.84 Y96.95 E11.71805
G1 X68.75 Y96.95 E11.8116
G1 X68.75 Y103.05 E11.90531
G1 X74.841 Y103.05 E11.99888
G1 X74.841 Y104.341 E12.01871
G1 X47.159 Y104.341 E12.44396
G1 X47.159 Y65.659 E13.03819
G1 X74.841 Y65.659 E13.46344
G1 X74.841 Y66.95 E13.48327
G1 X68.75 Y66.95 E13.57684
G0 F3600 X68.75 Y67.15
G0 X68.365 Y67.15
G0 X68.085 Y66.324
;TYPE:SKIN
G1 F1800 X68.085 Y73.715 E13.69038
G1 X74.175 Y73.715 E13.78394
G1 X74.175 Y79.745 E13.87657
G1 X73.622 Y79.855 E13.88523
G1 X73.365 Y79.943 E13.8894
G1 X73.365 Y74.435 E13.97402
G1 X69.135 Y74.435 E14.039
G1 X69.135 Y81.865 E14.15314
G1 X70.704 Y81.865 E14.17724
G1 X70.387 Y82.337 E14.18597
G1 X70.079 Y82.962 E14.19668
G1 X69.855 Y83.622 E14.20739
G1 X69.719 Y84.307 E14.21811
G1 X69.675 Y85 E14.22878
G1 X69.719 Y85.693 E14.23945
G1 X69.855 Y86.378 E14.25018
G1 X70.079 Y87.038 E14.26088
G1 X70.387 Y87.663 E14.27159
G1 X70.704 Y88.135 E14.28032
G1 X69.135 Y88.135 E14.30442
G1 X69.135 Y95.565 E14.41856
G1 X73.365 Y95.565 E14.48354
G1 X73.365 Y90.057 E14.56816
G1 X73.622 Y90.145 E14.57233
G1 X74.175 Y90.255 E14.58099
G1 X74.175 Y96.285 E14.67363
G1 X68.085 Y96.285 E14.76718
G1 X68.085 Y103.676 E14.88072
G1 X47.824 Y103.676 E15.19197
G1 X47.824 Y66.324 E15.76577
G1 X68.085 Y66.324 E16.07702
G0 F3600 X60.715 Y81.285
G1 F1800 X53.285 Y81.285 E16.19116
G1 X53.285 Y88.715 E16.3053
G1 X60.715 Y88.715 E16.41944
G1 X60.715 Y81.285 E16.53357
G0 F3600 X67.927 Y66.937
G1 F1800 X67.47 Y66.48 E16.5435
G0 F3600 X66.975 Y66.48
G1 F1800 X67.927 Y67.432 E16.56418
G0 F3600 X67.927 Y67.927
G1 F1800 X66.48 Y66.48 E16.59562
G0 F3600 X65.985 Y66.48
G1 F1800 X67.927 Y68.422 E16.63781
G0 F3600 X67.927 Y68.917
G1 F1800 X65.49 Y66.48 E16.69076
G0 F3600 X64.995 Y66.48
G1 F1800 X67.927 Y69.412 E16.75445
G0 F3600 X67.927 Y69.907
G1 F1800 X64.5 Y66.48 E16.82891
G0 F3600 X64.005 Y66.48
G1 F1800 X67.927 Y70.402 E16.91411
G0 F3600 X67.927 Y70.897
G1 F1800 X63.51 Y66.48 E17.01007
G0 F3600 X63.015 Y66.48
G1 F1800 X67.927 Y71.392 E17.11678
G0 F3600 X67.927 Y71.887
G1 F1800 X62.52 Y66.48 E17.23425
G0 F3600 X62.025 Y66.48
G1 F1800 X67.927 Y72.382 E17.36247
G0 F3600 X67.927 Y72.877
G1 F1800 X61.531 Y66.48 E17.50144
G0 F3600 X61.036 Y66.48
G1 F1800 X67.927 Y73.372 E17.65116
G0 F3600 X67.927 Y73.867
G1 F1800 X60.541 Y66.48 E17.81163
G0 F3600 X60.046 Y66.48
G1 F1800 X68.978 Y75.412 E18.00568
G0 F3600 X68.978 Y74.917
G1 F1800 X67.932 Y73.872 E18.02839
G0 F3600 X68.427 Y73.872
G1 F1800 X68.978 Y74.422 E18.04035
G0 F3600 X69.327 Y74.277
G1 F1800 X68.922 Y73.872 E18.04915
G0 F3600 X69.417 Y73.872
G1 F1800 X69.822 Y74.277 E18.05795
G0 F3600 X69.912 Y73.872
G1 F1800 X70.317 Y74.277 E18.06675
G0 F3600 X70.407 Y73.872
G1 F1800 X70.812 Y74.277 E18.07554
G0 F3600 X70.902 Y73.872
G1 F1800 X71.307 Y74.277 E18.08434
G0 F3600 X71.397 Y73.872
G1 F1800 X71.802 Y74.277 E18.09314
G0 F3600 X71.892 Y73.872
G1 F1800 X72.297 Y74.277 E18.10194
G0 F3600 X72.387 Y73.872
G1 F1800 X72.792 Y74.277 E18.11074
G0 F3600 X72.882 Y73.872
G1 F1800 X73.287 Y74.277 E18.11954
G0 F3600 X73.522 Y74.512
G1 F1800 X74.017 Y75.007 E18.13029
G0 F3600 X74.017 Y74.512
G1 F1800 X73.377 Y73.872 E18.1442
G0 F3600 X73.872 Y73.872
G1 F1800 X74.017 Y74.017 E18.14735
G0 F3600 X73.522 Y75.007
G1 F1800 X74.017 Y75.502 E18.1581
G0 F3600 X73.522 Y75.502
G1 F1800 X74.017 Y75.997 E18.16885
G0 F3600 X73.522 Y75.997
G1 F1800 X74.017 Y76.492 E18.17961
G0 F3600 X74.017 Y76.987
G1 F1800 X73.522 Y76.491 E18.19037
G0 F3600 X73.522 Y76.986
G1 F1800 X74.017 Y77.482 E18.20114
G0 F3600 X74.017 Y77.977
G1 F1800 X73.522 Y77.481 E18.2119
G0 F3600 X73.522 Y77.976
G1 F1800 X74.017 Y78.472 E18.22267
G0 F3600 X74.017 Y78.967
G1 F1800 X73.522 Y78.471 E18.23343
G0 F3600 X73.522 Y78.966
G1 F1800 X74.017 Y79.462 E18.2442
G0 F3600 X73.732 Y79.672
G1 F1800 X73.522 Y79.461 E18.24877
G0 F3600 X73.053 Y74.747
G0 X69.447 Y74.747
G0 X69.447 Y81.553
G0 X70.301 Y82.181
G1 F1800 X70.142 Y82.021 E18.25223
G0 F3600 X70.129 Y82.503
G1 F1800 X69.647 Y82.021 E18.26271
G0 F3600 X69.152 Y82.021
G1 F1800 X69.966 Y82.835 E18.28039
G0 F3600 X69.833 Y83.197
G1 F1800 X53.116 Y66.48 E18.64357
G0 F3600 X53.611 Y66.48
G1 F1800 X68.978 Y81.847 E18.97742
G0 F3600 X68.978 Y81.352
G1 F1800 X54.106 Y66.48 E19.30051
G0 F3600 X54.601 Y66.48
G1 F1800 X68.978 Y80.857 E19.61286
G0 F3600 X68.978 Y80.362
G1 F1800 X55.096 Y66.48 E19.91444
G0 F3600 X55.591 Y66.48
G1 F1800 X68.978 Y79.867 E20.20528
G0 F3600 X68.978 Y79.372
G1 F1800 X56.086 Y66.48 E20.48536
G0 F3600 X56.581 Y66.48
G1 F1800 X68.978 Y78.877 E20.75468
G0 F3600 X68.978 Y78.382
G1 F1800 X57.076 Y66.48 E21.01325
G0 F3600 X57.571 Y66.48
G1 F1800 X68.978 Y77.887 E21.26107
G0 F3600 X68.978 Y77.392
G1 F1800 X58.066 Y66.48 E21.49814
G0 F3600 X58.561 Y66.48
G1 F1800 X68.978 Y76.897 E21.72445
G0 F3600 X68.978 Y76.402
G1 F1800 X59.056 Y66.48 E21.94
G0 F3600 X59.551 Y66.48
G1 F1800 X68.978 Y75.907 E22.14481
G1 X69.04 Y75.969
G0 F3600 X69.406 Y80.994
G0 X69.708 Y83.568
G1 F1800 X52.621 Y66.48 E22.51603
G0 F3600 X52.126 Y66.48
G1 F1800 X69.624 Y83.978 E22.89618
G0 F3600 X69.555 Y84.405
G1 F1800 X51.631 Y66.48 E23.28559
G0 F3600 X51.136 Y66.48
G1 F1800 X69.526 Y84.87 E23.68511
G0 F3600 X69.542 Y85.381
G1 F1800 X50.641 Y66.48 E24.09574
G0 F3600 X50.146 Y66.48
G1 F1800 X69.609 Y85.943 E24.51857
G0 F3600 X69.762 Y86.591
G1 F1800 X49.651 Y66.48 E24.95549
G0 F3600 X49.156 Y66.48
G1 F1800 X70.089 Y87.413 E25.41026
G0 F3600 X70.158 Y87.977
G1 F1800 X48.661 Y66.48 E25.87728
G0 F3600 X48.166 Y66.48
G1 F1800 X69.663 Y87.977 E26.34431
G0 F3600 X69.168 Y87.977
G1 F1800 X47.98 Y66.789 E26.80462
G0 F3600 X47.98 Y67.284
G1 F1800 X68.978 Y88.282 E27.2608
G0 F3600 X68.978 Y88.777
G1 F1800 X47.98 Y67.779 E27.71699
G0 F3600 X47.98 Y68.274
G1 F1800 X60.833 Y81.127 E27.99622
G0 F3600 X60.871 Y81.165
G1 F1800 X68.978 Y89.272 E28.17234
G0 F3600 X68.978 Y89.767
G1 F1800 X60.871 Y81.66 E28.34847
G0 F3600 X60.871 Y82.155
G1 F1800 X68.978 Y90.262 E28.52459
G0 F3600 X68.978 Y90.757
G1 F1800 X60.871 Y82.65 E28.70072
G0 F3600 X60.871 Y83.145
G1 F1800 X68.978 Y91.252 E28.87684
G0 F3600 X68.978 Y91.747
G1 F1800 X60.871 Y83.64 E29.05297
G0 F3600 X60.871 Y84.135
G1 F1800 X68.978 Y92.242 E29.22909
G0 F3600 X68.978 Y92.737
G1 F1800 X60.871 Y84.63 E29.40522
G0 F3600 X60.871 Y85.125
G1 F1800 X68.978 Y93.232 E29.58135
G0 F3600 X68.978 Y93.727
G1 F1800 X60.871 Y85.62 E29.75747
G0 F3600 X60.871 Y86.115
G1 F1800 X68.978 Y94.221 E29.93358
G0 F3600 X68.978 Y94.716
G1 F1800 X60.871 Y86.61 E30.1097
G0 F3600 X60.871 Y87.105
G1 F1800 X68.978 Y95.211 E30.28581
G0 F3600 X68.978 Y95.706
G1 F1800 X60.871 Y87.6 E30.46193
G0 F3600 X60.871 Y88.095
G1 F1800 X68.904 Y96.127 E30.63643
G0 F3600 X68.992 Y95.721
G1 F1800 X69.398 Y96.127 E30.64526
G0 F3600 X69.487 Y95.721
G1 F1800 X69.893 Y96.127 E30.65408
G0 F3600 X69.982 Y95.721
G1 F1800 X70.388 Y96.127 E30.6629
G0 F3600 X70.477 Y95.721
G1 F1800 X70.883 Y96.127 E30.67172
G0 F3600 X70.972 Y95.721
G1 F1800 X71.378 Y96.127 E30.68054
G0 F3600 X71.467 Y95.721
G1 F1800 X71.873 Y96.127 E30.68936
G0 F3600 X71.962 Y95.721
G1 F1800 X72.368 Y96.127 E30.69818
G0 F3600 X72.457 Y95.721
G1 F1800 X72.863 Y96.127 E30.707
G0 F3600 X72.952 Y95.721
G1 F1800 X73.358 Y96.127 E30.71582
G0 F3600 X73.447 Y95.721
G1 F1800 X73.853 Y96.127 E30.72464
G0 F3600 X74.017 Y95.796
G1 F1800 X73.522 Y95.301 E30.73539
G0 F3600 X73.522 Y94.806
G1 F1800 X74.017 Y95.301 E30.74615
G0 F3600 X74.017 Y94.806
G1 F1800 X73.522 Y94.311 E30.7569
G0 F3600 X73.522 Y93.816
