;FLAVOR:Marlin
;TIME:7761
;Filament used: 3.09109m
;Layer height: 0.2
;MINX:53.302
;MINY:57.311
;MINZ:0.28
;MAXX:144.203
;MAXY:103.236
;MAXZ:9.48
;Generated with Cura_SteamEngine 4.1.0
M82 ;absolute extrusion mode
M98 P0:/sys/startprint.g

G92 E0
G92 E0
G10
;LAYER_COUNT:47
;LAYER:0
M107
G0 F3600 X54.29 Y58.696 Z0.28
;TYPE:SKIRT
M220 S50
G11
G1 F1800 X54.68 Y58.378 E0.00773
G1 X55.115 Y58.125 E0.01546
G1 X55.586 Y57.944 E0.02321
G1 X56.078 Y57.84 E0.03094
G1 X56.399 Y57.815 E0.03588
G1 X56.728 Y57.806 E0.04094
G1 X56.815 Y57.805 E0.04228
G1 X79.498 Y57.804 E0.39073
G1 X82.297 Y57.764 E0.43373
G1 X84.999 Y57.65 E0.47528
G1 X88.185 Y57.418 E0.52435
G1 X89.128 Y57.334 E0.5389
G1 X89.319 Y57.322 E0.54183
G1 X89.561 Y57.315 E0.54555
G1 X89.652 Y57.314 E0.54695
G1 X107.49 Y57.311 E0.82098
G1 X107.536 Y57.311 E0.82169
G1 X108.239 Y57.321 E0.83249
G1 X108.416 Y57.329 E0.83521
G1 X109.634 Y57.414 E0.85396
G1 X112.405 Y57.57 E0.8966
G1 X116.506 Y57.657 E0.95961
G1 X140.366 Y57.657 E1.32615
G1 X141.064 Y57.667 E1.33687
G1 X141.566 Y57.714 E1.34462
G1 X142.053 Y57.84 E1.35235
G1 X142.515 Y58.042 E1.36009
G1 X142.939 Y58.313 E1.36782
G1 X143.315 Y58.649 E1.37557
G1 X143.633 Y59.039 E1.3833
G1 X143.885 Y59.475 E1.39104
G1 X144.065 Y59.945 E1.39877
G1 X144.168 Y60.438 E1.4065
G1 X144.193 Y60.749 E1.4113
G1 X144.202 Y61.055 E1.416
G1 X144.203 Y61.148 E1.41743
G1 X144.202 Y75.21 E1.63345
G1 X144.202 Y75.253 E1.63411
G1 X144.192 Y75.985 E1.64535
G1 X144.189 Y76.08 E1.64681
G1 X144.182 Y76.238 E1.64924
G1 X144.104 Y79.029 E1.69214
G1 X144.104 Y81.758 E1.73406
G1 X144.168 Y84.136 E1.7706
G1 X144.193 Y84.769 E1.78033
G1 X144.195 Y84.855 E1.78166
G1 X144.202 Y85.432 E1.79052
G1 X144.202 Y85.471 E1.79112
G1 X144.203 Y99.174 E2.00162
G1 X144.203 Y99.213 E2.00222
G1 X144.194 Y99.943 E2.01344
G1 X144.148 Y100.445 E2.02118
G1 X144.023 Y100.932 E2.02891
G1 X143.822 Y101.394 E2.03665
G1 X143.551 Y101.819 E2.04439
G1 X143.217 Y102.195 E2.05212
G1 X142.827 Y102.514 E2.05986
G1 X142.392 Y102.767 E2.06759
G1 X141.922 Y102.948 E2.07532
G1 X141.429 Y103.052 E2.08306
G1 X141.106 Y103.078 E2.08804
G1 X140.777 Y103.087 E2.0931
G1 X140.69 Y103.088 E2.09443
G1 X113.653 Y103.089 E2.50977
G1 X113.608 Y103.089 E2.51047
G1 X112.904 Y103.079 E2.52128
G1 X112.724 Y103.071 E2.52405
G1 X111.543 Y102.987 E2.54224
G1 X108.784 Y102.831 E2.58469
G1 X106.018 Y102.752 E2.6272
G1 X104.625 Y102.742 E2.6486
G1 X94.5 Y102.743 E2.80414
G1 X91.703 Y102.783 E2.84711
G1 X88.987 Y102.899 E2.88887
G1 X86.114 Y103.104 E2.93312
G1 X84.835 Y103.214 E2.95284
G1 X84.657 Y103.225 E2.95558
G1 X84.324 Y103.235 E2.9607
G1 X84.229 Y103.236 E2.96215
G1 X57.139 Y103.236 E3.37831
G1 X56.441 Y103.226 E3.38903
G1 X55.939 Y103.179 E3.39678
G1 X55.452 Y103.053 E3.40451
G1 X54.99 Y102.851 E3.41225
G1 X54.566 Y102.58 E3.41998
G1 X54.19 Y102.244 E3.42773
G1 X53.872 Y101.854 E3.43546
G1 X53.62 Y101.418 E3.4432
G1 X53.44 Y100.948 E3.45093
G1 X53.337 Y100.455 E3.45866
G1 X53.312 Y100.137 E3.46356
G1 X53.303 Y99.805 E3.46867
G1 X53.302 Y99.719 E3.46999
G1 X53.303 Y85.683 E3.68561
G1 X53.303 Y85.64 E3.68627
G1 X53.313 Y84.908 E3.69751
G1 X53.316 Y84.813 E3.69897
G1 X53.323 Y84.647 E3.70153
G1 X53.401 Y81.864 E3.7443
G1 X53.401 Y79.135 E3.78622
G1 X53.337 Y76.757 E3.82276
G1 X53.312 Y76.124 E3.83249
G1 X53.31 Y76.038 E3.83382
G1 X53.303 Y75.461 E3.84268
G1 X53.303 Y75.422 E3.84328
G1 X53.302 Y61.68 E4.05438
G1 X53.302 Y61.639 E4.05501
G1 X53.311 Y60.948 E4.06563
G1 X53.358 Y60.446 E4.07338
G1 X53.483 Y59.958 E4.08111
G1 X53.684 Y59.497 E4.08884
G1 X53.955 Y59.072 E4.09658
G1 X54.29 Y58.696 E4.10432
G10
;MESH:slidingblockouter.stl
G0 F3600 X57.016 Y60.283
G0 X57.016 Y61.518
G0 X57.526 Y66.109
G0 X57.957 Y66.922
G0 X58.56 Y67.543
G0 X58.609 Y67.456
;TYPE:WALL-INNER
G11
G1 F1800 X59.229 Y67.697 E4.11454
G1 X59.816 Y67.749 E4.12359
G1 X60.39 Y67.646 E4.13255
G1 X60.917 Y67.399 E4.14149
G1 X61.363 Y67.025 E4.15043
G1 X61.696 Y66.548 E4.15937
G1 X61.894 Y66.002 E4.16829
G1 X61.946 Y65.422 E4.17724
G1 X61.843 Y64.848 E4.18619
G1 X61.596 Y64.321 E4.19514
G1 X61.222 Y63.875 E4.20408
G1 X60.746 Y63.542 E4.213
G1 X60.2 Y63.344 E4.22192
G1 X59.62 Y63.292 E4.23087
G1 X59.046 Y63.395 E4.23983
G1 X58.518 Y63.642 E4.24878
G1 X58.072 Y64.016 E4.25772
G1 X57.74 Y64.492 E4.26664
G1 X57.543 Y65.033 E4.27548
G1 X57.49 Y65.526 E4.2831
G1 X57.564 Y66.098 E4.29196
G1 X57.788 Y66.636 E4.30091
G1 X58.142 Y67.098 E4.30985
G1 X58.609 Y67.456 E4.31889
G0 F3600 X58.77 Y67.17
;TYPE:WALL-OUTER
G1 F1800 X59.304 Y67.377 E4.32769
G1 X59.802 Y67.421 E4.33537
G1 X60.291 Y67.334 E4.343
G1 X60.741 Y67.123 E4.35064
G1 X61.121 Y66.804 E4.35826
G1 X61.405 Y66.397 E4.36588
G1 X61.574 Y65.931 E4.3735
G1 X61.618 Y65.436 E4.38113
G1 X61.531 Y64.947 E4.38876
G1 X61.32 Y64.497 E4.3964
G1 X61.001 Y64.117 E4.40402
G1 X60.595 Y63.833 E4.41163
G1 X60.129 Y63.664 E4.41924
G1 X59.634 Y63.62 E4.42688
G1 X59.145 Y63.707 E4.43451
G1 X58.694 Y63.918 E4.44216
G1 X58.314 Y64.237 E4.44978
G1 X58.031 Y64.643 E4.45738
G1 X57.862 Y65.107 E4.46497
G1 X57.817 Y65.522 E4.47138
G1 X57.881 Y66.013 E4.47899
G1 X58.072 Y66.472 E4.48662
G1 X58.374 Y66.866 E4.49425
G1 X58.77 Y67.17 E4.50192
G0 F3600 X58.956 Y67.242
G0 X58.816 Y67.601
G0 X58.801 Y67.637
G0 X76.022 Y78.741
G0 X75.956 Y78.815
;TYPE:WALL-INNER
G1 F1800 X75.458 Y78.5 E4.51097
G1 X74.904 Y78.324 E4.5199
G1 X74.322 Y78.299 E4.52885
G1 X73.753 Y78.425 E4.5378
G1 X73.238 Y78.696 E4.54674
G1 X72.808 Y79.088 E4.55568
G1 X72.497 Y79.58 E4.56462
G1 X72.326 Y80.123 E4.57337
G1 X72.29 Y80.531 E4.57966
G1 X72.364 Y81.098 E4.58844
G1 X72.588 Y81.636 E4.5974
G1 X72.942 Y82.098 E4.60634
G1 X73.409 Y82.456 E4.61538
G1 X74.029 Y82.697 E4.6256
G1 X74.616 Y82.749 E4.63465
G1 X75.19 Y82.646 E4.64361
G1 X75.717 Y82.399 E4.65255
G1 X76.163 Y82.025 E4.66149
G1 X76.496 Y81.548 E4.67043
G1 X76.694 Y81.002 E4.67935
G1 X76.746 Y80.422 E4.68829
G1 X76.643 Y79.848 E4.69725
G1 X76.395 Y79.317 E4.70626
G1 X75.956 Y78.815 E4.7165
G0 F3600 X75.742 Y79.064
;TYPE:WALL-OUTER
G1 F1800 X75.32 Y78.797 E4.72417
G1 X74.847 Y78.647 E4.7318
G1 X74.351 Y78.626 E4.73942
G1 X73.866 Y78.733 E4.74705
G1 X73.426 Y78.964 E4.75469
G1 X73.059 Y79.299 E4.76232
G1 X72.794 Y79.718 E4.76993
G1 X72.647 Y80.187 E4.77748
G1 X72.617 Y80.524 E4.78268
G1 X72.681 Y81.013 E4.79026
G1 X72.872 Y81.472 E4.7979
G1 X73.174 Y81.866 E4.80552
G1 X73.57 Y82.17 E4.81319
G1 X74.104 Y82.377 E4.82199
G1 X74.602 Y82.421 E4.82967
G1 X75.091 Y82.334 E4.8373
G1 X75.541 Y82.123 E4.84493
G1 X75.921 Y81.804 E4.85256
G1 X76.205 Y81.397 E4.86018
G1 X76.374 Y80.931 E4.86779
G1 X76.418 Y80.436 E4.87543
G1 X76.331 Y79.947 E4.88306
G1 X76.12 Y79.496 E4.89071
G1 X75.742 Y79.064 E4.89953
G0 F3600 X75.573 Y78.957
G0 X75.779 Y78.632
G0 X75.801 Y78.6
G0 X74.91 Y78.285
G0 X73.739 Y78.388
G0 X72.78 Y79.062
G0 X61.392 Y97.051
G0 X60.403 Y97.684
G0 X59.48 Y97.759
G0 X58.56 Y97.543
G0 X58.609 Y97.456
;TYPE:WALL-INNER
G1 F1800 X59.229 Y97.697 E4.90974
G1 X59.816 Y97.749 E4.9188
G1 X60.39 Y97.646 E4.92776
G1 X60.917 Y97.399 E4.9367
G1 X61.363 Y97.025 E4.94564
G1 X61.696 Y96.548 E4.95458
G1 X61.894 Y96.002 E4.9635
G1 X61.946 Y95.422 E4.97244
G1 X61.843 Y94.848 E4.9814
G1 X61.596 Y94.321 E4.99034
G1 X61.222 Y93.875 E4.99928
G1 X60.746 Y93.542 E5.00821
G1 X60.2 Y93.344 E5.01713
G1 X59.62 Y93.292 E5.02608
G1 X59.046 Y93.395 E5.03503
G1 X58.518 Y93.642 E5.04399
G1 X58.072 Y94.016 E5.05293
G1 X57.74 Y94.492 E5.06185
G1 X57.543 Y95.033 E5.07069
G1 X57.49 Y95.526 E5.07831
G1 X57.564 Y96.098 E5.08717
G1 X57.788 Y96.636 E5.09612
G1 X58.142 Y97.098 E5.10506
G1 X58.609 Y97.456 E5.1141
G0 F3600 X58.77 Y97.17
;TYPE:WALL-OUTER
G1 F1800 X59.304 Y97.377 E5.1229
G1 X59.802 Y97.421 E5.13058
G1 X60.291 Y97.334 E5.13821
G1 X60.741 Y97.123 E5.14584
G1 X61.121 Y96.804 E5.15347
G1 X61.405 Y96.397 E5.16109
G1 X61.574 Y95.931 E5.1687
G1 X61.618 Y95.436 E5.17634
G1 X61.531 Y94.947 E5.18397
G1 X61.32 Y94.497 E5.1916
G1 X61.001 Y94.117 E5.19923
G1 X60.595 Y93.833 E5.20684
G1 X60.129 Y93.664 E5.21445
G1 X59.634 Y93.62 E5.22209
G1 X59.145 Y93.707 E5.22972
G1 X58.694 Y93.918 E5.23737
G1 X58.314 Y94.237 E5.24499
G1 X58.031 Y94.643 E5.25259
G1 X57.862 Y95.107 E5.26018
G1 X57.817 Y95.522 E5.26659
G1 X57.881 Y96.013 E5.27419
G1 X58.072 Y96.472 E5.28183
G1 X58.374 Y96.866 E5.28946
G1 X58.77 Y97.17 E5.29713
G0 F3600 X58.956 Y97.242
G0 X58.816 Y97.601
G0 X58.801 Y97.637
G0 X58.114 Y97.126
G0 X57.526 Y96.109
G0 X57.466 Y95.383
G0 X58.423 Y90.815
G0 X58.493 Y90.745
;TYPE:WALL-INNER
G1 F1800 X62.043 Y90.745 E5.35166
G1 X62.043 Y83.995 E5.45536
G1 X60.471 Y83.995 E5.4795
G1 X60.47 Y83.995 E5.47952
G1 X60.086 Y83.995 E5.48542
G1 X60.34 Y83.706 E5.48864
G1 X60.472 Y83.555 E5.49172
G1 X60.835 Y83.012 E5.50175
G1 X61.124 Y82.428 E5.51176
G1 X61.334 Y81.81 E5.52179
G1 X61.46 Y81.17 E5.53181
G1 X61.503 Y80.52 E5.54181
G1 X61.46 Y79.871 E5.55181
G1 X61.334 Y79.231 E5.56183
G1 X61.124 Y78.613 E5.57185
G1 X60.835 Y78.028 E5.58188
G1 X60.472 Y77.486 E5.5919
G1 X60.339 Y77.334 E5.595
G1 X60.085 Y77.045 E5.60091
G1 X60.469 Y77.045 E5.60412
G1 X60.47 Y77.045 E5.60414
G1 X62.043 Y77.045 E5.6283
G1 X62.043 Y70.295 E5.732
G1 X58.493 Y70.295 E5.78653
G1 X58.493 Y75.719 E5.86985
G1 X58.493 Y75.915 E5.87286
G1 X58.493 Y75.948 E5.87337
G1 X58.425 Y75.915 E5.87388
G1 X58.24 Y75.852 E5.87589
G1 X57.807 Y75.704 E5.88292
G1 X57.168 Y75.578 E5.89293
G1 X57.003 Y75.567 E5.89547
G1 X57.002 Y61.678 E6.10883
G1 X57.002 Y61.504 E6.1115
G1 X57.176 Y61.504 E6.11323
G1 X84.034 Y61.504 E6.52582
G1 X84.034 Y99.536 E7.11007
G1 X57.176 Y99.536 E7.52266
G1 X57.002 Y99.536 E7.52533
G1 X57.002 Y99.362 E7.52706
G1 X57.003 Y85.473 E7.74042
G1 X57.167 Y85.463 E7.74295
G1 X57.807 Y85.337 E7.75297
G1 X58.24 Y85.189 E7.76
G1 X58.425 Y85.126 E7.763
G1 X58.493 Y85.093 E7.76416
G1 X58.493 Y85.126
G1 X58.493 Y85.322 E7.76619
G1 X58.493 Y90.745 E7.8495
G0 F3600 X58.818 Y90.42
;TYPE:WALL-OUTER
G1 F1800 X61.718 Y90.42 E7.89405
G1 X61.718 Y84.32 E7.98775
G1 X59.681 Y84.32 E8.01905
G1 X59.354 Y84.32 E8.02407
G1 X59.2 Y84.32 E8.02643
G1 X59.354 Y84.217 E8.02716
G1 X59.599 Y84.002 E8.0305
G1 X59.812 Y83.815 E8.03486
G1 X60.214 Y83.357 E8.04422
G1 X60.553 Y82.849 E8.0536
G1 X60.823 Y82.303 E8.06296
G1 X61.019 Y81.726 E8.07232
G1 X61.137 Y81.128 E8.08168
G1 X61.177 Y80.52 E8.09104
G1 X61.137 Y79.913 E8.10039
G1 X61.019 Y79.315 E8.10975
G1 X60.823 Y78.738 E8.11911
G1 X60.553 Y78.191 E8.12848
G1 X60.214 Y77.684 E8.13785
G1 X59.812 Y77.226 E8.14721
G1 X59.599 Y77.039 E8.15157
G1 X59.354 Y76.824 E8.15657
G1 X59.198 Y76.72 E8.15945
G1 X59.354 Y76.72 E8.15971
G1 X59.68 Y76.72 E8.16307
G1 X61.718 Y76.72 E8.19438
G1 X61.718 Y70.62 E8.28808
G1 X58.818 Y70.62 E8.33263
G1 X58.818 Y76.19 E8.4182
G1 X58.818 Y76.191 E8.41821
G1 X58.818 Y76.471 E8.42252
G1 X58.566 Y76.347 E8.425
G1 X58.3 Y76.216 E8.42955
G1 X57.723 Y76.019 E8.43892
G1 X57.125 Y75.901 E8.44828
G1 X56.678 Y75.87 E8.45516
G1 X56.677 Y61.354 E8.67816
G1 X56.677 Y61.179 E8.68085
G1 X56.852 Y61.179 E8.68259
G1 X84.359 Y61.179 E9.10515
G1 X84.359 Y99.861 E9.69938
G1 X56.852 Y99.861 E10.12194
G1 X56.677 Y99.861 E10.12463
G1 X56.677 Y99.686 E10.12637
G1 X56.678 Y85.168 E10.34939
G1 X57.125 Y85.14 E10.35627
G1 X57.723 Y85.022 E10.36564
G1 X58.3 Y84.825 E10.375
G1 X58.566 Y84.694 E10.37956
G1 X58.818 Y84.57 E10.38387
G1 X58.818 Y84.85 E10.38635
G1 X58.818 Y84.851 E10.38636
G1 X58.818 Y90.42 E10.47191
G0 F3600 X59.018 Y90.42
G0 X59.018 Y90.805
G0 X58.153 Y91.085
;TYPE:SKIN
G1 F1800 X62.383 Y91.085 E10.53689
G1 X62.383 Y83.655 E10.65103
G1 X60.814 Y83.655 E10.67514
G1 X61.13 Y83.183 E10.68386
G1 X61.439 Y82.558 E10.69457
G1 X61.663 Y81.898 E10.70528
G1 X61.798 Y81.214 E10.71599
G1 X61.843 Y80.52 E10.72667
G1 X61.798 Y79.827 E10.73734
G1 X61.663 Y79.143 E10.74805
G1 X61.439 Y78.483 E10.75876
G1 X61.13 Y77.857 E10.76948
G1 X60.814 Y77.385 E10.77821
G1 X62.383 Y77.385 E10.80231
G1 X62.383 Y69.955 E10.91645
G1 X58.153 Y69.955 E10.98143
G1 X58.153 Y75.463 E11.06605
G1 X57.895 Y75.375 E11.07023
G1 X57.343 Y75.266 E11.07888
G1 X57.342 Y66.451 E11.21429
G1 X57.491 Y66.807 E11.22022
G1 X57.899 Y67.341 E11.23054
G1 X58.44 Y67.755 E11.24101
G1 X59.151 Y68.031 E11.25273
G1 X59.831 Y68.091 E11.26321
G1 X60.493 Y67.973 E11.27354
G1 X61.102 Y67.688 E11.28387
G1 X61.616 Y67.256 E11.29419
G1 X62.001 Y66.706 E11.3045
G1 X62.228 Y66.076 E11.31479
G1 X62.288 Y65.407 E11.32511
G1 X62.17 Y64.745 E11.33543
G1 X61.885 Y64.136 E11.34576
G1 X61.453 Y63.622 E11.35608
G1 X60.904 Y63.237 E11.36638
G1 X60.274 Y63.01 E11.37667
G1 X59.605 Y62.95 E11.38698
G1 X58.943 Y63.068 E11.39731
G1 X58.334 Y63.353 E11.40764
G1 X57.819 Y63.785 E11.41797
G1 X57.435 Y64.334 E11.42826
G1 X57.342 Y64.589 E11.43243
G1 X57.342 Y61.844 E11.4746
G1 X83.694 Y61.844 E11.87942
G1 X83.694 Y99.196 E12.45322
G1 X57.342 Y99.196 E12.85804
G1 X57.342 Y96.451 E12.90021
G1 X57.491 Y96.807 E12.90613
G1 X57.899 Y97.341 E12.91646
G1 X58.44 Y97.755 E12.92692
G1 X59.151 Y98.031 E12.93864
G1 X59.831 Y98.091 E12.94913
G1 X60.493 Y97.973 E12.95946
G1 X61.102 Y97.688 E12.96978
G1 X61.616 Y97.256 E12.9801
G1 X62.001 Y96.706 E12.99041
G1 X62.228 Y96.076 E13.0007
G1 X62.288 Y95.407 E13.01102
G1 X62.17 Y94.745 E13.02135
G1 X61.885 Y94.136 E13.03168
G1 X61.453 Y93.622 E13.04199
G1 X60.904 Y93.237 E13.05229
G1 X60.274 Y93.01 E13.06258
G1 X59.605 Y92.95 E13.0729
G1 X58.943 Y93.068 E13.08323
G1 X58.334 Y93.353 E13.09356
G1 X57.819 Y93.785 E13.10388
G1 X57.435 Y94.334 E13.11418
G1 X57.342 Y94.589 E13.11835
G1 X57.343 Y85.775 E13.25375
G1 X57.895 Y85.666 E13.26239
G1 X58.153 Y85.578 E13.26658
G1 X58.153 Y91.085 E13.35117
G0 F3600 X62.071 Y90.773
G0 X72.291 Y81.807
G1 F1800 X72.699 Y82.341 E13.3615
G1 X73.24 Y82.755 E13.37196
G1 X73.951 Y83.031 E13.38368
G1 X74.631 Y83.091 E13.39417
G1 X75.293 Y82.973 E13.4045
G1 X75.902 Y82.688 E13.41483
G1 X76.416 Y82.256 E13.42514
G1 X76.801 Y81.706 E13.43545
G1 X77.028 Y81.076 E13.44574
G1 X77.088 Y80.407 E13.45606
G1 X76.97 Y79.745 E13.46639
G1 X76.683 Y79.129 E13.47683
G1 X76.179 Y78.554 E13.48857
G1 X75.602 Y78.189 E13.49906
G1 X74.964 Y77.986 E13.50935
G1 X74.292 Y77.957 E13.51968
G1 X73.635 Y78.103 E13.53002
G1 X73.041 Y78.416 E13.54033
G1 X72.545 Y78.868 E13.55064
G1 X72.186 Y79.436 E13.56097
G1 X71.99 Y80.057 E13.57097
G1 X71.948 Y80.538 E13.57839
G1 X72.032 Y81.187 E13.58844
G1 X72.291 Y81.807 E13.59876
G0 F3600 X61.392 Y97.051
G0 X57.955 Y99.038
G1 F1800 X57.499 Y98.581 E13.60868
G0 F3600 X57.499 Y98.087
G1 F1800 X58.45 Y99.038 E13.62934
G0 F3600 X58.945 Y99.038
G1 F1800 X57.499 Y97.592 E13.66075
G0 F3600 X57.569 Y97.167
G1 F1800 X57.513 Y97.111 E13.66197
G0 F3600 X58.076 Y97.674
G1 F1800 X59.44 Y99.038 E13.6916
G0 F3600 X59.935 Y99.038
G1 F1800 X59.058 Y98.161 E13.71066
G0 F3600 X59.621 Y98.229
G1 F1800 X60.43 Y99.038 E13.72823
G0 F3600 X60.925 Y99.038
G1 F1800 X60.09 Y98.203 E13.74637
G0 F3600 X60.51 Y98.128
G1 F1800 X61.42 Y99.038 E13.76614
G0 F3600 X61.914 Y99.038
G1 F1800 X60.854 Y97.977 E13.78918
G0 F3600 X61.19 Y97.818
G1 F1800 X62.409 Y99.038 E13.81568
G0 F3600 X62.904 Y99.038
G1 F1800 X61.458 Y97.592 E13.84709
G0 F3600 X61.728 Y97.366
G1 F1800 X63.399 Y99.038 E13.8834
G0 F3600 X63.894 Y99.038
G1 F1800 X61.932 Y97.075 E13.92604
G0 F3600 X62.137 Y96.785
G1 F1800 X64.389 Y99.038 E13.97497
G0 F3600 X64.884 Y99.038
G1 F1800 X62.269 Y96.422 E14.0318
G0 F3600 X62.387 Y96.045
G1 F1800 X65.379 Y99.038 E14.09681
G0 F3600 X65.874 Y99.038
G1 F1800 X62.428 Y95.591 E14.17168
G0 F3600 X62.383 Y95.052
G1 F1800 X66.369 Y99.038 E14.25828
G0 F3600 X66.864 Y99.038
G1 F1800 X62.144 Y94.317 E14.36083
G1 X62.082 Y94.255
G0 F3600 X60.891 Y93.064
G1 F1800 X59.068 Y91.241 E14.40044
G0 F3600 X59.563 Y91.241
G1 F1800 X67.359 Y99.038 E14.56982
G0 F3600 X67.854 Y99.038
G1 F1800 X60.058 Y91.241 E14.7392
G0 F3600 X60.553 Y91.241
G1 F1800 X68.349 Y99.038 E14.90858
G0 F3600 X68.844 Y99.038
G1 F1800 X61.048 Y91.241 E15.07796
G0 F3600 X61.543 Y91.241
G1 F1800 X69.339 Y99.038 E15.24734
G0 F3600 X69.834 Y99.038
G1 F1800 X62.038 Y91.241 E15.41672
G0 F3600 X62.532 Y91.241
G1 F1800 X70.329 Y99.038 E15.58611
G0 F3600 X70.824 Y99.038
G1 F1800 X62.54 Y90.753 E15.76609
G0 F3600 X62.54 Y90.258
