;FLAVOR:Marlin
;TIME:7741
;Filament used: 3.08934m
;Layer height: 0.2
;MINX:47.065
;MINY:62.284
;MINZ:0.28
;MAXX:133.892
;MAXY:107.888
;MAXZ:9.48
;Generated with Cura_SteamEngine 4.1.0
M82 ;absolute extrusion mode
M98 P0:/sys/startprint.g

G92 E0
G92 E0
G10
;LAYER_COUNT:47
;LAYER:0
M107
G0 F3600 X48.443 Y63.003 Z0.28
;TYPE:SKIRT
M220 S50
G11
G1 F1800 X48.878 Y62.75 E0.00773
G1 X49.349 Y62.569 E0.01548
G1 X49.841 Y62.465 E0.02321
G1 X50.162 Y62.44 E0.02815
G1 X50.491 Y62.431 E0.03321
G1 X50.578 Y62.43 E0.03455
G1 X75.688 Y62.429 E0.42028
G1 X78.482 Y62.389 E0.46321
G1 X80.253 Y62.313 E0.49044
G1 X80.298 Y62.311 E0.49113
G1 X81.197 Y62.285 E0.50495
G1 X81.289 Y62.284 E0.50636
G1 X108.379 Y62.284 E0.92252
G1 X109.085 Y62.294 E0.93336
G1 X109.174 Y62.297 E0.93473
G1 X110.311 Y62.345 E0.95221
G1 X110.362 Y62.347 E0.953
G1 X110.676 Y62.365 E0.95783
G1 X113.434 Y62.446 E1.00022
G1 X114.905 Y62.457 E1.02281
G1 X129.867 Y62.456 E1.25266
G1 X129.912 Y62.456 E1.25335
G1 X130.616 Y62.466 E1.26417
G1 X131.117 Y62.513 E1.2719
G1 X131.605 Y62.639 E1.27964
G1 X132.067 Y62.84 E1.28738
G1 X132.491 Y63.112 E1.29512
G1 X132.816 Y63.396 E1.30175
G1 X132.951 Y63.531 E1.30468
G1 X133.278 Y63.914 E1.31242
G1 X133.54 Y64.344 E1.32015
G1 X133.731 Y64.81 E1.32789
G1 X133.845 Y65.301 E1.33563
G1 X133.879 Y65.669 E1.34131
G1 X133.887 Y65.907 E1.34497
G1 X133.889 Y66.014 E1.34661
G1 X133.892 Y103.835 E1.92762
G1 X133.892 Y103.879 E1.92829
G1 X133.882 Y104.608 E1.93949
G1 X133.835 Y105.109 E1.94722
G1 X133.709 Y105.597 E1.95497
G1 X133.508 Y106.058 E1.96269
G1 X133.237 Y106.482 E1.97042
G1 X132.944 Y106.817 E1.97726
G1 X132.805 Y106.955 E1.98027
G1 X132.421 Y107.28 E1.988
G1 X131.99 Y107.541 E1.99574
G1 X131.523 Y107.73 E2.00348
G1 X131.032 Y107.843 E2.01122
G1 X130.672 Y107.875 E2.01677
G1 X130.427 Y107.883 E2.02053
G1 X130.324 Y107.885 E2.02212
G1 X112.486 Y107.888 E2.29614
G1 X112.44 Y107.888 E2.29685
G1 X111.737 Y107.878 E2.30765
G1 X111.638 Y107.875 E2.30917
G1 X110.045 Y107.803 E2.33367
G1 X105.937 Y107.716 E2.39679
G1 X83.593 Y107.716 E2.74004
G1 X80.799 Y107.756 E2.78296
G1 X79.028 Y107.832 E2.81019
G1 X78.983 Y107.834 E2.81088
G1 X78.084 Y107.86 E2.8247
G1 X77.992 Y107.861 E2.82611
G1 X50.902 Y107.861 E3.24227
G1 X50.204 Y107.851 E3.25299
G1 X49.702 Y107.804 E3.26074
G1 X49.215 Y107.678 E3.26847
G1 X48.753 Y107.476 E3.27621
G1 X48.329 Y107.205 E3.28394
G1 X47.953 Y106.869 E3.29169
G1 X47.635 Y106.479 E3.29942
G1 X47.383 Y106.043 E3.30716
G1 X47.203 Y105.573 E3.31489
G1 X47.1 Y105.08 E3.32262
G1 X47.075 Y104.761 E3.32754
G1 X47.066 Y104.424 E3.33272
G1 X47.065 Y104.339 E3.33402
G1 X47.066 Y90.308 E3.54957
G1 X47.066 Y90.265 E3.55023
G1 X47.076 Y89.533 E3.56147
G1 X47.079 Y89.438 E3.56293
G1 X47.086 Y89.272 E3.56549
G1 X47.164 Y86.489 E3.60826
G1 X47.164 Y83.76 E3.65018
G1 X47.1 Y81.382 E3.68672
G1 X47.075 Y80.749 E3.69645
G1 X47.073 Y80.663 E3.69778
G1 X47.066 Y80.086 E3.70664
G1 X47.066 Y80.047 E3.70724
G1 X47.065 Y66.305 E3.91834
G1 X47.065 Y66.264 E3.91897
G1 X47.074 Y65.573 E3.92959
G1 X47.121 Y65.071 E3.93733
G1 X47.246 Y64.583 E3.94507
G1 X47.447 Y64.122 E3.9528
G1 X47.718 Y63.697 E3.96054
G1 X48.053 Y63.321 E3.96828
G1 X48.443 Y63.003 E3.97601
G10
;MESH:slidingblockouter.stl
G0 F3600 X50.779 Y64.908
G0 X50.779 Y66.143
G0 X53.276 Y67.823
G0 X53.285 Y67.921
;TYPE:WALL-INNER
G11
G1 F1800 X52.632 Y68.083 E3.98634
G1 X52.122 Y68.377 E3.99539
G1 X51.711 Y68.789 E4.00433
G1 X51.421 Y69.293 E4.01326
G1 X51.275 Y69.838 E4.02193
G1 X51.254 Y70.163 E4.02693
G1 X51.327 Y70.723 E4.03561
G1 X51.55 Y71.261 E4.04455
G1 X51.905 Y71.723 E4.0535
G1 X52.367 Y72.077 E4.06244
G1 X52.905 Y72.299 E4.07138
G1 X53.482 Y72.375 E4.08033
G1 X54.059 Y72.299 E4.08927
G1 X54.597 Y72.075 E4.09822
G1 X55.059 Y71.721 E4.10716
G1 X55.413 Y71.259 E4.1161
G1 X55.635 Y70.721 E4.12504
G1 X55.711 Y70.144 E4.13398
G1 X55.635 Y69.567 E4.14292
G1 X55.411 Y69.029 E4.15187
G1 X55.057 Y68.567 E4.16082
G1 X54.59 Y68.21 E4.16985
G1 X53.964 Y67.966 E4.18017
G1 X53.285 Y67.921 E4.19062
G0 F3600 X53.314 Y68.249
;TYPE:WALL-OUTER
G1 F1800 X52.755 Y68.387 E4.19947
G1 X52.322 Y68.637 E4.20715
G1 X51.971 Y68.988 E4.21477
G1 X51.724 Y69.418 E4.22239
G1 X51.597 Y69.891 E4.22991
G1 X51.58 Y70.152 E4.23393
G1 X51.644 Y70.638 E4.24146
G1 X51.834 Y71.097 E4.24909
G1 X52.137 Y71.491 E4.25673
G1 X52.531 Y71.793 E4.26435
G1 X52.99 Y71.982 E4.27198
G1 X53.482 Y72.047 E4.2796
G1 X53.974 Y71.982 E4.28723
G1 X54.433 Y71.791 E4.29486
G1 X54.827 Y71.489 E4.30249
G1 X55.129 Y71.095 E4.31012
G1 X55.318 Y70.636 E4.31774
G1 X55.383 Y70.144 E4.32537
G1 X55.318 Y69.652 E4.33299
G1 X55.127 Y69.193 E4.34063
G1 X54.825 Y68.799 E4.34825
G1 X54.429 Y68.496 E4.35591
G1 X53.893 Y68.287 E4.36475
G1 X53.314 Y68.249 E4.37366
G0 F3600 X53.12 Y68.297
G0 X53.028 Y67.923
G0 X53.021 Y67.884
G0 X53.972 Y67.927
G0 X54.994 Y68.469
G0 X68.785 Y82.869
G0 X68.764 Y82.966
;TYPE:WALL-INNER
G1 F1800 X68.091 Y82.923 E4.38402
G1 X67.517 Y83.051 E4.39306
G1 X67.001 Y83.319 E4.40199
G1 X66.567 Y83.717 E4.41104
G1 X66.222 Y84.286 E4.42126
G1 X66.075 Y84.839 E4.43005
G1 X66.054 Y85.163 E4.43504
G1 X66.127 Y85.723 E4.44371
G1 X66.35 Y86.261 E4.45266
G1 X66.705 Y86.723 E4.46161
G1 X67.167 Y87.077 E4.47055
G1 X67.705 Y87.299 E4.47949
G1 X68.282 Y87.375 E4.48843
G1 X68.859 Y87.299 E4.49737
G1 X69.397 Y87.075 E4.50632
G1 X69.859 Y86.721 E4.51527
G1 X70.213 Y86.259 E4.52421
G1 X70.435 Y85.721 E4.53315
G1 X70.511 Y85.144 E4.54209
G1 X70.435 Y84.567 E4.55103
G1 X70.211 Y84.029 E4.55998
G1 X69.857 Y83.567 E4.56892
G1 X69.39 Y83.21 E4.57795
G1 X68.764 Y82.966 E4.58827
G0 F3600 X68.693 Y83.287
;TYPE:WALL-OUTER
G1 F1800 X68.117 Y83.25 E4.59714
G1 X67.629 Y83.359 E4.60482
G1 X67.189 Y83.588 E4.61244
G1 X66.821 Y83.925 E4.62011
G1 X66.524 Y84.415 E4.62891
G1 X66.397 Y84.892 E4.63649
G1 X66.38 Y85.152 E4.64049
G1 X66.444 Y85.638 E4.64803
G1 X66.634 Y86.097 E4.65566
G1 X66.937 Y86.491 E4.66329
G1 X67.331 Y86.793 E4.67092
G1 X67.79 Y86.982 E4.67854
G1 X68.282 Y87.047 E4.68617
G1 X68.774 Y86.982 E4.69379
G1 X69.233 Y86.791 E4.70143
G1 X69.627 Y86.489 E4.70905
G1 X69.929 Y86.095 E4.71668
G1 X70.118 Y85.636 E4.72431
G1 X70.183 Y85.144 E4.73193
G1 X70.118 Y84.652 E4.73955
G1 X69.927 Y84.193 E4.74719
G1 X69.625 Y83.799 E4.75482
G1 X69.229 Y83.496 E4.76248
G1 X68.693 Y83.287 E4.77131
G0 F3600 X68.494 Y83.275
G0 X68.519 Y82.891
G0 X68.522 Y82.852
G0 X67.503 Y83.014
G0 X66.538 Y83.69
G0 X55.834 Y95.398
G0 X53.276 Y97.823
G0 X53.285 Y97.921
;TYPE:WALL-INNER
G1 F1800 X52.632 Y98.083 E4.78165
G1 X52.122 Y98.377 E4.79069
G1 X51.711 Y98.789 E4.79963
G1 X51.421 Y99.293 E4.80857
G1 X51.275 Y99.838 E4.81723
G1 X51.254 Y100.163 E4.82224
G1 X51.327 Y100.723 E4.83091
G1 X51.55 Y101.261 E4.83986
G1 X51.905 Y101.723 E4.84881
G1 X52.367 Y102.077 E4.85775
G1 X52.905 Y102.299 E4.86669
G1 X53.482 Y102.375 E4.87563
G1 X54.059 Y102.299 E4.88457
G1 X54.597 Y102.075 E4.89352
G1 X55.059 Y101.721 E4.90246
G1 X55.413 Y101.259 E4.91141
G1 X55.635 Y100.721 E4.92035
G1 X55.711 Y100.144 E4.92929
G1 X55.635 Y99.567 E4.93823
G1 X55.411 Y99.029 E4.94718
G1 X55.057 Y98.567 E4.95612
G1 X54.59 Y98.21 E4.96515
G1 X53.964 Y97.966 E4.97547
G1 X53.285 Y97.921 E4.98593
G0 F3600 X53.314 Y98.249
;TYPE:WALL-OUTER
G1 F1800 X52.755 Y98.387 E4.99477
G1 X52.322 Y98.637 E5.00245
G1 X51.971 Y98.988 E5.01008
G1 X51.724 Y99.418 E5.0177
G1 X51.597 Y99.891 E5.02522
G1 X51.58 Y100.152 E5.02924
G1 X51.644 Y100.638 E5.03677
G1 X51.834 Y101.097 E5.0444
G1 X52.137 Y101.491 E5.05203
G1 X52.531 Y101.793 E5.05966
G1 X52.99 Y101.982 E5.06729
G1 X53.482 Y102.047 E5.07491
G1 X53.974 Y101.982 E5.08253
G1 X54.433 Y101.791 E5.09017
G1 X54.827 Y101.489 E5.0978
G1 X55.129 Y101.095 E5.10542
G1 X55.318 Y100.636 E5.11305
G1 X55.383 Y100.144 E5.12067
G1 X55.318 Y99.652 E5.1283
G1 X55.127 Y99.193 E5.13593
G1 X54.825 Y98.799 E5.14356
G1 X54.429 Y98.496 E5.15122
G1 X53.893 Y98.287 E5.16006
G1 X53.314 Y98.249 E5.16897
G0 F3600 X53.12 Y98.297
G0 X53.028 Y97.923
G0 X53.021 Y97.884
G0 X52.186 Y95.44
G0 X52.256 Y95.37
;TYPE:WALL-INNER
G1 F1800 X55.806 Y95.37 E5.22351
G1 X55.806 Y88.62 E5.3272
G1 X54.233 Y88.62 E5.35136
G1 X54.231 Y88.62 E5.35139
G1 X53.849 Y88.62 E5.35726
G1 X54.101 Y88.332 E5.36046
G1 X54.235 Y88.179 E5.36359
G1 X54.598 Y87.637 E5.37361
G1 X54.886 Y87.053 E5.38361
G1 X55.097 Y86.435 E5.39364
G1 X55.223 Y85.794 E5.40368
G1 X55.266 Y85.145 E5.41367
G1 X55.223 Y84.496 E5.42366
G1 X55.097 Y83.855 E5.4337
G1 X54.886 Y83.237 E5.44373
G1 X54.598 Y82.653 E5.45373
G1 X54.235 Y82.111 E5.46375
G1 X54.101 Y81.958 E5.46688
G1 X53.849 Y81.67 E5.47276
G1 X54.231 Y81.67 E5.47595
G1 X54.233 Y81.67 E5.47598
G1 X55.806 Y81.67 E5.50015
G1 X55.806 Y74.92 E5.60384
G1 X52.256 Y74.92 E5.65838
G1 X52.256 Y80.343 E5.74168
G1 X52.256 Y80.539 E5.74469
G1 X52.256 Y80.572 E5.7452
G1 X52.188 Y80.539 E5.74571
G1 X52.003 Y80.476 E5.74772
G1 X51.57 Y80.329 E5.75475
G1 X50.931 Y80.202 E5.76475
G1 X50.766 Y80.191 E5.7673
G1 X50.765 Y66.303 E5.98064
G1 X50.765 Y66.129 E5.98332
G1 X50.939 Y66.129 E5.98504
G1 X77.797 Y66.129 E6.39763
G1 X77.797 Y104.161 E6.98188
G1 X50.939 Y104.161 E7.39447
G1 X50.765 Y104.161 E7.39714
G1 X50.765 Y103.987 E7.39887
G1 X50.766 Y90.098 E7.61224
G1 X50.93 Y90.088 E7.61476
G1 X51.57 Y89.961 E7.62478
G1 X52.003 Y89.814 E7.63181
G1 X52.188 Y89.751 E7.63481
G1 X52.256 Y89.718 E7.63597
G1 X52.256 Y89.751
G1 X52.256 Y89.947 E7.638
G1 X52.256 Y95.37 E7.72131
G0 F3600 X52.581 Y95.045
;TYPE:WALL-OUTER
G1 F1800 X55.481 Y95.045 E7.76586
G1 X55.481 Y88.945 E7.85956
G1 X53.444 Y88.945 E7.89086
G1 X53.117 Y88.945 E7.89588
G1 X52.962 Y88.945 E7.89826
G1 X53.117 Y88.841 E7.89899
G1 X53.363 Y88.626 E7.90235
G1 X53.575 Y88.44 E7.90668
G1 X53.977 Y87.981 E7.91606
G1 X54.316 Y87.474 E7.92543
G1 X54.585 Y86.928 E7.93478
G1 X54.782 Y86.351 E7.94414
G1 X54.9 Y85.752 E7.95352
G1 X54.94 Y85.145 E7.96287
G1 X54.9 Y84.538 E7.97221
G1 X54.782 Y83.939 E7.98159
G1 X54.585 Y83.362 E7.99096
G1 X54.316 Y82.816 E8.00031
G1 X53.977 Y82.309 E8.00968
G1 X53.575 Y81.85 E8.01905
G1 X53.363 Y81.664 E8.02338
G1 X53.117 Y81.449 E8.0284
G1 X52.962 Y81.345 E8.03127
G1 X53.117 Y81.345 E8.03152
G1 X53.444 Y81.345 E8.03489
G1 X55.481 Y81.345 E8.06618
G1 X55.481 Y75.245 E8.15989
G1 X52.581 Y75.245 E8.20444
G1 X52.581 Y80.814 E8.28999
G1 X52.581 Y80.815 E8.29
G1 X52.581 Y81.095 E8.29431
G1 X52.329 Y80.971 E8.29679
G1 X52.063 Y80.84 E8.30134
G1 X51.486 Y80.644 E8.3107
G1 X50.888 Y80.525 E8.32007
G1 X50.441 Y80.495 E8.32695
G1 X50.44 Y65.979 E8.54995
G1 X50.44 Y65.804 E8.55263
G1 X50.615 Y65.804 E8.55437
G1 X78.122 Y65.804 E8.97694
G1 X78.122 Y104.486 E9.57117
G1 X50.615 Y104.486 E9.99373
G1 X50.44 Y104.486 E9.99642
G1 X50.44 Y104.311 E9.99816
G1 X50.441 Y89.793 E10.22118
G1 X50.888 Y89.765 E10.22806
G1 X51.486 Y89.646 E10.23743
G1 X52.063 Y89.45 E10.24679
G1 X52.329 Y89.319 E10.25134
G1 X52.581 Y89.195 E10.25566
G1 X52.581 Y89.475 E10.25813
G1 X52.581 Y89.476 E10.25815
G1 X52.581 Y95.045 E10.3437
G0 F3600 X52.781 Y95.045
G0 X52.781 Y95.43
G0 X51.916 Y95.71
;TYPE:SKIN
G1 F1800 X56.146 Y95.71 E10.40868
G1 X56.146 Y88.28 E10.52282
G1 X54.577 Y88.28 E10.54692
G1 X54.893 Y87.808 E10.55565
G1 X55.201 Y87.183 E10.56635
G1 X55.426 Y86.523 E10.57706
G1 X55.561 Y85.838 E10.58779
G1 X55.606 Y85.145 E10.59846
G1 X55.561 Y84.452 E10.60912
G1 X55.426 Y83.767 E10.61985
G1 X55.201 Y83.107 E10.63056
G1 X54.893 Y82.482 E10.64127
G1 X54.577 Y82.01 E10.64999
G1 X56.146 Y82.01 E10.67409
G1 X56.146 Y74.58 E10.78823
G1 X51.916 Y74.58 E10.85321
G1 X51.916 Y80.088 E10.93783
G1 X51.658 Y80 E10.94202
G1 X51.106 Y79.89 E10.95066
G1 X51.105 Y71.077 E11.08605
G1 X51.253 Y71.432 E11.09196
G1 X51.662 Y71.966 E11.10229
G1 X52.196 Y72.374 E11.11261
G1 X52.816 Y72.631 E11.12292
G1 X53.482 Y72.718 E11.13324
G1 X54.148 Y72.63 E11.14356
G1 X54.768 Y72.372 E11.15388
G1 X55.302 Y71.964 E11.1642
G1 X55.71 Y71.43 E11.17452
G1 X55.967 Y70.81 E11.18483
G1 X56.054 Y70.144 E11.19515
G1 X55.966 Y69.478 E11.20547
G1 X55.708 Y68.858 E11.21579
G1 X55.3 Y68.324 E11.22611
G1 X54.759 Y67.911 E11.23657
G1 X54.038 Y67.63 E11.24845
G1 X53.254 Y67.579 E11.26052
G1 X52.504 Y67.764 E11.27239
G1 X51.913 Y68.105 E11.28287
G1 X51.439 Y68.581 E11.29319
G1 X51.105 Y69.16 E11.30346
G1 X51.105 Y66.469 E11.3448
G1 X77.457 Y66.469 E11.74962
G1 X77.457 Y103.821 E12.32342
G1 X51.105 Y103.821 E12.72824
G1 X51.105 Y101.077 E12.77039
G1 X51.253 Y101.432 E12.7763
G1 X51.662 Y101.966 E12.78663
G1 X52.196 Y102.374 E12.79695
G1 X52.816 Y102.631 E12.80726
G1 X53.482 Y102.718 E12.81758
G1 X54.148 Y102.63 E12.8279
G1 X54.768 Y102.372 E12.83822
G1 X55.302 Y101.964 E12.84854
G1 X55.71 Y101.43 E12.85887
G1 X55.967 Y100.81 E12.86918
G1 X56.054 Y100.144 E12.87949
G1 X55.966 Y99.478 E12.88981
G1 X55.708 Y98.858 E12.90013
G1 X55.3 Y98.324 E12.91045
G1 X54.759 Y97.911 E12.92091
G1 X54.038 Y97.63 E12.9328
G1 X53.254 Y97.579 E12.94487
G1 X52.504 Y97.764 E12.95673
G1 X51.913 Y98.105 E12.96721
G1 X51.439 Y98.581 E12.97753
G1 X51.105 Y99.16 E12.9878
G1 X51.106 Y90.4 E13.12237
G1 X51.658 Y90.29 E13.13102
G1 X51.916 Y90.202 E13.13521
G1 X51.916 Y95.71 E13.21982
G0 F3600 X55.834 Y95.398
G0 X66.053 Y86.432
G1 F1800 X66.462 Y86.966 E13.23015
G1 X66.996 Y87.374 E13.24048
G1 X67.616 Y87.631 E13.25079
G1 X68.282 Y87.718 E13.26111
G1 X68.948 Y87.63 E13.27143
G1 X69.568 Y87.372 E13.28174
G1 X70.102 Y86.964 E13.29207
G1 X70.51 Y86.43 E13.30239
G1 X70.767 Y85.81 E13.3127
G1 X70.854 Y85.144 E13.32302
G1 X70.766 Y84.478 E13.33334
G1 X70.508 Y83.858 E13.34365
G1 X70.1 Y83.324 E13.35398
G1 X69.559 Y82.911 E13.36443
G1 X68.838 Y82.63 E13.37632
G1 X68.064 Y82.581 E13.38823
G1 X67.4 Y82.729 E13.39868
G1 X66.805 Y83.038 E13.40898
G1 X66.301 Y83.499 E13.41948
G1 X65.906 Y84.152 E13.4312
G1 X65.737 Y84.784 E13.44125
G1 X65.712 Y85.174 E13.44725
G1 X65.795 Y85.812 E13.45714
G1 X66.053 Y86.432 E13.46745
G0 F3600 X55.087 Y101.749
G0 X51.69 Y103.663
G1 F1800 X51.262 Y103.234 E13.47676
G0 F3600 X51.262 Y102.739
G1 F1800 X52.185 Y103.663 E13.49683
G0 F3600 X52.68 Y103.663
G1 F1800 X51.262 Y102.244 E13.52764
G0 F3600 X51.417 Y101.905
G1 F1800 X51.262 Y101.749 E13.53102
G0 F3600 X51.718 Y102.205
G1 F1800 X53.175 Y103.663 E13.56269
G0 F3600 X53.67 Y103.663
G1 F1800 X52.793 Y102.785 E13.58175
G0 F3600 X53.363 Y102.86
G1 F1800 X54.165 Y103.663 E13.59918
G0 F3600 X54.66 Y103.663
G1 F1800 X53.827 Y102.83 E13.61728
G0 F3600 X54.249 Y102.757
G1 F1800 X55.155 Y103.663 E13.63696
G0 F3600 X55.65 Y103.663
G1 F1800 X54.599 Y102.611 E13.65981
G0 F3600 X54.929 Y102.447
G1 F1800 X56.145 Y103.663 E13.68623
G0 F3600 X56.64 Y103.663
G1 F1800 X55.209 Y102.232 E13.71731
G0 F3600 X55.471 Y101.999
G1 F1800 X57.135 Y103.663 E13.75346
G0 F3600 X57.63 Y103.663
G1 F1800 X55.686 Y101.718 E13.79571
G0 F3600 X55.882 Y101.42
G1 F1800 X58.125 Y103.663 E13.84444
G0 F3600 X58.62 Y103.663
G1 F1800 X56.028 Y101.071 E13.90075
G0 F3600 X56.141 Y100.689
G1 F1800 X59.115 Y103.663 E13.96536
G0 F3600 X59.61 Y103.663
G1 F1800 X56.198 Y100.251 E14.03949
G0 F3600 X56.156 Y99.714
G1 F1800 X60.105 Y103.663 E14.12528
G0 F3600 X60.6 Y103.663
G1 F1800 X55.936 Y98.999 E14.2266
G1 X55.874 Y98.937
G0 F3600 X54.628 Y97.691
G1 F1800 X52.803 Y95.866 E14.26625
G0 F3600 X53.298 Y95.866
G1 F1800 X61.095 Y103.663 E14.43564
G0 F3600 X61.59 Y103.663
G1 F1800 X53.793 Y95.866 E14.60503
G0 F3600 X54.288 Y95.866
G1 F1800 X62.085 Y103.663 E14.77442
G0 F3600 X62.58 Y103.663
G1 F1800 X54.783 Y95.866 E14.94381
G0 F3600 X55.278 Y95.866
G1 F1800 X63.075 Y103.663 E15.11321
G0 F3600 X63.57 Y103.663
G1 F1800 X55.773 Y95.866 E15.2826
G0 F3600 X56.268 Y95.866
G1 F1800 X64.065 Y103.663 E15.45199
G0 F3600 X64.56 Y103.663
G1 F1800 X56.302 Y95.405 E15.63139
G0 F3600 X56.302 Y94.91
G1 F1800 X65.055 Y103.663 E15.82155
G0 F3600 X65.55 Y103.663
G1 F1800 X56.302 Y94.415 E16.02247
G0 F3600 X56.302 Y93.92
G1 F1800 X66.045 Y103.663 E16.23413
G0 F3600 X66.54 Y103.663
G1 F1800 X56.302 Y93.425 E16.45655
G0 F3600 X56.302 Y92.93
G1 F1800 X67.035 Y103.663 E16.68973
G0 F3600 X67.53 Y103.663
G1 F1800 X56.302 Y92.435 E16.93366
G0 F3600 X56.302 Y91.94
G1 F1800 X68.025 Y103.663 E17.18834
G0 F3600 X68.52 Y103.663
G1 F1800 X56.302 Y91.445 E17.45378
G0 F3600 X56.302 Y90.95
