;FLAVOR:Marlin
;TIME:6760
;Filament used: 2.34188m
;Layer height: 0.2
;MINX:43.434
;MINY:61.934
;MINZ:0.28
;MAXX:112.566
;MAXY:108.066
;MAXZ:9.48
;Generated with Cura_SteamEngine 4.1.0
M82 ;absolute extrusion mode
M98 P0:/sys/startprint.g

G92 E0
G92 E0
G10
;LAYER_COUNT:47
;LAYER:0
M107
G0 F3600 X44.824 Y62.671 Z0.28
;TYPE:SKIRT
G11
G1 F1800 X45.269 Y62.381 E0.00816
G1 X45.752 Y62.16 E0.01632
G1 X46.262 Y62.015 E0.02446
G1 X46.872 Y61.945 E0.0339
G1 X47.201 Y61.936 E0.03895
G1 X47.297 Y61.935 E0.04043
G1 X74.334 Y61.934 E0.45577
G1 X74.384 Y61.934 E0.45654
G1 X76.145 Y61.959 E0.48359
G1 X76.199 Y61.961 E0.48442
G1 X76.607 Y61.973 E0.49069
G1 X79.366 Y61.977 E0.53308
G1 X81.217 Y61.936 E0.56152
G1 X81.295 Y61.935 E0.56272
G1 X108.334 Y61.934 E0.97809
G1 X108.384 Y61.934 E0.97886
G1 X109.082 Y61.944 E0.98958
G1 X109.611 Y61.992 E0.99774
G1 X110.126 Y62.118 E1.00588
G1 X110.617 Y62.32 E1.01404
G1 X111.072 Y62.594 E1.0222
G1 X111.48 Y62.933 E1.03035
G1 X111.833 Y63.329 E1.0385
G1 X112.123 Y63.774 E1.04666
G1 X112.342 Y64.257 E1.0548
G1 X112.487 Y64.768 E1.06296
G1 X112.556 Y65.369 E1.07226
G1 X112.565 Y65.685 E1.07711
G1 X112.566 Y65.785 E1.07865
G1 X112.566 Y103.849 E1.66339
G1 X112.557 Y104.576 E1.67456
G1 X112.51 Y105.104 E1.6827
G1 X112.385 Y105.62 E1.69086
G1 X112.184 Y106.111 E1.69901
G1 X111.911 Y106.566 E1.70716
G1 X111.573 Y106.975 E1.71531
G1 X111.177 Y107.329 E1.72347
G1 X110.733 Y107.619 E1.73161
G1 X110.25 Y107.84 E1.73977
G1 X109.74 Y107.985 E1.74792
G1 X109.131 Y108.056 E1.75734
G1 X108.81 Y108.065 E1.76227
G1 X108.711 Y108.066 E1.76379
G1 X81.615 Y108.066 E2.18004
G1 X79.661 Y108.038 E2.21006
G1 X79.618 Y108.037 E2.21072
G1 X79.172 Y108.025 E2.21757
G1 X76.438 Y108.027 E2.25957
G1 X74.814 Y108.065 E2.28453
G1 X74.732 Y108.066 E2.28579
G1 X47.621 Y108.066 E2.70227
G1 X46.923 Y108.057 E2.71299
G1 X46.394 Y108.01 E2.72115
G1 X45.878 Y107.884 E2.72931
G1 X45.387 Y107.683 E2.73746
G1 X44.932 Y107.41 E2.74561
G1 X44.523 Y107.072 E2.75376
G1 X44.17 Y106.676 E2.76191
G1 X43.88 Y106.232 E2.77006
G1 X43.66 Y105.749 E2.77821
G1 X43.514 Y105.238 E2.78637
G1 X43.444 Y104.627 E2.79582
G1 X43.435 Y104.294 E2.80094
G1 X43.434 Y104.199 E2.8024
G1 X43.435 Y90.163 E3.01802
G1 X43.435 Y90.115 E3.01876
G1 X43.445 Y89.383 E3.03
G1 X43.448 Y89.278 E3.03162
G1 X43.457 Y89.071 E3.0348
G1 X43.533 Y86.335 E3.07685
G1 X43.533 Y83.625 E3.11848
G1 X43.468 Y81.207 E3.15564
G1 X43.445 Y80.618 E3.16469
G1 X43.442 Y80.522 E3.16617
G1 X43.435 Y79.945 E3.17503
G1 X43.435 Y79.902 E3.17569
G1 X43.434 Y66.16 E3.38679
G1 X43.434 Y66.114 E3.3875
G1 X43.443 Y65.423 E3.39812
G1 X43.49 Y64.895 E3.40626
G1 X43.616 Y64.379 E3.41442
G1 X43.817 Y63.888 E3.42257
G1 X44.09 Y63.433 E3.43072
G1 X44.429 Y63.024 E3.43888
G1 X44.824 Y62.671 E3.44702
G0 F3600 X45.162 Y62.858
G1 F1800 X45.597 Y62.605 E3.45475
G1 X46.068 Y62.424 E3.4625
G1 X46.56 Y62.32 E3.47023
G1 X46.881 Y62.295 E3.47517
G1 X47.21 Y62.286 E3.48023
G1 X47.297 Y62.285 E3.48157
G1 X74.334 Y62.284 E3.89691
G1 X74.379 Y62.284 E3.8976
G1 X76.14 Y62.309 E3.92465
G1 X76.189 Y62.31 E3.92541
G1 X76.632 Y62.323 E3.93222
G1 X79.374 Y62.327 E3.97434
G1 X81.225 Y62.286 E4.00278
G1 X81.295 Y62.285 E4.00385
G1 X108.334 Y62.284 E4.41923
G1 X108.379 Y62.284 E4.41992
G1 X109.077 Y62.294 E4.43064
G1 X109.579 Y62.341 E4.43839
G1 X110.066 Y62.467 E4.44611
G1 X110.528 Y62.669 E4.45386
G1 X110.952 Y62.94 E4.46159
G1 X111.328 Y63.276 E4.46934
G1 X111.646 Y63.666 E4.47707
G1 X111.898 Y64.102 E4.4848
G1 X112.078 Y64.572 E4.49254
G1 X112.181 Y65.065 E4.50027
G1 X112.206 Y65.379 E4.50511
G1 X112.215 Y65.695 E4.50997
G1 X112.216 Y65.785 E4.51135
G1 X112.216 Y103.844 E5.09601
G1 X112.207 Y104.571 E5.10718
G1 X112.161 Y105.073 E5.11492
G1 X112.036 Y105.561 E5.12266
G1 X111.835 Y106.023 E5.1304
G1 X111.564 Y106.447 E5.13813
G1 X111.23 Y106.823 E5.14586
G1 X110.84 Y107.142 E5.1536
G1 X110.404 Y107.395 E5.16134
G1 X109.934 Y107.576 E5.16908
G1 X109.442 Y107.68 E5.1768
G1 X109.121 Y107.706 E5.18175
G1 X108.8 Y107.715 E5.18668
G1 X108.711 Y107.716 E5.18805
G1 X81.621 Y107.716 E5.60421
G1 X79.667 Y107.688 E5.63423
G1 X79.627 Y107.687 E5.63484
G1 X79.181 Y107.675 E5.6417
G1 X76.43 Y107.677 E5.68396
G1 X74.806 Y107.715 E5.70891
G1 X74.732 Y107.716 E5.71005
G1 X47.625 Y107.716 E6.12647
G1 X46.927 Y107.707 E6.13719
G1 X46.426 Y107.66 E6.14492
G1 X45.938 Y107.535 E6.15266
G1 X45.476 Y107.335 E6.16039
G1 X45.052 Y107.063 E6.16813
G1 X44.675 Y106.729 E6.17587
G1 X44.357 Y106.338 E6.18361
G1 X44.104 Y105.903 E6.19134
G1 X43.923 Y105.433 E6.19908
G1 X43.819 Y104.94 E6.20682
G1 X43.794 Y104.618 E6.21178
G1 X43.785 Y104.285 E6.2169
G1 X43.784 Y104.199 E6.21822
G1 X43.785 Y90.163 E6.43384
G1 X43.785 Y90.12 E6.4345
G1 X43.795 Y89.388 E6.44574
G1 X43.798 Y89.293 E6.4472
G1 X43.805 Y89.127 E6.44976
G1 X43.883 Y86.344 E6.49253
G1 X43.883 Y83.615 E6.53445
G1 X43.819 Y81.237 E6.57099
G1 X43.794 Y80.604 E6.58072
G1 X43.792 Y80.518 E6.58205
G1 X43.785 Y79.941 E6.59091
G1 X43.785 Y79.902 E6.59151
G1 X43.784 Y66.16 E6.80261
G1 X43.784 Y66.119 E6.80324
G1 X43.793 Y65.428 E6.81386
G1 X43.84 Y64.926 E6.8216
G1 X43.965 Y64.438 E6.82934
G1 X44.166 Y63.977 E6.83707
G1 X44.437 Y63.552 E6.84481
G1 X44.772 Y63.176 E6.85255
G1 X45.162 Y62.858 E6.86028
G10
;MESH:slidingblockouter.stl(1)
G0 F3600 X47.498 Y64.763
G0 X47.498 Y65.998
G0 X51.418 Y68.086
G0 X52.213 Y68.951
G0 X52.522 Y70.203
G0 X52.424 Y70.195
;TYPE:WALL-INNER
G11
G1 F1800 X52.379 Y69.522 E6.87064
G1 X52.177 Y68.969 E6.87968
G1 X51.843 Y68.492 E6.88863
G1 X51.396 Y68.118 E6.89758
G1 X50.868 Y67.874 E6.90652
G1 X50.297 Y67.772 E6.91543
G1 X49.716 Y67.823 E6.92439
G1 X49.168 Y68.024 E6.93336
G1 X48.693 Y68.358 E6.94228
G1 X48.318 Y68.804 E6.95123
G1 X48.074 Y69.332 E6.96016
G1 X47.972 Y69.909 E6.96916
G1 X48.044 Y70.573 E6.97942
G1 X48.27 Y71.116 E6.98846
G1 X48.624 Y71.578 E6.9974
G1 X49.091 Y71.935 E7.00643
G1 X49.717 Y72.179 E7.01675
G1 X50.395 Y72.224 E7.02719
G1 X51.049 Y72.063 E7.03754
G1 X51.559 Y71.768 E7.04659
G1 X51.97 Y71.356 E7.05553
G1 X52.263 Y70.847 E7.06455
G1 X52.424 Y70.195 E7.07487
G0 F3600 X52.096 Y70.166
;TYPE:WALL-OUTER
G1 F1800 X52.058 Y69.59 E7.08373
G1 X51.886 Y69.121 E7.09141
G1 X51.601 Y68.714 E7.09904
G1 X51.22 Y68.395 E7.10667
G1 X50.77 Y68.187 E7.11429
G1 X50.282 Y68.1 E7.1219
G1 X49.787 Y68.143 E7.12954
G1 X49.32 Y68.314 E7.13718
G1 X48.915 Y68.599 E7.14479
G1 X48.595 Y68.98 E7.15243
G1 X48.387 Y69.43 E7.16004
G1 X48.3 Y69.92 E7.16769
G1 X48.362 Y70.491 E7.17651
G1 X48.554 Y70.952 E7.18418
G1 X48.856 Y71.346 E7.19181
G1 X49.252 Y71.649 E7.19947
G1 X49.788 Y71.858 E7.20831
G1 X50.366 Y71.896 E7.21721
G1 X50.926 Y71.758 E7.22607
G1 X51.359 Y71.508 E7.23375
G1 X51.71 Y71.157 E7.24137
G1 X51.958 Y70.725 E7.24902
G1 X52.096 Y70.166 E7.25787
G0 F3600 X52.083 Y69.967
G0 X52.467 Y69.943
G0 X52.506 Y69.942
G0 X65.203 Y82.678
G0 X65.195 Y82.776
;TYPE:WALL-INNER
G1 F1800 X64.522 Y82.821 E7.26823
G1 X63.969 Y83.024 E7.27728
G1 X63.493 Y83.357 E7.2862
G1 X63.118 Y83.804 E7.29517
G1 X62.874 Y84.332 E7.3041
G1 X62.772 Y84.909 E7.3131
G1 X62.844 Y85.573 E7.32336
G1 X63.07 Y86.116 E7.3324
G1 X63.424 Y86.578 E7.34134
G1 X63.891 Y86.935 E7.35037
G1 X64.517 Y87.179 E7.36069
G1 X65.195 Y87.224 E7.37113
G1 X65.849 Y87.063 E7.38148
G1 X66.359 Y86.768 E7.39053
G1 X66.77 Y86.357 E7.39946
G1 X67.061 Y85.852 E7.40841
G1 X67.21 Y85.289 E7.41736
G1 X67.21 Y84.708 E7.42628
G1 X67.06 Y84.146 E7.43522
G1 X66.768 Y83.641 E7.44418
G1 X66.356 Y83.23 E7.45312
G1 X65.847 Y82.937 E7.46214
G1 X65.195 Y82.776 E7.47246
G0 F3600 X65.166 Y83.104
;TYPE:WALL-OUTER
G1 F1800 X64.59 Y83.142 E7.48133
G1 X64.121 Y83.314 E7.489
G1 X63.715 Y83.599 E7.49662
G1 X63.395 Y83.98 E7.50426
G1 X63.187 Y84.43 E7.51188
G1 X63.1 Y84.92 E7.51952
G1 X63.162 Y85.491 E7.52835
G1 X63.354 Y85.952 E7.53602
G1 X63.656 Y86.346 E7.54365
G1 X64.052 Y86.649 E7.55131
G1 X64.588 Y86.858 E7.56014
G1 X65.166 Y86.896 E7.56904
G1 X65.726 Y86.758 E7.5779
G1 X66.159 Y86.508 E7.58558
G1 X66.51 Y86.157 E7.59321
G1 X66.758 Y85.727 E7.60083
G1 X66.885 Y85.247 E7.60846
G1 X66.885 Y84.751 E7.61608
G1 X66.757 Y84.271 E7.62371
G1 X66.508 Y83.841 E7.63135
G1 X66.157 Y83.49 E7.63897
G1 X65.725 Y83.242 E7.64662
G1 X65.166 Y83.104 E7.65547
G0 F3600 X64.967 Y83.117
G0 X64.943 Y82.733
G0 X64.942 Y82.694
G0 X63.95 Y82.988
G0 X63.252 Y83.583
G0 X52.522 Y100.203
G0 X52.424 Y100.195
;TYPE:WALL-INNER
G1 F1800 X52.379 Y99.522 E7.66583
G1 X52.177 Y98.969 E7.67487
G1 X51.843 Y98.492 E7.68382
G1 X51.396 Y98.118 E7.69277
G1 X50.868 Y97.874 E7.70171
G1 X50.297 Y97.772 E7.71062
G1 X49.716 Y97.823 E7.71958
G1 X49.168 Y98.024 E7.72854
G1 X48.693 Y98.358 E7.73747
G1 X48.318 Y98.804 E7.74642
G1 X48.074 Y99.332 E7.75535
G1 X47.972 Y99.909 E7.76435
G1 X48.044 Y100.573 E7.77461
G1 X48.27 Y101.116 E7.78365
G1 X48.624 Y101.578 E7.79259
G1 X49.091 Y101.935 E7.80162
G1 X49.717 Y102.179 E7.81194
G1 X50.395 Y102.224 E7.82238
G1 X51.049 Y102.063 E7.83273
G1 X51.559 Y101.768 E7.84178
G1 X51.97 Y101.356 E7.85072
G1 X52.263 Y100.847 E7.85974
G1 X52.424 Y100.195 E7.87006
G0 F3600 X52.096 Y100.166
;TYPE:WALL-OUTER
G1 F1800 X52.058 Y99.59 E7.87892
G1 X51.886 Y99.121 E7.8866
G1 X51.601 Y98.714 E7.89423
G1 X51.22 Y98.395 E7.90186
G1 X50.77 Y98.187 E7.90948
G1 X50.282 Y98.1 E7.91709
G1 X49.787 Y98.143 E7.92473
G1 X49.32 Y98.314 E7.93237
G1 X48.915 Y98.599 E7.93997
G1 X48.595 Y98.98 E7.94762
G1 X48.387 Y99.43 E7.95523
G1 X48.3 Y99.92 E7.96288
G1 X48.362 Y100.491 E7.9717
G1 X48.554 Y100.952 E7.97937
G1 X48.856 Y101.346 E7.987
G1 X49.252 Y101.649 E7.99466
G1 X49.788 Y101.858 E8.0035
G1 X50.366 Y101.896 E8.0124
G1 X50.926 Y101.758 E8.02126
G1 X51.359 Y101.508 E8.02894
G1 X51.71 Y101.157 E8.03656
G1 X51.958 Y100.725 E8.04421
G1 X52.096 Y100.166 E8.05306
G0 F3600 X52.083 Y99.967
G0 X52.467 Y99.943
G0 X52.506 Y99.942
G0 X52.213 Y98.951
G0 X48.905 Y95.295
G0 X48.975 Y95.225
;TYPE:WALL-INNER
G1 F1800 X52.525 Y95.225 E8.10759
G1 X52.525 Y88.475 E8.21129
G1 X50.952 Y88.475 E8.23545
G1 X50.951 Y88.475 E8.23547
G1 X50.569 Y88.475 E8.24134
G1 X50.821 Y88.187 E8.24454
G1 X50.954 Y88.034 E8.24765
G1 X51.318 Y87.492 E8.25768
G1 X51.606 Y86.908 E8.26768
G1 X51.816 Y86.29 E8.27771
G1 X51.943 Y85.649 E8.28775
G1 X51.985 Y85 E8.29774
G1 X51.943 Y84.351 E8.30773
G1 X51.816 Y83.71 E8.31777
G1 X51.606 Y83.092 E8.3278
G1 X51.318 Y82.508 E8.3378
G1 X50.954 Y81.966 E8.34783
G1 X50.821 Y81.813 E8.35094
G1 X50.569 Y81.525 E8.35682
G1 X50.951 Y81.525 E8.36002
G1 X50.952 Y81.525 E8.36003
G1 X52.525 Y81.525 E8.3842
G1 X52.525 Y74.775 E8.48789
G1 X48.975 Y74.775 E8.54242
G1 X48.975 Y80.198 E8.62573
G1 X48.975 Y80.394 E8.62874
G1 X48.975 Y80.427 E8.62925
G1 X48.908 Y80.394 E8.62974
G1 X48.723 Y80.331 E8.63175
G1 X48.29 Y80.184 E8.63878
G1 X47.65 Y80.057 E8.6488
G1 X47.485 Y80.046 E8.65134
G1 X47.484 Y66.158 E8.86469
G1 X47.484 Y65.984 E8.86736
G1 X47.658 Y65.984 E8.86909
G1 X74.516 Y65.984 E9.28168
G1 X74.516 Y104.016 E9.86593
G1 X47.658 Y104.016 E10.27852
G1 X47.484 Y104.016 E10.28119
G1 X47.484 Y103.842 E10.28292
G1 X47.485 Y89.953 E10.49628
G1 X47.649 Y89.943 E10.4988
G1 X48.29 Y89.816 E10.50884
G1 X48.723 Y89.669 E10.51587
G1 X48.908 Y89.606 E10.51887
G1 X48.975 Y89.573 E10.52002
G1 X48.975 Y89.606
G1 X48.975 Y89.802 E10.52204
G1 X48.975 Y95.225 E10.60535
G0 F3600 X49.3 Y94.9
;TYPE:WALL-OUTER
G1 F1800 X52.2 Y94.9 E10.6499
G1 X52.2 Y88.8 E10.74361
G1 X50.163 Y88.8 E10.7749
G1 X49.836 Y88.8 E10.77992
G1 X49.681 Y88.8 E10.7823
G1 X49.836 Y88.696 E10.78303
G1 X50.082 Y88.481 E10.78639
G1 X50.295 Y88.295 E10.79074
G1 X50.696 Y87.836 E10.8001
G1 X51.036 Y87.329 E10.80948
G1 X51.305 Y86.783 E10.81883
G1 X51.501 Y86.206 E10.82819
G1 X51.62 Y85.607 E10.83757
G1 X51.659 Y85 E10.84692
G1 X51.62 Y84.393 E10.85626
G1 X51.501 Y83.794 E10.86564
G1 X51.305 Y83.217 E10.875
G1 X51.036 Y82.671 E10.88435
G1 X50.696 Y82.164 E10.89373
G1 X50.295 Y81.705 E10.90309
G1 X50.082 Y81.519 E10.90744
G1 X49.836 Y81.304 E10.91246
G1 X49.681 Y81.2 E10.91532
G1 X49.836 Y81.2 E10.91557
G1 X50.163 Y81.2 E10.91895
G1 X52.2 Y81.2 E10.95024
G1 X52.2 Y75.1 E11.04395
G1 X49.3 Y75.1 E11.08849
G1 X49.3 Y80.669 E11.17405
G1 X49.3 Y80.67 E11.17406
G1 X49.3 Y80.95 E11.17836
G1 X49.048 Y80.826 E11.18084
G1 X48.783 Y80.695 E11.18538
G1 X48.206 Y80.499 E11.19475
G1 X47.607 Y80.38 E11.20413
G1 X47.16 Y80.35 E11.21101
G1 X47.159 Y65.834 E11.434
G1 X47.159 Y65.659 E11.43669
G1 X47.334 Y65.659 E11.43843
G1 X74.841 Y65.659 E11.86099
G1 X74.841 Y104.341 E12.45522
G1 X47.334 Y104.341 E12.87779
G1 X47.159 Y104.341 E12.88047
G1 X47.159 Y104.166 E12.88221
G1 X47.16 Y89.648 E13.10524
G1 X47.607 Y89.62 E13.11212
G1 X48.206 Y89.501 E13.1215
G1 X48.783 Y89.305 E13.13086
G1 X49.048 Y89.174 E13.1354
G1 X49.3 Y89.05 E13.13972
G1 X49.3 Y89.33 E13.14219
G1 X49.3 Y89.331 E13.14221
G1 X49.3 Y94.9 E13.22776
G0 F3600 X49.5 Y94.9
G0 X49.5 Y95.285
G0 X48.635 Y95.565
;TYPE:SKIN
G1 F1800 X52.865 Y95.565 E13.29274
G1 X52.865 Y88.135 E13.40688
G1 X51.296 Y88.135 E13.43098
G1 X51.613 Y87.663 E13.43971
G1 X51.921 Y87.038 E13.45042
G1 X52.145 Y86.378 E13.46112
G1 X52.281 Y85.693 E13.47185
G1 X52.325 Y85 E13.48252
G1 X52.281 Y84.307 E13.49319
G1 X52.145 Y83.622 E13.50392
G1 X51.921 Y82.962 E13.51462
G1 X51.613 Y82.337 E13.52533
G1 X51.296 Y81.865 E13.53406
G1 X52.865 Y81.865 E13.55816
G1 X52.865 Y74.435 E13.6723
G1 X48.635 Y74.435 E13.73728
G1 X48.635 Y79.943 E13.8219
G1 X48.378 Y79.855 E13.82607
G1 X47.825 Y79.745 E13.83473
G1 X47.824 Y70.929 E13.97016
G1 X47.973 Y71.287 E13.97612
G1 X48.381 Y71.821 E13.98644
G1 X48.922 Y72.234 E13.9969
G1 X49.643 Y72.515 E14.00879
G1 X50.425 Y72.566 E14.02083
G1 X51.177 Y72.382 E14.03272
G1 X51.769 Y72.04 E14.04322
G1 X52.242 Y71.564 E14.05353
G1 X52.582 Y70.975 E14.06398
G1 X52.766 Y70.226 E14.07583
G1 X52.715 Y69.451 E14.08776
G1 X52.482 Y68.81 E14.09823
G1 X52.096 Y68.26 E14.10856
G1 X51.579 Y67.828 E14.11891
G1 X50.971 Y67.547 E14.1292
G1 X50.312 Y67.43 E14.13948
G1 X49.642 Y67.489 E14.14981
G1 X49.009 Y67.721 E14.16017
G1 X48.462 Y68.105 E14.17043
G1 X48.028 Y68.62 E14.18078
G1 X47.824 Y69.062 E14.18826
G1 X47.824 Y66.324 E14.23032
G1 X74.176 Y66.324 E14.63514
G1 X74.176 Y103.676 E15.20894
G1 X47.824 Y103.676 E15.61376
G1 X47.824 Y100.928 E15.65597
G1 X47.973 Y101.287 E15.66194
G1 X48.381 Y101.821 E15.67226
G1 X48.922 Y102.234 E15.68272
G1 X49.643 Y102.515 E15.69461
G1 X50.425 Y102.566 E15.70665
G1 X51.177 Y102.382 E15.71854
G1 X51.769 Y102.04 E15.72904
G1 X52.242 Y101.564 E15.73935
G1 X52.582 Y100.975 E15.7498
G1 X52.766 Y100.226 E15.76165
G1 X52.715 Y99.451 E15.77358
G1 X52.482 Y98.81 E15.78406
G1 X52.096 Y98.26 E15.79438
G1 X51.579 Y97.828 E15.80473
G1 X50.971 Y97.547 E15.81502
G1 X50.312 Y97.43 E15.8253
G1 X49.642 Y97.489 E15.83563
G1 X49.009 Y97.721 E15.84599
G1 X48.462 Y98.105 E15.85625
G1 X48.028 Y98.62 E15.8666
G1 X47.824 Y99.061 E15.87406
G1 X47.825 Y90.255 E16.00934
G1 X48.378 Y90.145 E16.018
G1 X48.635 Y90.057 E16.02218
G1 X48.635 Y95.565 E16.10679
G0 F3600 X52.553 Y95.253
G0 X62.773 Y86.287
G1 F1800 X63.181 Y86.821 E16.11711
G1 X63.722 Y87.234 E16.12757
G1 X64.443 Y87.515 E16.13946
G1 X65.225 Y87.566 E16.1515
G1 X65.977 Y87.382 E16.16339
G1 X66.568 Y87.04 E16.17388
G1 X67.042 Y86.565 E16.18419
G1 X67.378 Y85.982 E16.19452
G1 X67.55 Y85.334 E16.20482
G1 X67.55 Y84.663 E16.21513
G1 X67.377 Y84.014 E16.22545
G1 X67.04 Y83.431 E16.23579
G1 X66.564 Y82.958 E16.2461
G1 X65.975 Y82.618 E16.25655
G1 X65.226 Y82.434 E16.2684
G1 X64.45 Y82.485 E16.28034
G1 X63.81 Y82.721 E16.29082
G1 X63.262 Y83.104 E16.30109
G1 X62.828 Y83.62 E16.31145
G1 X62.547 Y84.229 E16.32175
G1 X62.428 Y84.897 E16.33218
G1 X62.512 Y85.658 E16.34394
G1 X62.773 Y86.287 E16.3544
G0 F3600 X52.001 Y101.379
G0 X51.436 Y101.885
G0 X48.081 Y103.518
G1 F1800 X47.98 Y103.417 E16.3566
G0 F3600 X47.98 Y102.922
G1 F1800 X48.576 Y103.518 E16.36954
G0 F3600 X49.071 Y103.518
G1 F1800 X47.98 Y102.427 E16.39325
G0 F3600 X47.98 Y101.932
G1 F1800 X49.566 Y103.518 E16.4277
G0 F3600 X50.061 Y103.518
G1 F1800 X48.958 Y102.415 E16.45166
G1 X48.896 Y102.353
G0 F3600 X49.714 Y102.676
G1 F1800 X50.556 Y103.518 E16.46996
G0 F3600 X51.05 Y103.518
G1 F1800 X50.244 Y102.711 E16.48748
