;FLAVOR:Marlin
;TIME:2414
;Filament used: 1.27759m
;Layer height: 0.4
;MINX:81.289
;MINY:61.289
;MINZ:0.52
;MAXX:132.711
;MAXY:108.711
;MAXZ:5.72
;Generated with Cura_SteamEngine 4.1.0
M82 ;absolute extrusion mode
M98 P0:/sys/startprint.g

G92 E0
G92 E0
G10
;LAYER_COUNT:14
;LAYER:0
M107
G0 F3600 X81.954 Y63.396 Z0.52
;TYPE:SKIRT
M220 S50
G11
G1 F1800 X82.485 Y62.74 E0.04816
G1 X82.738 Y62.487 E0.06857
G1 X83.168 Y62.114 E0.10105
G1 X83.645 Y61.805 E0.13348
G1 X84.161 Y61.566 E0.16593
G1 X84.706 Y61.401 E0.19842
G1 X85.442 Y61.304 E0.24078
G1 X85.644 Y61.296 E0.25231
G1 X85.765 Y61.293 E0.25922
G1 X86.078 Y61.29 E0.27708
G1 X86.117 Y61.29 E0.2793
G1 X103.71 Y61.289 E1.28314
G1 X103.767 Y61.289 E1.28639
G1 X105.763 Y61.317 E1.40029
G1 X108.481 Y61.317 E1.55537
G1 X109.244 Y61.299 E1.59892
G1 X109.298 Y61.298 E1.602
G1 X110.074 Y61.29 E1.64628
G1 X110.116 Y61.29 E1.64868
G1 X127.69 Y61.289 E2.65143
G1 X127.747 Y61.289 E2.65468
G1 X128.452 Y61.299 E2.69491
G1 X129.019 Y61.347 E2.72738
G1 X129.574 Y61.474 E2.75987
G1 X130.105 Y61.678 E2.79232
G1 X130.603 Y61.954 E2.82481
G1 X131.253 Y62.48 E2.87252
G1 X131.507 Y62.733 E2.89298
G1 X131.881 Y63.161 E2.92541
G1 X132.191 Y63.638 E2.95787
G1 X132.431 Y64.154 E2.99034
G1 X132.597 Y64.698 E3.02279
G1 X132.696 Y65.442 E3.06562
G1 X132.704 Y65.644 E3.07715
G1 X132.707 Y65.761 E3.08383
G1 X132.71 Y66.041 E3.09981
G1 X132.71 Y66.084 E3.10226
G1 X132.711 Y103.673 E5.24704
G1 X132.711 Y103.729 E5.25024
G1 X132.701 Y104.448 E5.29127
G1 X132.653 Y105.015 E5.32373
G1 X132.526 Y105.57 E5.35622
G1 X132.323 Y106.101 E5.38866
G1 X132.047 Y106.599 E5.42114
G1 X131.537 Y107.233 E5.46757
G1 X131.285 Y107.489 E5.48807
G1 X130.859 Y107.866 E5.52053
G1 X130.384 Y108.178 E5.55295
G1 X129.869 Y108.422 E5.58547
G1 X129.326 Y108.59 E5.6179
G1 X128.578 Y108.694 E5.66099
G1 X128.375 Y108.703 E5.67259
G1 X128.235 Y108.707 E5.68058
G1 X127.922 Y108.71 E5.69844
G1 X127.883 Y108.71 E5.70066
G1 X110.29 Y108.711 E6.7045
G1 X110.233 Y108.711 E6.70775
G1 X108.237 Y108.683 E6.82165
G1 X105.519 Y108.683 E6.97673
G1 X104.756 Y108.701 E7.02028
G1 X104.702 Y108.702 E7.02336
G1 X103.926 Y108.71 E7.06764
G1 X103.884 Y108.71 E7.07004
G1 X86.31 Y108.711 E8.07279
G1 X86.252 Y108.711 E8.0761
G1 X85.549 Y108.701 E8.11622
G1 X84.983 Y108.653 E8.14863
G1 X84.428 Y108.526 E8.18111
G1 X83.897 Y108.322 E8.21357
G1 X83.399 Y108.046 E8.24606
G1 X82.749 Y107.52 E8.29377
G1 X82.493 Y107.265 E8.31439
G1 X82.119 Y106.837 E8.34682
G1 X81.809 Y106.36 E8.37928
G1 X81.569 Y105.844 E8.41175
G1 X81.403 Y105.3 E8.4442
G1 X81.304 Y104.555 E8.48708
G1 X81.296 Y104.352 E8.49867
G1 X81.293 Y104.229 E8.5057
G1 X81.29 Y103.889 E8.5251
G1 X81.29 Y103.853 E8.52715
G1 X81.289 Y66.309 E10.66936
G1 X81.289 Y66.252 E10.67261
G1 X81.299 Y65.547 E10.71284
G1 X81.347 Y64.98 E10.74531
G1 X81.474 Y64.425 E10.7778
G1 X81.678 Y63.894 E10.81026
G1 X81.954 Y63.396 E10.84274
G0 F3600 X82.647 Y63.624
G1 F1800 X82.98 Y63.235 E10.87196
G1 X83.233 Y62.982 E10.89238
G1 X83.626 Y62.646 E10.92188
G1 X84.066 Y62.374 E10.95139
G1 X84.543 Y62.173 E10.98093
G1 X85.045 Y62.048 E11.01045
G1 X85.469 Y62.004 E11.03477
G1 X85.671 Y61.996 E11.0463
G1 X85.772 Y61.993 E11.05207
G1 X86.085 Y61.99 E11.06993
G1 X86.117 Y61.99 E11.07176
G1 X103.71 Y61.989 E12.07559
G1 X103.757 Y61.989 E12.07827
G1 X105.753 Y62.017 E12.19217
G1 X108.498 Y62.017 E12.3488
G1 X109.261 Y61.999 E12.39235
G1 X109.305 Y61.998 E12.39486
G1 X110.081 Y61.99 E12.43914
G1 X110.116 Y61.99 E12.44113
G1 X127.69 Y61.989 E13.44388
G1 X127.738 Y61.989 E13.44662
G1 X128.443 Y61.999 E13.48685
G1 X128.958 Y62.047 E13.51637
G1 X129.459 Y62.173 E13.54584
G1 X129.936 Y62.374 E13.57538
G1 X130.375 Y62.647 E13.60487
G1 X130.759 Y62.976 E13.63373
G1 X131.013 Y63.229 E13.65418
G1 X131.35 Y63.621 E13.68368
G1 X131.623 Y64.06 E13.71318
G1 X131.825 Y64.537 E13.74273
G1 X131.951 Y65.038 E13.77221
G1 X131.996 Y65.469 E13.79693
G1 X132.004 Y65.671 E13.80847
G1 X132.007 Y65.768 E13.81401
G1 X132.01 Y66.048 E13.82998
G1 X132.01 Y66.084 E13.83204
G1 X132.011 Y103.673 E15.97682
G1 X132.011 Y103.72 E15.9795
G1 X132.001 Y104.439 E16.02053
G1 X131.954 Y104.954 E16.05004
G1 X131.828 Y105.455 E16.07951
G1 X131.626 Y105.932 E16.10907
G1 X131.354 Y106.372 E16.13858
G1 X131.038 Y106.742 E16.16635
G1 X130.786 Y106.998 E16.18684
G1 X130.396 Y107.338 E16.21637
G1 X129.958 Y107.613 E16.24588
G1 X129.483 Y107.818 E16.2754
G1 X128.982 Y107.947 E16.30491
G1 X128.547 Y107.995 E16.32989
G1 X128.344 Y108.004 E16.34148
G1 X128.228 Y108.007 E16.3481
G1 X127.915 Y108.01 E16.36596
G1 X127.883 Y108.01 E16.36779
G1 X110.29 Y108.011 E17.37162
G1 X110.243 Y108.011 E17.3743
G1 X108.247 Y107.983 E17.4882
G1 X105.502 Y107.983 E17.64483
G1 X104.739 Y108.001 E17.68838
G1 X104.695 Y108.002 E17.69089
G1 X103.919 Y108.01 E17.73517
G1 X103.884 Y108.01 E17.73716
G1 X86.31 Y108.011 E18.73991
G1 X86.262 Y108.011 E18.74265
G1 X85.559 Y108.001 E18.78277
G1 X85.044 Y107.953 E18.81228
G1 X84.542 Y107.827 E18.84181
G1 X84.066 Y107.626 E18.8713
G1 X83.627 Y107.353 E18.90079
G1 X83.243 Y107.024 E18.92965
G1 X82.987 Y106.769 E18.95026
G1 X82.65 Y106.377 E18.97976
G1 X82.377 Y105.938 E19.00926
G1 X82.175 Y105.461 E19.03881
G1 X82.049 Y104.96 E19.06829
G1 X82.004 Y104.528 E19.09307
G1 X81.996 Y104.325 E19.10466
G1 X81.993 Y104.223 E19.11049
G1 X81.99 Y103.883 E19.12989
G1 X81.99 Y103.853 E19.1316
G1 X81.989 Y66.309 E21.27381
G1 X81.989 Y66.261 E21.27655
G1 X81.999 Y65.556 E21.31678
G1 X82.047 Y65.041 E21.34629
G1 X82.173 Y64.54 E21.37577
G1 X82.374 Y64.063 E21.4053
G1 X82.647 Y63.624 E21.4348
G10
;MESH:slidingblocklid.stl
G0 F3600 X85.757 Y65.772
G0 X85.755 Y77.92
G0 X85.835 Y91.223
G0 X85.84 Y92.425
G0 X85.819 Y92.399
;TYPE:WALL-OUTER
G11
G1 F1800 X86.031 Y92.906 E21.46616
G1 X86.366 Y93.341 E21.49748
G1 X86.424 Y93.385 E21.50164
G1 X86.802 Y93.674 E21.52879
G1 X87.31 Y93.883 E21.56013
G1 X87.855 Y93.953 E21.59148
G1 X88.4 Y93.88 E21.62286
G1 X88.906 Y93.669 E21.65414
G1 X89.341 Y93.334 E21.68547
G1 X89.674 Y92.898 E21.71677
G1 X89.883 Y92.39 E21.74811
G1 X89.953 Y91.845 E21.77947
G1 X89.88 Y91.3 E21.81084
G1 X89.669 Y90.794 E21.84212
G1 X89.334 Y90.359 E21.87345
G1 X88.898 Y90.026 E21.90475
G1 X88.39 Y89.817 E21.9361
G1 X87.845 Y89.747 E21.96745
G1 X87.3 Y89.82 E21.99882
G1 X86.794 Y90.031 E22.03011
G1 X86.423 Y90.316 E22.0568
G1 X86.359 Y90.366 E22.06143
G1 X86.026 Y90.802 E22.09274
G1 X85.817 Y91.31 E22.12408
G1 X85.747 Y91.85 E22.15515
G1 X85.819 Y92.399 E22.18674
G0 F3600 X85.973 Y92.768
G0 X85.881 Y92.806
G0 X85.723 Y78.725
G0 X85.819 Y78.699
G1 F1800 X86.031 Y79.206 E22.2181
G1 X86.366 Y79.641 E22.24943
G1 X86.424 Y79.685 E22.25358
G1 X86.802 Y79.974 E22.28073
G1 X87.31 Y80.183 E22.31207
G1 X87.855 Y80.253 E22.34343
G1 X88.4 Y80.18 E22.3748
G1 X88.906 Y79.969 E22.40608
G1 X89.341 Y79.634 E22.43741
G1 X89.674 Y79.198 E22.46871
G1 X89.883 Y78.69 E22.50006
G1 X89.953 Y78.145 E22.53141
G1 X89.88 Y77.6 E22.56278
G1 X89.669 Y77.094 E22.59407
G1 X89.334 Y76.659 E22.62539
G1 X88.898 Y76.326 E22.6567
G1 X88.39 Y76.117 E22.68804
G1 X87.845 Y76.047 E22.71939
G1 X87.3 Y76.12 E22.75077
G1 X86.794 Y76.331 E22.78205
G1 X86.423 Y76.616 E22.80874
G1 X86.359 Y76.666 E22.81338
G1 X86.026 Y77.102 E22.84468
G1 X85.817 Y77.61 E22.87602
G1 X85.747 Y78.15 E22.90709
G1 X85.819 Y78.699 E22.93869
G0 F3600 X85.973 Y79.068
G0 X85.881 Y79.106
G0 X86.783 Y80.008
G0 X87.749 Y80.278
G0 X100.023 Y78.725
G0 X100.119 Y78.699
G1 F1800 X100.331 Y79.206 E22.97004
G1 X100.666 Y79.641 E23.00137
G1 X101.102 Y79.974 E23.03267
G1 X101.61 Y80.183 E23.06402
G1 X102.155 Y80.253 E23.09537
G1 X102.7 Y80.18 E23.12674
G1 X103.206 Y79.969 E23.15802
G1 X103.577 Y79.684 E23.18472
G1 X103.641 Y79.634 E23.18935
G1 X103.974 Y79.198 E23.22066
G1 X104.183 Y78.69 E23.252
G1 X104.253 Y78.145 E23.28335
G1 X104.18 Y77.6 E23.31473
G1 X103.969 Y77.094 E23.34601
G1 X103.634 Y76.659 E23.37734
G1 X103.576 Y76.615 E23.38149
G1 X103.198 Y76.326 E23.40864
G1 X102.69 Y76.117 E23.43998
G1 X102.145 Y76.047 E23.47133
G1 X101.6 Y76.12 E23.50271
G1 X101.094 Y76.331 E23.53399
G1 X100.659 Y76.666 E23.56532
G1 X100.326 Y77.102 E23.59662
G1 X100.117 Y77.61 E23.62796
G1 X100.047 Y78.15 E23.65903
G1 X100.119 Y78.699 E23.69063
G0 F3600 X100.273 Y79.068
G0 X99.562 Y79.365
G0 X100.023 Y92.425
G0 X100.119 Y92.399
G1 F1800 X100.331 Y92.906 E23.72198
G1 X100.666 Y93.341 E23.75331
G1 X101.102 Y93.674 E23.78462
G1 X101.61 Y93.883 E23.81596
G1 X102.155 Y93.953 E23.84731
G1 X102.7 Y93.88 E23.87869
G1 X103.206 Y93.669 E23.90997
G1 X103.577 Y93.384 E23.93666
G1 X103.641 Y93.334 E23.94129
G1 X103.974 Y92.898 E23.9726
G1 X104.183 Y92.39 E24.00394
G1 X104.253 Y91.845 E24.03529
G1 X104.18 Y91.3 E24.06667
G1 X103.969 Y90.794 E24.09795
G1 X103.634 Y90.359 E24.12928
G1 X103.576 Y90.315 E24.13343
G1 X103.198 Y90.026 E24.16058
G1 X102.69 Y89.817 E24.19192
G1 X102.145 Y89.747 E24.22328
G1 X101.6 Y89.82 E24.25465
G1 X101.094 Y90.031 E24.28593
G1 X100.659 Y90.366 E24.31726
G1 X100.326 Y90.802 E24.34856
G1 X100.117 Y91.31 E24.37991
G1 X100.047 Y91.85 E24.41098
G1 X100.119 Y92.399 E24.44257
G0 F3600 X100.273 Y92.768
G0 X99.562 Y93.065
G0 X101.6 Y93.921
G0 X102.604 Y93.933
G0 X104.16 Y93.415
G0 X104.26 Y93.415
G1 F1800 X104.261 Y104.235 E25.05995
G1 X104.235 Y104.26 E25.062
G1 X86.097 Y104.261 E26.09693
G1 X85.765 Y104.261 E26.11588
G1 X85.74 Y104.235 E26.11794
G1 X85.74 Y103.903 E26.13688
G1 X85.74 Y93.415 E26.73531
G1 X85.74 Y93.341 E26.73672
G1 X85.74 Y92.906 E26.75237
G1 X85.74 Y92.399 E26.75958
G1 X85.74 Y91.85 E26.76145
G1 X85.74 Y91.31 E26.76324
G1 X85.74 Y90.802 E26.77031
G1 X85.74 Y90.367 E26.78901
G1 X85.74 Y90.285 E26.79345
G1 X85.74 Y79.715 E27.39656
G1 X85.74 Y79.641 E27.39797
G1 X85.74 Y79.206 E27.41362
G1 X85.74 Y78.699 E27.42083
G1 X85.74 Y78.15 E27.4227
G1 X85.74 Y77.61 E27.42449
G1 X85.74 Y77.102 E27.43156
G1 X85.74 Y76.667 E27.45026
G1 X85.74 Y76.585 E27.4547
G1 X85.739 Y65.765 E28.07207
G1 X85.765 Y65.74 E28.07413
G1 X103.903 Y65.739 E29.10906
G1 X104.235 Y65.739 E29.12801
G1 X104.26 Y65.765 E29.13006
G1 X104.26 Y66.097 E29.14901
G1 X104.26 Y76.585 E29.74744
G1 X104.26 Y76.659 E29.74885
G1 X104.26 Y77.094 E29.7645
G1 X104.26 Y77.6 E29.77171
G1 X104.26 Y78.145 E29.77359
G1 X104.26 Y78.69 E29.7754
G1 X104.26 Y79.198 E29.78247
G1 X104.26 Y79.634 E29.79794
G1 X104.26 Y79.716 E29.80238
G1 X104.26 Y90.285 E30.40543
G1 X104.26 Y90.359 E30.40685
G1 X104.26 Y90.794 E30.42249
G1 X104.26 Y91.3 E30.4297
G1 X104.26 Y91.845 E30.43158
G1 X104.26 Y92.39 E30.4334
G1 X104.26 Y92.898 E30.44047
G1 X104.26 Y93.333 E30.45916
G1 X104.26 Y93.415 E30.4636
G0 F3600 X104.26 Y93.815
G0 X103.571 Y94.259
;TYPE:SKIN
G1 F1800 X103.571 Y103.57 E30.99488
G1 X86.43 Y103.571 E31.97292
G1 X86.43 Y94.258 E32.50431
G1 X86.455 Y94.277 E32.5061
G1 X87.132 Y94.555 E32.54786
G1 X87.857 Y94.649 E32.58957
G1 X88.582 Y94.552 E32.63131
G1 X89.255 Y94.271 E32.67292
G1 X89.834 Y93.825 E32.71462
G1 X90.277 Y93.245 E32.75627
G1 X90.555 Y92.568 E32.79802
G1 X90.649 Y91.843 E32.83974
G1 X90.552 Y91.118 E32.88147
G1 X90.271 Y90.445 E32.92309
G1 X89.825 Y89.866 E32.96479
G1 X89.245 Y89.423 E33.00643
G1 X88.568 Y89.145 E33.04819
G1 X87.843 Y89.051 E33.08991
G1 X87.118 Y89.148 E33.13164
G1 X86.445 Y89.429 E33.17325
G1 X86.43 Y89.441 E33.17435
G1 X86.429 Y80.557 E33.68126
G1 X86.455 Y80.577 E33.68313
G1 X87.132 Y80.855 E33.72489
G1 X87.857 Y80.949 E33.7666
G1 X88.582 Y80.852 E33.80834
G1 X89.255 Y80.571 E33.84995
G1 X89.834 Y80.125 E33.89166
G1 X90.277 Y79.545 E33.9333
G1 X90.555 Y78.868 E33.97506
G1 X90.649 Y78.143 E34.01677
G1 X90.552 Y77.418 E34.05851
G1 X90.271 Y76.745 E34.10012
G1 X89.825 Y76.166 E34.14182
G1 X89.245 Y75.723 E34.18347
G1 X88.568 Y75.445 E34.22522
G1 X87.843 Y75.351 E34.26694
G1 X87.118 Y75.448 E34.30867
G1 X86.429 Y75.741 E34.35139
G1 X86.429 Y66.43 E34.88267
G1 X103.57 Y66.429 E35.86071
G1 X103.57 Y75.742 E36.3921
G1 X103.545 Y75.723 E36.39389
G1 X102.868 Y75.445 E36.43565
G1 X102.143 Y75.351 E36.47736
G1 X101.418 Y75.448 E36.5191
G1 X100.745 Y75.729 E36.56071
G1 X100.166 Y76.175 E36.60241
G1 X99.723 Y76.755 E36.64406
G1 X99.445 Y77.431 E36.68576
G1 X99.351 Y78.15 E36.72714
G1 X99.447 Y78.88 E36.76915
G1 X99.73 Y79.555 E36.81091
G1 X100.175 Y80.134 E36.85258
G1 X100.755 Y80.577 E36.89422
G1 X101.432 Y80.855 E36.93598
G1 X102.157 Y80.949 E36.97769
G1 X102.882 Y80.852 E37.01943
G1 X103.555 Y80.571 E37.06104
G1 X103.57 Y80.559 E37.06214
G1 X103.571 Y89.443 E37.56905
G1 X103.545 Y89.423 E37.57092
G1 X102.868 Y89.145 E37.61268
G1 X102.143 Y89.051 E37.65439
G1 X101.418 Y89.148 E37.69613
G1 X100.745 Y89.429 E37.73774
G1 X100.166 Y89.875 E37.77945
G1 X99.723 Y90.455 E37.82109
G1 X99.445 Y91.131 E37.86279
G1 X99.351 Y91.85 E37.90417
G1 X99.447 Y92.58 E37.94618
G1 X99.73 Y93.255 E37.98794
G1 X100.175 Y93.834 E38.02961
G1 X100.755 Y94.277 E38.07125
G1 X101.432 Y94.555 E38.11301
G1 X102.157 Y94.649 E38.15473
G1 X102.882 Y94.552 E38.19646
G1 X103.571 Y94.259 E38.23918
G0 F3600 X87.416 Y103.255
G1 F1800 X86.744 Y102.583 E38.29341
G0 F3600 X86.744 Y101.593
G1 F1800 X88.406 Y103.255 E38.42752
G0 F3600 X89.395 Y103.255
G1 F1800 X86.744 Y100.603 E38.64148
G0 F3600 X86.744 Y99.613
G1 F1800 X90.385 Y103.255 E38.93532
G0 F3600 X91.375 Y103.255
G1 F1800 X86.744 Y98.623 E39.30905
G0 F3600 X86.744 Y97.633
G1 F1800 X92.365 Y103.255 E39.76267
G0 F3600 X93.355 Y103.255
G1 F1800 X86.744 Y96.643 E40.29617
G0 F3600 X86.744 Y95.653
G1 F1800 X94.345 Y103.255 E40.90956
G0 F3600 X95.335 Y103.255
G1 F1800 X86.867 Y94.786 E41.59291
G0 F3600 X88.015 Y94.945
G1 F1800 X96.325 Y103.255 E42.26347
G0 F3600 X97.315 Y103.255
G1 F1800 X88.844 Y94.784 E42.94702
G0 F3600 X89.516 Y94.466
G1 F1800 X98.305 Y103.255 E43.65624
G0 F3600 X99.295 Y103.255
G1 F1800 X90.071 Y94.031 E44.40055
G0 F3600 X90.499 Y93.469
G1 F1800 X100.285 Y103.255 E45.19021
G0 F3600 X101.275 Y103.255
G1 F1800 X90.805 Y92.785 E46.03507
G0 F3600 X90.952 Y91.942
G1 F1800 X102.265 Y103.255 E46.94795
G0 F3600 X103.255 Y103.255
G1 F1800 X90.731 Y90.731 E47.95855
G1 X90.608 Y90.608
G0 F3600 X88.968 Y88.968
G1 F1800 X86.744 Y86.744 E48.13802
G0 F3600 X86.744 Y85.754
G1 F1800 X103.255 Y102.265 E49.47034
G0 F3600 X103.255 Y101.275
G1 F1800 X86.743 Y84.763 E50.80275
G0 F3600 X86.743 Y83.773
G1 F1800 X103.255 Y100.285 E52.13515
G0 F3600 X103.255 Y99.295
G1 F1800 X86.743 Y82.783 E53.46756
G0 F3600 X86.743 Y81.793
G1 F1800 X103.255 Y98.305 E54.79996
G0 F3600 X103.255 Y97.315
G1 F1800 X100.154 Y94.214 E55.05019
G0 F3600 X99.789 Y93.85
G1 F1800 X87.109 Y81.169 E56.07342
G0 F3600 X88.155 Y81.226
G1 F1800 X99.072 Y92.142 E56.95431
G0 F3600 X99.118 Y91.199
G1 F1800 X88.956 Y81.037 E57.77431
G0 F3600 X89.607 Y80.697
G1 F1800 X99.376 Y90.467 E58.56264
G0 F3600 X99.771 Y89.871
G1 F1800 X90.14 Y80.241 E59.33976
G0 F3600 X90.563 Y79.673
G1 F1800 X100.279 Y89.389 E60.12378
G0 F3600 X100.901 Y89.021
G1 F1800 X90.851 Y78.972 E60.9347
G0 F3600 X90.957 Y78.087
G1 F1800 X101.666 Y88.797 E61.79888
G0 F3600 X102.659 Y88.8
G1 F1800 X90.617 Y76.757 E62.77063
G1 X90.494 Y76.634
G0 F3600 X89.239 Y75.38
G1 F1800 X86.742 Y72.883 E62.97212
G0 F3600 X86.742 Y71.893
G1 F1800 X103.255 Y88.406 E64.30461
G0 F3600 X103.255 Y87.416
G1 F1800 X86.742 Y70.903 E65.6371
G0 F3600 X86.742 Y69.913
G1 F1800 X103.255 Y86.426 E66.96958
G0 F3600 X103.255 Y85.436
G1 F1800 X86.742 Y68.923 E68.30207
G0 F3600 X86.742 Y67.933
G1 F1800 X103.255 Y84.446 E69.63455
G0 F3600 X103.255 Y83.456
G1 F1800 X100.691 Y80.892 E69.84145
G0 F3600 X102.04 Y81.251
G1 F1800 X103.255 Y82.466 E69.93949
G0 F3600 X103.255 Y81.476
G1 F1800 X102.94 Y81.161 E69.96491
G0 F3600 X99.411 Y79.612
G1 F1800 X86.742 Y66.943 E70.98721
G0 F3600 X87.534 Y66.745
G1 F1800 X99.048 Y78.259 E71.91632
G0 F3600 X99.137 Y77.358
G1 F1800 X88.524 Y66.745 E72.77271
G0 F3600 X89.514 Y66.745
G1 F1800 X99.423 Y76.654 E73.5723
G0 F3600 X99.84 Y76.081
G1 F1800 X90.504 Y66.745 E74.32565
G0 F3600 X91.493 Y66.745
G1 F1800 X100.368 Y75.62 E75.0418
G0 F3600 X101.013 Y75.275
G1 F1800 X92.483 Y66.745 E75.73012
G0 F3600 X93.473 Y66.745
G1 F1800 X101.807 Y75.078 E76.40257
G0 F3600 X102.843 Y75.124
G1 F1800 X94.463 Y66.745 E77.07874
G0 F3600 X95.453 Y66.744
