;FLAVOR:Marlin
;TIME:1348
;Filament used: 0.632048m
;Layer height: 0.2
;MINX:81.934
;MINY:61.934
;MINZ:0.28
;MAXX:108.066
;MAXY:108.066
;MAXZ:5.68
;Generated with Cura_SteamEngine 4.1.0
M82 ;absolute extrusion mode
M98 P0:/sys/startprint.g

G92 E0
G92 E0
G10
;LAYER_COUNT:28
;LAYER:0
M107
G0 F3600 X82.594 Y63.565 Z0.28
;TYPE:SKIRT
G11
G1 F1800 X83.013 Y63.075 E0.0099
G1 X83.151 Y62.941 E0.01286
G1 X83.559 Y62.601 E0.02102
G1 X84.013 Y62.326 E0.02917
G1 X84.503 Y62.122 E0.03733
G1 X85.018 Y61.995 E0.04547
G1 X85.492 Y61.947 E0.05279
G1 X85.738 Y61.939 E0.05657
G1 X85.852 Y61.937 E0.05833
G1 X103.69 Y61.934 E0.33235
G1 X103.741 Y61.934 E0.33314
G1 X104.445 Y61.944 E0.34395
G1 X104.974 Y61.992 E0.35211
G1 X105.489 Y62.118 E0.36026
G1 X105.98 Y62.32 E0.36841
G1 X106.434 Y62.594 E0.37656
G1 X106.888 Y62.976 E0.38567
G1 X107.023 Y63.111 E0.38861
G1 X107.368 Y63.514 E0.39676
G1 X107.65 Y63.964 E0.40491
G1 X107.861 Y64.451 E0.41307
G1 X107.996 Y64.964 E0.42122
G1 X108.053 Y65.481 E0.42921
G1 X108.061 Y65.71 E0.43273
G1 X108.063 Y65.833 E0.43462
G1 X108.066 Y103.67 E1.01587
G1 X108.066 Y103.719 E1.01662
G1 X108.056 Y104.441 E1.02771
G1 X108.008 Y104.969 E1.03586
G1 X107.882 Y105.485 E1.04402
G1 X107.68 Y105.976 E1.05217
G1 X107.407 Y106.43 E1.06031
G1 X107.015 Y106.894 E1.06964
G1 X106.876 Y107.032 E1.07265
G1 X106.472 Y107.376 E1.0808
G1 X106.021 Y107.656 E1.08896
G1 X105.533 Y107.865 E1.09711
G1 X105.02 Y107.999 E1.10526
G1 X104.507 Y108.053 E1.11318
G1 X104.262 Y108.061 E1.11695
G1 X104.148 Y108.063 E1.1187
G1 X86.31 Y108.066 E1.39272
G1 X86.259 Y108.066 E1.39351
G1 X85.555 Y108.056 E1.40432
G1 X85.026 Y108.008 E1.41248
G1 X84.511 Y107.882 E1.42063
G1 X84.02 Y107.68 E1.42878
G1 X83.566 Y107.406 E1.43693
G1 X83.076 Y106.987 E1.44683
G1 X82.941 Y106.848 E1.44981
G1 X82.601 Y106.44 E1.45797
G1 X82.326 Y105.987 E1.46611
G1 X82.123 Y105.497 E1.47426
G1 X81.995 Y104.982 E1.48241
G1 X81.947 Y104.51 E1.4897
G1 X81.938 Y104.241 E1.49383
G1 X81.936 Y104.123 E1.49565
G1 X81.934 Y66.309 E2.07654
G1 X81.934 Y66.259 E2.07731
G1 X81.944 Y65.554 E2.08814
G1 X81.992 Y65.025 E2.0963
G1 X82.118 Y64.51 E2.10445
G1 X82.32 Y64.019 E2.1126
G1 X82.594 Y63.565 E2.12075
G0 F3600 X82.94 Y63.684
G1 F1800 X83.257 Y63.326 E2.1281
G1 X83.395 Y63.192 E2.13105
G1 X83.783 Y62.871 E2.13879
G1 X84.217 Y62.615 E2.14653
G1 X84.686 Y62.432 E2.15426
G1 X85.178 Y62.324 E2.162
G1 X85.504 Y62.297 E2.16702
G1 X85.75 Y62.289 E2.1708
G1 X85.852 Y62.287 E2.17237
G1 X103.69 Y62.284 E2.4464
G1 X103.736 Y62.284 E2.4471
G1 X104.44 Y62.294 E2.45792
G1 X104.941 Y62.341 E2.46565
G1 X105.429 Y62.467 E2.47339
G1 X105.891 Y62.668 E2.48113
G1 X106.315 Y62.94 E2.48887
G1 X106.64 Y63.224 E2.4955
G1 X106.775 Y63.359 E2.49843
G1 X107.102 Y63.742 E2.50617
G1 X107.364 Y64.172 E2.51391
G1 X107.555 Y64.638 E2.52164
G1 X107.669 Y65.129 E2.52939
G1 X107.703 Y65.493 E2.535
G1 X107.711 Y65.722 E2.53852
G1 X107.713 Y65.833 E2.54023
G1 X107.716 Y103.67 E3.12148
G1 X107.716 Y103.714 E3.12215
G1 X107.706 Y104.436 E3.13325
G1 X107.659 Y104.937 E3.14098
G1 X107.533 Y105.425 E3.14872
G1 X107.332 Y105.887 E3.15646
G1 X107.061 Y106.311 E3.16419
G1 X106.768 Y106.645 E3.17101
G1 X106.629 Y106.783 E3.17402
G1 X106.245 Y107.108 E3.18175
G1 X105.814 Y107.369 E3.18949
G1 X105.347 Y107.558 E3.19723
G1 X104.856 Y107.671 E3.20497
G1 X104.496 Y107.703 E3.21052
G1 X104.251 Y107.711 E3.21429
G1 X104.148 Y107.713 E3.21587
G1 X86.31 Y107.716 E3.4899
G1 X86.264 Y107.716 E3.4906
G1 X85.56 Y107.706 E3.50142
G1 X85.059 Y107.659 E3.50915
G1 X84.571 Y107.533 E3.51689
G1 X84.109 Y107.332 E3.52463
G1 X83.685 Y107.06 E3.53237
G1 X83.327 Y106.743 E3.53972
G1 X83.192 Y106.604 E3.54269
G1 X82.871 Y106.216 E3.55043
G1 X82.616 Y105.782 E3.55816
G1 X82.432 Y105.313 E3.5659
G1 X82.324 Y104.822 E3.57363
G1 X82.297 Y104.498 E3.57862
G1 X82.288 Y104.229 E3.58275
G1 X82.286 Y104.123 E3.58438
G1 X82.284 Y66.309 E4.16528
G1 X82.284 Y66.264 E4.16597
G1 X82.294 Y65.559 E4.1768
G1 X82.341 Y65.058 E4.18453
G1 X82.467 Y64.57 E4.19228
G1 X82.668 Y64.108 E4.20001
G1 X82.94 Y63.684 E4.20775
G10
;MESH:slidingblocklid.stl
G0 F3600 X84.764 Y66
G0 X85.998 Y65.999
G0 X85.984 Y65.985
;TYPE:WALL-INNER
G11
G1 F1800 X103.841 Y65.984 E4.48207
G1 X104.015 Y65.984 E4.48474
G1 X104.015 Y66.158 E4.48647
G1 X104.015 Y76.514 E4.64556
G1 X104.015 Y76.572 E4.64645
G1 X104.015 Y76.949 E4.65224
G1 X103.724 Y76.572 E4.65594
G1 X103.678 Y76.537 E4.65676
G1 X103.263 Y76.218 E4.6648
G1 X102.725 Y75.996 E4.67374
G1 X102.148 Y75.92 E4.68268
G1 X101.571 Y75.998 E4.69163
G1 X101.033 Y76.22 E4.70057
G1 X100.572 Y76.576 E4.70952
G1 X100.218 Y77.037 E4.71844
G1 X99.996 Y77.575 E4.72739
G1 X99.92 Y78.15 E4.7363
G1 X99.997 Y78.729 E4.74527
G1 X100.22 Y79.267 E4.75421
G1 X100.576 Y79.728 E4.76316
G1 X101.037 Y80.082 E4.77209
G1 X101.575 Y80.304 E4.78103
G1 X102.152 Y80.38 E4.78997
G1 X102.729 Y80.302 E4.79892
G1 X103.267 Y80.08 E4.80786
G1 X103.679 Y79.762 E4.81585
G1 X103.728 Y79.724 E4.81681
G1 X104.015 Y79.35 E4.82405
G1 X104.015 Y79.723 E4.82616
G1 X104.015 Y79.786 E4.82705
G1 X104.015 Y90.213 E4.98723
G1 X104.015 Y90.271 E4.98812
G1 X104.016 Y90.65 E4.99394
G1 X103.724 Y90.272 E4.99764
G1 X103.678 Y90.237 E4.99846
G1 X103.263 Y89.918 E5.00651
G1 X102.725 Y89.696 E5.01545
G1 X102.148 Y89.62 E5.02439
G1 X101.571 Y89.698 E5.03333
G1 X101.033 Y89.92 E5.04227
G1 X100.572 Y90.276 E5.05122
G1 X100.218 Y90.737 E5.06015
G1 X99.996 Y91.275 E5.06909
G1 X99.92 Y91.85 E5.078
G1 X99.997 Y92.429 E5.08697
G1 X100.22 Y92.967 E5.09592
G1 X100.576 Y93.428 E5.10487
G1 X101.037 Y93.782 E5.1138
G1 X101.575 Y94.004 E5.12274
G1 X102.152 Y94.08 E5.13168
G1 X102.729 Y94.002 E5.14062
G1 X103.267 Y93.78 E5.14956
G1 X103.679 Y93.461 E5.15757
G1 X103.728 Y93.424 E5.15851
G1 X104.016 Y93.049 E5.16577
G1 X104.016 Y93.424 E5.16791
G1 X104.016 Y93.486 E5.16879
G1 X104.016 Y104.015 E5.33054
G1 X86.159 Y104.016 E5.60485
G1 X85.985 Y104.016 E5.60753
G1 X85.985 Y103.842 E5.60925
G1 X85.985 Y93.486 E5.76834
G1 X85.985 Y93.428 E5.76923
G1 X85.985 Y93.051 E5.77503
G1 X86.276 Y93.428 E5.77872
G1 X86.322 Y93.463 E5.77954
G1 X86.737 Y93.782 E5.78758
G1 X87.275 Y94.004 E5.79652
G1 X87.852 Y94.08 E5.80546
G1 X88.429 Y94.002 E5.81441
G1 X88.967 Y93.78 E5.82335
G1 X89.428 Y93.424 E5.8323
G1 X89.782 Y92.963 E5.84123
G1 X90.004 Y92.425 E5.85017
G1 X90.08 Y91.848 E5.85911
G1 X90.002 Y91.271 E5.86805
G1 X89.78 Y90.733 E5.87699
G1 X89.424 Y90.272 E5.88594
G1 X88.963 Y89.918 E5.89487
G1 X88.425 Y89.696 E5.90381
G1 X87.848 Y89.62 E5.91275
G1 X87.271 Y89.698 E5.92169
G1 X86.733 Y89.92 E5.93064
G1 X86.321 Y90.238 E5.93863
G1 X86.272 Y90.276 E5.93958
G1 X85.985 Y90.65 E5.94683
G1 X85.985 Y90.277 E5.94894
G1 X85.985 Y90.214 E5.94983
G1 X85.985 Y79.787 E6.11001
G1 X85.985 Y79.729 E6.1109
G1 X85.984 Y79.35 E6.11672
G1 X86.276 Y79.728 E6.12042
G1 X86.322 Y79.763 E6.12124
G1 X86.737 Y80.082 E6.12928
G1 X87.275 Y80.304 E6.13822
G1 X87.852 Y80.38 E6.14716
G1 X88.429 Y80.302 E6.15611
G1 X88.967 Y80.08 E6.16505
G1 X89.428 Y79.724 E6.174
G1 X89.782 Y79.263 E6.18293
G1 X90.004 Y78.725 E6.19187
G1 X90.08 Y78.148 E6.20081
G1 X90.002 Y77.571 E6.20975
G1 X89.78 Y77.033 E6.21869
G1 X89.424 Y76.572 E6.22764
G1 X88.963 Y76.218 E6.23657
G1 X88.425 Y75.996 E6.24551
G1 X87.848 Y75.92 E6.25445
G1 X87.271 Y75.998 E6.2634
G1 X86.733 Y76.22 E6.27234
G1 X86.321 Y76.539 E6.28034
G1 X86.272 Y76.576 E6.28128
G1 X85.984 Y76.951 E6.28855
G1 X85.984 Y76.576 E6.29069
G1 X85.984 Y76.514 E6.29156
G1 X85.984 Y65.985 E6.45331
G0 F3600 X86.054 Y66.055
G0 X90.04 Y77.564
G0 X90.12 Y91.845
G0 X89.816 Y92.981
G0 X88.985 Y93.814
G0 X87.799 Y94.173
G0 X87.852 Y93.752
;TYPE:WALL-OUTER
G1 F1800 X88.344 Y93.686 E6.46094
G1 X88.803 Y93.496 E6.46857
G1 X89.196 Y93.193 E6.47619
G1 X89.498 Y92.799 E6.48382
G1 X89.687 Y92.34 E6.49144
G1 X89.752 Y91.848 E6.49907
G1 X89.686 Y91.356 E6.50669
G1 X89.496 Y90.897 E6.51432
G1 X89.193 Y90.504 E6.52195
G1 X88.799 Y90.202 E6.52957
G1 X88.34 Y90.013 E6.5372
G1 X87.848 Y89.948 E6.54482
G1 X87.356 Y90.014 E6.55245
G1 X86.897 Y90.204 E6.56008
G1 X86.504 Y90.507 E6.5677
G1 X86.202 Y90.901 E6.57533
G1 X86.013 Y91.36 E6.58295
G1 X86.009 Y91.385 E6.58334
G1 X85.948 Y91.85 E6.59055
G1 X86.009 Y92.312 E6.59771
G1 X86.014 Y92.344 E6.5982
G1 X86.204 Y92.803 E6.60583
G1 X86.507 Y93.196 E6.61346
G1 X86.901 Y93.498 E6.62108
G1 X87.36 Y93.687 E6.62871
G1 X87.852 Y93.752 E6.63633
G0 F3600 X88.05 Y93.726
G0 X88.1 Y94.107
G0 X88.104 Y94.147
G0 X88.985 Y93.814
G0 X89.816 Y92.981
G0 X90.12 Y91.845
G0 X87.799 Y80.473
G0 X87.852 Y80.052
G1 F1800 X88.344 Y79.986 E6.64396
G1 X88.803 Y79.796 E6.65159
G1 X89.196 Y79.493 E6.65921
G1 X89.498 Y79.099 E6.66684
G1 X89.687 Y78.64 E6.67447
G1 X89.752 Y78.148 E6.68209
G1 X89.686 Y77.656 E6.68971
G1 X89.496 Y77.197 E6.69735
G1 X89.193 Y76.804 E6.70497
G1 X88.799 Y76.502 E6.7126
G1 X88.34 Y76.313 E6.72022
G1 X87.848 Y76.248 E6.72784
G1 X87.356 Y76.314 E6.73547
G1 X86.897 Y76.504 E6.7431
G1 X86.504 Y76.807 E6.75073
G1 X86.202 Y77.201 E6.75835
G1 X86.013 Y77.66 E6.76598
G1 X86.009 Y77.685 E6.76637
G1 X85.948 Y78.15 E6.77357
G1 X86.009 Y78.612 E6.78073
G1 X86.014 Y78.644 E6.78123
G1 X86.204 Y79.103 E6.78886
G1 X86.507 Y79.496 E6.79648
G1 X86.901 Y79.798 E6.80411
G1 X87.36 Y79.987 E6.81173
G1 X87.852 Y80.052 E6.81936
G0 F3600 X88.05 Y80.026
G0 X88.1 Y80.407
G0 X88.104 Y80.447
G0 X102.099 Y80.473
G0 X102.152 Y80.052
G1 F1800 X102.644 Y79.986 E6.82698
G1 X103.103 Y79.796 E6.83461
G1 X103.496 Y79.493 E6.84224
G1 X103.798 Y79.099 E6.84986
G1 X103.987 Y78.64 E6.85749
G1 X103.991 Y78.615 E6.85788
G1 X104.052 Y78.148 E6.86511
G1 X103.991 Y77.688 E6.87224
G1 X103.986 Y77.656 E6.87274
G1 X103.796 Y77.197 E6.88037
G1 X103.493 Y76.804 E6.88799
G1 X103.099 Y76.502 E6.89562
G1 X102.64 Y76.313 E6.90324
G1 X102.148 Y76.248 E6.91087
G1 X101.656 Y76.314 E6.91849
G1 X101.197 Y76.504 E6.92613
G1 X100.804 Y76.807 E6.93375
G1 X100.502 Y77.201 E6.94137
G1 X100.313 Y77.66 E6.949
G1 X100.248 Y78.15 E6.95659
G1 X100.314 Y78.644 E6.96425
G1 X100.504 Y79.103 E6.97188
G1 X100.807 Y79.496 E6.9795
G1 X101.201 Y79.798 E6.98713
G1 X101.66 Y79.987 E6.99476
G1 X102.152 Y80.052 E7.00238
G0 F3600 X102.35 Y80.026
G0 X102.4 Y80.407
G0 X102.404 Y80.447
G0 X99.958 Y91.268
G0 X99.959 Y92.436
G0 X100.548 Y93.456
G0 X101.173 Y93.879
G0 X102.099 Y94.173
G0 X102.152 Y93.752
G1 F1800 X102.644 Y93.686 E7.01001
G1 X103.103 Y93.496 E7.01764
G1 X103.496 Y93.193 E7.02526
G1 X103.798 Y92.799 E7.03289
G1 X103.987 Y92.34 E7.04051
G1 X103.991 Y92.315 E7.0409
G1 X104.052 Y91.848 E7.04814
G1 X103.991 Y91.388 E7.05526
G1 X103.986 Y91.356 E7.05576
G1 X103.796 Y90.897 E7.06339
G1 X103.493 Y90.504 E7.07102
G1 X103.099 Y90.202 E7.07864
G1 X102.64 Y90.013 E7.08627
G1 X102.148 Y89.948 E7.09389
G1 X101.656 Y90.014 E7.10152
G1 X101.197 Y90.204 E7.10915
G1 X100.804 Y90.507 E7.11677
G1 X100.502 Y90.901 E7.1244
G1 X100.313 Y91.36 E7.13202
G1 X100.248 Y91.85 E7.13962
G1 X100.314 Y92.344 E7.14727
G1 X100.504 Y92.803 E7.1549
G1 X100.807 Y93.196 E7.16253
G1 X101.201 Y93.498 E7.17015
G1 X101.66 Y93.687 E7.17778
G1 X102.152 Y93.752 E7.1854
G0 F3600 X102.35 Y93.726
G0 X102.4 Y94.107
G0 X102.404 Y94.147
G0 X103.598 Y93.556
G0 X104.24 Y92.317
G0 X104.34 Y92.318
G1 F1800 X104.341 Y104.317 E7.36973
G1 X104.317 Y104.34 E7.37024
G1 X85.841 Y104.341 E7.65407
G1 X85.683 Y104.341 E7.6565
G1 X85.66 Y104.317 E7.65701
G1 X85.66 Y104.159 E7.65943
G1 X85.66 Y92.317 E7.84135
G1 X85.66 Y91.851 E7.84788
G1 X85.66 Y91.382 E7.85445
G1 X85.66 Y78.617 E8.05054
G1 X85.66 Y78.151 E8.05707
G1 X85.66 Y77.682 E8.06364
G1 X85.659 Y65.683 E8.24796
G1 X85.683 Y65.66 E8.24847
G1 X104.159 Y65.659 E8.5323
G1 X104.317 Y65.659 E8.53473
G1 X104.34 Y65.683 E8.53524
G1 X104.34 Y65.841 E8.53767
G1 X104.34 Y77.684 E8.7196
G1 X104.34 Y78.148 E8.7261
G1 X104.34 Y78.619 E8.73269
G1 X104.34 Y91.383 E8.92877
G1 X104.34 Y91.847 E8.93527
G1 X104.34 Y92.318 E8.94187
G0 F3600 X104.34 Y92.518
G0 X104.24 Y92.517
G0 X103.676 Y93.894
;TYPE:SKIN
G1 F1800 X103.676 Y103.675 E9.09212
G1 X86.325 Y103.676 E9.35867
G1 X86.325 Y93.894 E9.50894
G1 X86.566 Y94.079 E9.51361
G1 X87.186 Y94.336 E9.52392
G1 X87.852 Y94.423 E9.53423
G1 X88.518 Y94.333 E9.54456
G1 X89.138 Y94.077 E9.55486
G1 X89.671 Y93.667 E9.56519
G1 X90.079 Y93.134 E9.5755
G1 X90.336 Y92.514 E9.58581
G1 X90.423 Y91.848 E9.59613
G1 X90.333 Y91.182 E9.60646
G1 X90.077 Y90.562 E9.61676
G1 X89.667 Y90.029 E9.62709
G1 X89.134 Y89.621 E9.6374
G1 X88.514 Y89.364 E9.64771
G1 X87.848 Y89.277 E9.65803
G1 X87.182 Y89.367 E9.66835
G1 X86.562 Y89.623 E9.67866
G1 X86.325 Y89.805 E9.68325
G1 X86.324 Y80.193 E9.83091
G1 X86.566 Y80.379 E9.8356
G1 X87.186 Y80.636 E9.84591
G1 X87.852 Y80.723 E9.85623
G1 X88.518 Y80.633 E9.86655
G1 X89.138 Y80.377 E9.87685
G1 X89.671 Y79.967 E9.88718
G1 X90.079 Y79.434 E9.8975
G1 X90.336 Y78.814 E9.90781
G1 X90.423 Y78.148 E9.91812
G1 X90.333 Y77.482 E9.92845
G1 X90.077 Y76.862 E9.93875
G1 X89.667 Y76.329 E9.94908
G1 X89.134 Y75.921 E9.95939
G1 X88.514 Y75.664 E9.9697
G1 X87.848 Y75.577 E9.98002
G1 X87.182 Y75.667 E9.99035
G1 X86.562 Y75.923 E10.00065
G1 X86.324 Y76.106 E10.00526
G1 X86.324 Y66.325 E10.15552
G1 X103.675 Y66.324 E10.42206
G1 X103.675 Y76.106 E10.57233
G1 X103.434 Y75.921 E10.577
G1 X102.814 Y75.664 E10.58731
G1 X102.148 Y75.577 E10.59763
G1 X101.482 Y75.667 E10.60795
G1 X100.862 Y75.923 E10.61826
G1 X100.329 Y76.333 E10.62859
G1 X99.921 Y76.866 E10.6389
G1 X99.665 Y77.486 E10.6492
G1 X99.577 Y78.15 E10.65949
G1 X99.666 Y78.818 E10.66985
G1 X99.923 Y79.439 E10.68017
G1 X100.334 Y79.971 E10.6905
G1 X100.866 Y80.379 E10.7008
G1 X101.486 Y80.636 E10.71111
G1 X102.152 Y80.723 E10.72143
G1 X102.818 Y80.633 E10.73175
G1 X103.438 Y80.377 E10.74205
G1 X103.675 Y80.195 E10.74664
G1 X103.676 Y89.807 E10.8943
G1 X103.434 Y89.621 E10.89899
G1 X102.814 Y89.364 E10.9093
G1 X102.148 Y89.277 E10.91962
G1 X101.482 Y89.367 E10.92994
G1 X100.862 Y89.623 E10.94025
G1 X100.329 Y90.033 E10.95058
G1 X99.921 Y90.566 E10.96089
G1 X99.665 Y91.186 E10.97119
G1 X99.577 Y91.85 E10.98148
G1 X99.666 Y92.518 E10.99184
G1 X99.923 Y93.139 E11.00216
G1 X100.334 Y93.671 E11.01249
G1 X100.866 Y94.079 E11.02279
G1 X101.486 Y94.336 E11.0331
G1 X102.152 Y94.423 E11.04342
G1 X102.818 Y94.333 E11.05374
G1 X103.438 Y94.077 E11.06404
G1 X103.676 Y93.894 E11.06866
G0 F3600 X86.688 Y103.517
G1 F1800 X86.481 Y103.311 E11.07314
G0 F3600 X86.481 Y102.816
G1 F1800 X87.183 Y103.517 E11.08838
G0 F3600 X87.678 Y103.517
G1 F1800 X86.481 Y102.321 E11.11438
G0 F3600 X86.481 Y101.826
G1 F1800 X88.173 Y103.517 E11.15112
G0 F3600 X88.668 Y103.517
G1 F1800 X86.481 Y101.331 E11.19863
G0 F3600 X86.481 Y100.836
G1 F1800 X89.163 Y103.517 E11.25688
G0 F3600 X89.658 Y103.517
G1 F1800 X86.481 Y100.341 E11.32589
G0 F3600 X86.481 Y99.846
G1 F1800 X90.153 Y103.517 E11.40566
G0 F3600 X90.648 Y103.517
G1 F1800 X86.481 Y99.351 E11.49617
G0 F3600 X86.481 Y98.856
G1 F1800 X91.143 Y103.517 E11.59744
G0 F3600 X91.638 Y103.517
G1 F1800 X86.481 Y98.361 E11.70947
G0 F3600 X86.481 Y97.866
G1 F1800 X92.133 Y103.517 E11.83225
G0 F3600 X92.628 Y103.517
G1 F1800 X86.481 Y97.371 E11.96578
G0 F3600 X86.481 Y96.876
G1 F1800 X93.123 Y103.517 E12.11007
G0 F3600 X93.618 Y103.517
G1 F1800 X86.481 Y96.381 E12.26511
G0 F3600 X86.481 Y95.886
G1 F1800 X94.113 Y103.517 E12.43091
G0 F3600 X94.608 Y103.517
G1 F1800 X86.481 Y95.391 E12.60745
G0 F3600 X86.481 Y94.896
G1 F1800 X95.103 Y103.517 E12.79476
G0 F3600 X95.598 Y103.517
G1 F1800 X86.481 Y94.401 E12.99281
G0 F3600 X87.005 Y94.43
G1 F1800 X96.092 Y103.517 E13.19023
G0 F3600 X96.587 Y103.517
G1 F1800 X87.621 Y94.551 E13.38502
G0 F3600 X88.111 Y94.546
G1 F1800 X97.082 Y103.517 E13.57991
G0 F3600 X97.577 Y103.517
G1 F1800 X88.547 Y94.487 E13.77609
G0 F3600 X88.9 Y94.345
G1 F1800 X98.072 Y103.517 E13.97535
G0 F3600 X98.567 Y103.517
G1 F1800 X89.243 Y94.193 E14.17792
G0 F3600 X89.523 Y93.978
G1 F1800 X99.062 Y103.517 E14.38515
G0 F3600 X99.557 Y103.517
G1 F1800 X89.797 Y93.757 E14.59719
G0 F3600 X90.012 Y93.477
G1 F1800 X100.052 Y103.517 E14.81531
G0 F3600 X100.547 Y103.517
G1 F1800 X90.223 Y93.193 E15.0396
G0 F3600 X90.368 Y92.843
G1 F1800 X101.042 Y103.517 E15.27149
G0 F3600 X101.537 Y103.517
