;FLAVOR:Marlin
;TIME:5706
;Filament used: 2.51569m
;Layer height: 0.2
;MINX:32.013
;MINY:62.284
;MINZ:0.28
;MAXX:131.716
;MAXY:108.128
;MAXZ:5.68
;Generated with Cura_SteamEngine 4.1.0
M82 ;absolute extrusion mode
M98 P0:/sys/startprint.g

G92 E0
G92 E0
G10
;LAYER_COUNT:28
;LAYER:0
M107
G0 F3600 X33.923 Y63.038 Z0.28
;TYPE:SKIRT
M220 S50
G11
G1 F1800 X34.391 Y62.85 E0.00775
G1 X34.882 Y62.739 E0.01548
G1 X35.232 Y62.709 E0.02088
G1 X35.48 Y62.701 E0.02469
G1 X35.581 Y62.699 E0.02624
G1 X50.612 Y62.696 E0.25715
G1 X53.411 Y62.656 E0.30015
G1 X56.109 Y62.542 E0.34163
G1 X59.279 Y62.311 E0.39046
G1 X59.362 Y62.306 E0.39174
G1 X59.705 Y62.29 E0.39701
G1 X59.852 Y62.287 E0.39927
G1 X77.69 Y62.284 E0.6733
G1 X77.736 Y62.284 E0.674
G1 X79.063 Y62.303 E0.69439
G1 X79.106 Y62.304 E0.69505
G1 X80.687 Y62.348 E0.71935
G1 X83.421 Y62.348 E0.76135
G1 X85.755 Y62.288 E0.79721
G1 X85.836 Y62.287 E0.79846
G1 X103.665 Y62.284 E1.07235
G1 X103.711 Y62.284 E1.07305
G1 X105.735 Y62.313 E1.10415
G1 X108.485 Y62.313 E1.14639
G1 X109.447 Y62.29 E1.16118
G1 X109.498 Y62.289 E1.16196
G1 X110.003 Y62.285 E1.16972
G1 X110.028 Y62.285 E1.1701
G1 X127.691 Y62.284 E1.44144
G1 X127.736 Y62.284 E1.44213
G1 X128.439 Y62.294 E1.45293
G1 X128.941 Y62.341 E1.46068
G1 X129.428 Y62.467 E1.46841
G1 X129.89 Y62.668 E1.47615
G1 X130.314 Y62.94 E1.48388
G1 X130.631 Y63.216 E1.49034
G1 X130.767 Y63.351 E1.49328
G1 X131.095 Y63.733 E1.50102
G1 X131.359 Y64.162 E1.50876
G1 X131.551 Y64.627 E1.51649
G1 X131.667 Y65.117 E1.52422
G1 X131.703 Y65.492 E1.53001
G1 X131.711 Y65.719 E1.5335
G1 X131.713 Y65.831 E1.53522
G1 X131.716 Y103.67 E2.1165
G1 X131.716 Y103.714 E2.11718
G1 X131.706 Y104.434 E2.12824
G1 X131.659 Y104.935 E2.13597
G1 X131.533 Y105.423 E2.14371
G1 X131.332 Y105.885 E2.15145
G1 X131.06 Y106.309 E2.15919
G1 X130.784 Y106.627 E2.16566
G1 X130.645 Y106.767 E2.16869
G1 X130.263 Y107.095 E2.17642
G1 X129.834 Y107.359 E2.18416
G1 X129.369 Y107.551 E2.19189
G1 X128.879 Y107.667 E2.19962
G1 X128.496 Y107.703 E2.20553
G1 X128.251 Y107.711 E2.2093
G1 X128.148 Y107.713 E2.21088
G1 X110.335 Y107.716 E2.48452
G1 X110.289 Y107.716 E2.48523
G1 X108.265 Y107.687 E2.51633
G1 X105.515 Y107.687 E2.55857
G1 X104.553 Y107.71 E2.57335
G1 X104.502 Y107.711 E2.57414
G1 X103.997 Y107.715 E2.5819
G1 X103.972 Y107.715 E2.58228
G1 X86.309 Y107.716 E2.85362
G1 X86.264 Y107.716 E2.85431
G1 X84.937 Y107.697 E2.8747
G1 X84.894 Y107.696 E2.87536
G1 X83.313 Y107.652 E2.89965
G1 X80.579 Y107.652 E2.94165
G1 X78.245 Y107.712 E2.97752
G1 X78.164 Y107.713 E2.97877
G1 X63.117 Y107.716 E3.20992
G1 X60.318 Y107.756 E3.25292
G1 X57.62 Y107.87 E3.2944
G1 X54.45 Y108.101 E3.34323
G1 X54.367 Y108.106 E3.34451
G1 X54.024 Y108.122 E3.34978
G1 X53.877 Y108.125 E3.35204
G1 X36.039 Y108.128 E3.62607
G1 X35.993 Y108.128 E3.62677
G1 X35.289 Y108.118 E3.63759
G1 X34.788 Y108.071 E3.64532
G1 X34.3 Y107.945 E3.65306
G1 X33.838 Y107.744 E3.6608
G1 X33.414 Y107.472 E3.66854
G1 X33.056 Y107.155 E3.67589
G1 X32.921 Y107.016 E3.67886
G1 X32.6 Y106.628 E3.6866
G1 X32.345 Y106.194 E3.69433
G1 X32.161 Y105.725 E3.70207
G1 X32.053 Y105.234 E3.70979
G1 X32.026 Y104.908 E3.71482
G1 X32.018 Y104.663 E3.71858
G1 X32.016 Y104.588 E3.71974
G1 X32.014 Y104.366 E3.72315
G1 X32.014 Y104.337 E3.72359
G1 X32.013 Y66.713 E4.30157
G1 X32.013 Y66.667 E4.30228
G1 X32.023 Y65.97 E4.31299
G1 X32.07 Y65.469 E4.32072
G1 X32.196 Y64.981 E4.32846
G1 X32.398 Y64.52 E4.33619
G1 X32.669 Y64.096 E4.34392
G1 X32.97 Y63.754 E4.35092
G1 X33.106 Y63.62 E4.35385
G1 X33.491 Y63.296 E4.36158
G1 X33.923 Y63.038 E4.36931
G10
;MESH:slidingblocklid.stl(2)
G0 F3600 X35.726 Y65.176
G0 X35.727 Y66.411
G0 X35.713 Y66.397
;TYPE:WALL-INNER
G11
G1 F1800 X53.57 Y66.396 E4.64363
G1 X53.744 Y66.396 E4.6463
G1 X53.744 Y66.57 E4.64803
G1 X53.744 Y76.926 E4.80712
G1 X53.744 Y76.98 E4.80795
G1 X53.744 Y77.361 E4.8138
G1 X53.45 Y76.98 E4.81757
G1 X53.407 Y76.949 E4.81832
G1 X52.913 Y76.586 E4.82774
G1 X52.359 Y76.386 E4.83679
G1 X51.779 Y76.334 E4.84573
G1 X51.206 Y76.438 E4.85468
G1 X50.674 Y76.685 E4.86369
G1 X50.173 Y77.126 E4.87394
G1 X49.857 Y77.623 E4.88299
G1 X49.687 Y78.167 E4.89175
G1 X49.651 Y78.573 E4.89801
G1 X49.726 Y79.141 E4.90681
G1 X49.948 Y79.679 E4.91575
G1 X50.305 Y80.14 E4.92471
G1 X50.766 Y80.495 E4.93365
G1 X51.305 Y80.716 E4.94259
G1 X51.881 Y80.792 E4.95152
G1 X52.458 Y80.715 E4.96046
G1 X52.996 Y80.493 E4.9694
G1 X53.408 Y80.174 E4.97741
G1 X53.457 Y80.136 E4.97836
G1 X53.744 Y79.762 E4.9856
G1 X53.744 Y80.135 E4.98771
G1 X53.744 Y80.198 E4.98861
G1 X53.744 Y90.625 E5.14878
G1 X53.744 Y90.679 E5.14961
G1 X53.745 Y91.062 E5.1555
G1 X53.45 Y90.68 E5.15926
G1 X53.407 Y90.649 E5.16002
G1 X52.913 Y90.286 E5.16944
G1 X52.359 Y90.086 E5.17848
G1 X51.779 Y90.034 E5.18743
G1 X51.206 Y90.138 E5.19638
G1 X50.674 Y90.385 E5.20539
G1 X50.173 Y90.826 E5.21564
G1 X49.857 Y91.323 E5.22469
G1 X49.687 Y91.867 E5.23344
G1 X49.651 Y92.273 E5.2397
G1 X49.726 Y92.841 E5.24851
G1 X49.948 Y93.379 E5.25745
G1 X50.305 Y93.84 E5.2664
G1 X50.766 Y94.195 E5.27534
G1 X51.305 Y94.416 E5.28429
G1 X51.881 Y94.492 E5.29322
G1 X52.458 Y94.415 E5.30216
G1 X52.996 Y94.193 E5.3111
G1 X53.408 Y93.873 E5.31911
G1 X53.457 Y93.836 E5.32006
G1 X53.745 Y93.461 E5.32732
G1 X53.745 Y93.836 E5.32946
G1 X53.745 Y93.898 E5.33034
G1 X53.745 Y104.427 E5.49208
G1 X35.888 Y104.428 E5.7664
G1 X35.714 Y104.428 E5.76907
G1 X35.714 Y104.254 E5.7708
G1 X35.714 Y93.898 E5.92989
G1 X35.714 Y93.84 E5.93078
G1 X35.714 Y93.464 E5.93656
G1 X36.005 Y93.84 E5.94025
G1 X36.051 Y93.875 E5.94107
G1 X36.466 Y94.195 E5.94912
G1 X37.005 Y94.416 E5.95807
G1 X37.581 Y94.492 E5.96699
G1 X38.158 Y94.415 E5.97594
G1 X38.696 Y94.193 E5.98488
G1 X39.157 Y93.836 E5.99383
G1 X39.511 Y93.375 E6.00276
G1 X39.733 Y92.837 E6.0117
G1 X39.809 Y92.26 E6.02064
G1 X39.731 Y91.683 E6.02959
G1 X39.509 Y91.145 E6.03853
G1 X39.15 Y90.68 E6.04755
G1 X38.613 Y90.286 E6.05779
G1 X38.059 Y90.086 E6.06683
G1 X37.479 Y90.034 E6.07578
G1 X36.906 Y90.138 E6.08473
G1 X36.374 Y90.385 E6.09374
G1 X36.03 Y90.688 E6.10078
G1 X35.873 Y90.826 E6.10399
G1 X35.714 Y91.077 E6.10855
G1 X35.714 Y90.827 E6.10928
G1 X35.714 Y90.617 E6.11171
G1 X35.714 Y80.199 E6.27175
G1 X35.714 Y80.141 E6.27264
G1 X35.713 Y79.763 E6.27845
G1 X36.005 Y80.14 E6.28214
G1 X36.051 Y80.175 E6.28297
G1 X36.466 Y80.495 E6.29102
G1 X37.005 Y80.716 E6.29996
G1 X37.581 Y80.792 E6.30889
G1 X38.158 Y80.715 E6.31783
G1 X38.696 Y80.493 E6.32677
G1 X39.157 Y80.136 E6.33573
G1 X39.511 Y79.675 E6.34466
G1 X39.733 Y79.137 E6.3536
G1 X39.809 Y78.56 E6.36254
G1 X39.731 Y77.983 E6.37148
G1 X39.509 Y77.445 E6.38043
G1 X39.15 Y76.98 E6.38945
G1 X38.613 Y76.586 E6.39968
G1 X38.059 Y76.386 E6.40873
G1 X37.479 Y76.334 E6.41768
G1 X36.906 Y76.438 E6.42662
G1 X36.374 Y76.685 E6.43563
G1 X36.029 Y76.988 E6.44269
G1 X35.873 Y77.126 E6.44588
G1 X35.713 Y77.377 E6.45046
G1 X35.713 Y77.126 E6.4512
G1 X35.713 Y76.917 E6.45362
G1 X35.713 Y66.397 E6.61523
G0 F3600 X35.783 Y66.467
G0 X39.769 Y77.976
G0 X38.603 Y90.177
G0 X38.459 Y90.576
;TYPE:WALL-OUTER
G1 F1800 X37.988 Y90.406 E6.62292
G1 X37.494 Y90.362 E6.63054
G1 X37.005 Y90.45 E6.63817
G1 X36.553 Y90.66 E6.64583
G1 X36.122 Y91.039 E6.65464
G1 X35.854 Y91.461 E6.66232
G1 X35.738 Y91.834 E6.66832
G1 X35.708 Y91.93 E6.66987
G1 X35.678 Y92.266 E6.67505
G1 X35.738 Y92.723 E6.68213
G1 X35.743 Y92.756 E6.68265
G1 X35.932 Y93.215 E6.69027
G1 X36.236 Y93.608 E6.6979
G1 X36.63 Y93.911 E6.70554
G1 X37.089 Y94.099 E6.71316
G1 X37.581 Y94.164 E6.72078
G1 X38.073 Y94.098 E6.72841
G1 X38.532 Y93.909 E6.73603
G1 X38.925 Y93.605 E6.74367
G1 X39.227 Y93.211 E6.75129
G1 X39.416 Y92.752 E6.75892
G1 X39.481 Y92.26 E6.76654
G1 X39.415 Y91.768 E6.77417
G1 X39.225 Y91.309 E6.7818
G1 X38.921 Y90.915 E6.78944
G1 X38.459 Y90.576 E6.79825
G0 F3600 X38.271 Y90.508
G0 X38.401 Y90.146
G0 X38.414 Y90.109
G0 X39.849 Y78.557
G0 X39.543 Y77.426
G0 X38.603 Y76.477
G0 X38.459 Y76.876
G1 F1800 X37.988 Y76.706 E6.80594
G1 X37.494 Y76.662 E6.81356
G1 X37.005 Y76.75 E6.82119
G1 X36.553 Y76.96 E6.82885
G1 X36.122 Y77.339 E6.83766
G1 X35.854 Y77.761 E6.84534
G1 X35.738 Y78.134 E6.85134
G1 X35.708 Y78.23 E6.85289
G1 X35.678 Y78.566 E6.85807
G1 X35.738 Y79.023 E6.86515
G1 X35.743 Y79.056 E6.86566
G1 X35.932 Y79.515 E6.87329
G1 X36.236 Y79.908 E6.88092
G1 X36.63 Y80.211 E6.88856
G1 X37.089 Y80.399 E6.89618
G1 X37.581 Y80.464 E6.9038
G1 X38.073 Y80.398 E6.91143
G1 X38.532 Y80.209 E6.91905
G1 X38.925 Y79.905 E6.92669
G1 X39.227 Y79.511 E6.93431
G1 X39.416 Y79.052 E6.94194
G1 X39.481 Y78.56 E6.94956
G1 X39.415 Y78.068 E6.95719
G1 X39.225 Y77.609 E6.96482
G1 X38.921 Y77.215 E6.97246
G1 X38.459 Y76.876 E6.98127
G0 F3600 X38.271 Y76.808
G0 X38.401 Y76.446
G0 X38.414 Y76.409
G0 X51.778 Y76.295
G0 X52.903 Y76.477
G0 X52.759 Y76.876
G1 F1800 X52.288 Y76.706 E6.98896
G1 X51.794 Y76.662 E6.99658
G1 X51.305 Y76.75 E7.00421
G1 X50.853 Y76.96 E7.01187
G1 X50.422 Y77.339 E7.02068
G1 X50.154 Y77.761 E7.02836
G1 X50.008 Y78.23 E7.03591
G1 X49.978 Y78.566 E7.04109
G1 X50.043 Y79.056 E7.04868
G1 X50.232 Y79.515 E7.05631
G1 X50.536 Y79.908 E7.06394
G1 X50.93 Y80.211 E7.07158
G1 X51.389 Y80.399 E7.0792
G1 X51.881 Y80.464 E7.08682
G1 X52.373 Y80.398 E7.09445
G1 X52.832 Y80.209 E7.10207
G1 X53.225 Y79.905 E7.1097
G1 X53.527 Y79.511 E7.11733
G1 X53.716 Y79.052 E7.12496
G1 X53.72 Y79.027 E7.12535
G1 X53.781 Y78.56 E7.13258
G1 X53.72 Y78.1 E7.13971
G1 X53.715 Y78.068 E7.14021
G1 X53.525 Y77.609 E7.14784
G1 X53.221 Y77.215 E7.15548
G1 X52.759 Y76.876 E7.16429
G0 F3600 X52.571 Y76.808
G0 X52.701 Y76.446
G0 X52.714 Y76.409
G0 X51.778 Y76.295
G0 X50.652 Y76.653
G0 X49.821 Y77.609
G0 X49.612 Y78.574
G0 X52.903 Y90.177
G0 X52.759 Y90.576
G1 F1800 X52.288 Y90.406 E7.17198
G1 X51.794 Y90.362 E7.1796
G1 X51.305 Y90.45 E7.18723
G1 X50.853 Y90.66 E7.19489
G1 X50.422 Y91.039 E7.2037
G1 X50.154 Y91.461 E7.21138
G1 X50.008 Y91.93 E7.21893
G1 X49.978 Y92.266 E7.22411
G1 X50.043 Y92.756 E7.2317
G1 X50.232 Y93.215 E7.23933
G1 X50.536 Y93.608 E7.24696
G1 X50.93 Y93.911 E7.2546
G1 X51.389 Y94.099 E7.26222
G1 X51.881 Y94.164 E7.26984
G1 X52.373 Y94.098 E7.27747
G1 X52.832 Y93.909 E7.28509
G1 X53.225 Y93.605 E7.29272
G1 X53.527 Y93.211 E7.30035
G1 X53.716 Y92.752 E7.30798
G1 X53.72 Y92.727 E7.30836
G1 X53.781 Y92.26 E7.3156
G1 X53.72 Y91.8 E7.32273
G1 X53.715 Y91.768 E7.32323
G1 X53.525 Y91.309 E7.33086
G1 X53.221 Y90.915 E7.3385
G1 X52.759 Y90.576 E7.3473
G0 F3600 X52.571 Y90.508
G0 X52.701 Y90.146
G0 X52.714 Y90.109
G0 X53.559 Y91.289
G0 X53.969 Y92.729
G0 X54.069 Y92.73
G1 F1800 X54.07 Y104.729 E7.53163
G1 X54.046 Y104.752 E7.53214
G1 X35.57 Y104.753 E7.81597
G1 X35.412 Y104.753 E7.8184
G1 X35.389 Y104.729 E7.81891
G1 X35.389 Y104.571 E7.82134
G1 X35.389 Y92.727 E8.00328
G1 X35.389 Y92.266 E8.00975
G1 X35.389 Y91.931 E8.01425
G1 X35.389 Y91.83 E8.01573
G1 X35.389 Y79.027 E8.21241
G1 X35.389 Y78.566 E8.21888
G1 X35.389 Y78.231 E8.22337
G1 X35.389 Y78.13 E8.22486
G1 X35.388 Y66.095 E8.40974
G1 X35.412 Y66.072 E8.41025
G1 X53.888 Y66.071 E8.69408
G1 X54.046 Y66.071 E8.6965
G1 X54.069 Y66.095 E8.69701
G1 X54.069 Y66.253 E8.69944
G1 X54.069 Y78.096 E8.88137
G1 X54.069 Y78.56 E8.88787
G1 X54.069 Y79.031 E8.89447
G1 X54.069 Y91.795 E9.09055
G1 X54.069 Y92.259 E9.09705
G1 X54.069 Y92.73 E9.10364
G0 F3600 X54.069 Y92.93
G0 X53.969 Y92.929
G0 X53.405 Y94.306
;TYPE:SKIN
G1 F1800 X53.405 Y104.087 E9.2539
G1 X36.054 Y104.088 E9.52044
G1 X36.054 Y94.307 E9.6707
G1 X36.295 Y94.492 E9.67537
G1 X36.917 Y94.748 E9.6857
G1 X37.581 Y94.835 E9.69599
G1 X38.247 Y94.746 E9.70631
G1 X38.868 Y94.49 E9.71663
G1 X39.4 Y94.078 E9.72696
G1 X39.808 Y93.546 E9.73726
G1 X40.065 Y92.926 E9.74757
G1 X40.152 Y92.26 E9.75789
G1 X40.062 Y91.594 E9.76821
G1 X39.806 Y90.974 E9.77852
G1 X39.389 Y90.435 E9.78899
G1 X38.774 Y89.983 E9.80071
G1 X38.133 Y89.752 E9.81118
G1 X37.464 Y89.692 E9.8215
G1 X36.803 Y89.811 E9.83182
G1 X36.186 Y90.097 E9.84226
G1 X36.054 Y90.213 E9.84496
G1 X36.053 Y80.606 E9.99254
G1 X36.295 Y80.792 E9.99723
G1 X36.917 Y81.048 E10.00757
G1 X37.581 Y81.135 E10.01785
G1 X38.247 Y81.046 E10.02818
G1 X38.868 Y80.79 E10.03849
G1 X39.4 Y80.378 E10.04883
G1 X39.808 Y79.846 E10.05913
G1 X40.065 Y79.226 E10.06944
G1 X40.152 Y78.56 E10.07976
G1 X40.062 Y77.894 E10.09008
G1 X39.806 Y77.274 E10.10039
G1 X39.389 Y76.735 E10.11086
G1 X38.774 Y76.283 E10.12258
G1 X38.133 Y76.052 E10.13305
G1 X37.464 Y75.992 E10.14337
G1 X36.803 Y76.111 E10.15368
G1 X36.186 Y76.397 E10.16413
G1 X36.053 Y76.514 E10.16685
G1 X36.053 Y66.737 E10.31705
G1 X53.404 Y66.736 E10.58359
G1 X53.404 Y76.525 E10.73397
G1 X53.074 Y76.283 E10.74026
G1 X52.433 Y76.052 E10.75072
G1 X51.764 Y75.992 E10.76104
G1 X51.103 Y76.111 E10.77136
G1 X50.486 Y76.397 E10.78181
G1 X49.912 Y76.903 E10.79356
G1 X49.546 Y77.479 E10.80404
G1 X49.351 Y78.101 E10.81406
G1 X49.309 Y78.581 E10.82146
G1 X49.395 Y79.23 E10.83152
G1 X49.651 Y79.851 E10.84183
G1 X50.063 Y80.383 E10.85217
G1 X50.595 Y80.792 E10.86248
G1 X51.217 Y81.048 E10.87281
G1 X51.881 Y81.135 E10.8831
G1 X52.547 Y81.046 E10.89342
G1 X53.169 Y80.79 E10.90376
G1 X53.404 Y80.607 E10.90833
G1 X53.405 Y90.226 E11.0561
G1 X53.074 Y89.983 E11.06241
G1 X52.433 Y89.752 E11.07287
G1 X51.764 Y89.692 E11.08319
G1 X51.103 Y89.811 E11.09351
G1 X50.486 Y90.097 E11.10396
G1 X49.912 Y90.603 E11.11571
G1 X49.546 Y91.179 E11.12619
G1 X49.351 Y91.801 E11.13621
G1 X49.309 Y92.281 E11.14361
G1 X49.395 Y92.93 E11.15367
G1 X49.651 Y93.551 E11.16399
G1 X50.063 Y94.083 E11.17432
G1 X50.595 Y94.492 E11.18463
G1 X51.217 Y94.748 E11.19496
G1 X51.881 Y94.835 E11.20525
G1 X52.547 Y94.746 E11.21557
G1 X53.168 Y94.49 E11.22589
G1 X53.405 Y94.306 E11.2305
G0 F3600 X36.613 Y103.929
G1 F1800 X36.21 Y103.527 E11.23925
G0 F3600 X36.21 Y103.032
G1 F1800 X37.108 Y103.929 E11.25874
G0 F3600 X37.603 Y103.929
G1 F1800 X36.21 Y102.537 E11.289
G0 F3600 X36.21 Y102.042
G1 F1800 X38.098 Y103.929 E11.33
G0 F3600 X38.593 Y103.929
G1 F1800 X36.21 Y101.547 E11.38176
G0 F3600 X36.21 Y101.052
G1 F1800 X39.088 Y103.929 E11.44428
G0 F3600 X39.583 Y103.929
G1 F1800 X36.21 Y100.557 E11.51754
G0 F3600 X36.21 Y100.062
G1 F1800 X40.078 Y103.929 E11.60157
G0 F3600 X40.573 Y103.929
G1 F1800 X36.21 Y99.567 E11.69634
G0 F3600 X36.21 Y99.072
G1 F1800 X41.068 Y103.929 E11.80187
G0 F3600 X41.563 Y103.929
G1 F1800 X36.21 Y98.577 E11.91815
G0 F3600 X36.21 Y98.082
G1 F1800 X42.058 Y103.929 E12.04519
G0 F3600 X42.552 Y103.929
G1 F1800 X36.21 Y97.587 E12.18297
G0 F3600 X36.21 Y97.092
G1 F1800 X43.047 Y103.929 E12.33151
G0 F3600 X43.542 Y103.929
G1 F1800 X36.21 Y96.597 E12.49079
G0 F3600 X36.21 Y96.102
G1 F1800 X44.037 Y103.929 E12.66084
G0 F3600 X44.532 Y103.929
G1 F1800 X36.21 Y95.607 E12.84163
G0 F3600 X36.21 Y95.112
G1 F1800 X45.027 Y103.929 E13.03318
G0 F3600 X45.522 Y103.929
G1 F1800 X36.225 Y94.632 E13.23516
G1 X36.163 Y94.57
G0 F3600 X37.005 Y94.917
G1 F1800 X46.017 Y103.929 E13.43095
G0 F3600 X46.512 Y103.929
G1 F1800 X37.576 Y94.993 E13.62508
G0 F3600 X38.013 Y94.935
G1 F1800 X47.007 Y103.929 E13.82048
G0 F3600 X47.502 Y103.929
G1 F1800 X38.417 Y94.844 E14.01785
G0 F3600 X38.768 Y94.7
G1 F1800 X47.996 Y103.929 E14.21834
G0 F3600 X48.491 Y103.929
G1 F1800 X39.083 Y94.521 E14.42273
G0 F3600 X39.362 Y94.304
G1 F1800 X48.986 Y103.929 E14.63182
G0 F3600 X49.481 Y103.929
G1 F1800 X39.61 Y94.057 E14.84628
G0 F3600 X39.825 Y93.777
G1 F1800 X49.976 Y103.929 E15.06682
G0 F3600 X50.471 Y103.929
G1 F1800 X40.009 Y93.466 E15.29412
G0 F3600 X40.155 Y93.117
G1 F1800 X50.966 Y103.929 E15.529
G0 F3600 X51.461 Y103.929
G1 F1800 X40.25 Y92.717 E15.77257
G0 F3600 X40.307 Y92.28
G1 F1800 X51.956 Y103.929 E16.02565
G0 F3600 X52.451 Y103.929
G1 F1800 X40.236 Y91.713 E16.29103
G1 X40.174 Y91.651
G0 F3600 X39.964 Y90.946
G1 F1800 X52.946 Y103.929 E16.57308
G0 F3600 X53.247 Y103.735
G1 F1800 X36.21 Y86.697 E16.94322
G0 F3600 X36.21 Y86.202
G1 F1800 X53.247 Y103.24 E17.31336
G0 F3600 X53.247 Y102.745
G1 F1800 X36.21 Y85.707 E17.6835
G0 F3600 X36.21 Y85.212
G1 F1800 X53.247 Y102.25 E18.05364
G0 F3600 X53.247 Y101.755
G1 F1800 X36.21 Y84.717 E18.42378
G0 F3600 X36.21 Y84.222
G1 F1800 X53.247 Y101.26 E18.79393
