;FLAVOR:Marlin
;TIME:5124
;Filament used: 2.52852m
;Layer height: 0.4
;MINX:31.718
;MINY:61.989
;MINZ:0.52
;MAXX:132.011
;MAXY:108.423
;MAXZ:5.72
;Generated with Cura_SteamEngine 4.1.0
M82 ;absolute extrusion mode
M98 P0:/sys/startprint.g

G92 E0
G92 E0
G10
;LAYER_COUNT:14
;LAYER:0
M107
G0 F3600 X33.795 Y62.786 Z0.52
;TYPE:SKIRT
M220 S50
G11
G1 F1800 X34.272 Y62.585 E0.02953
G1 X34.774 Y62.46 E0.05905
G1 X35.198 Y62.416 E0.08338
G1 X35.4 Y62.408 E0.09491
G1 X35.501 Y62.405 E0.10068
G1 X35.815 Y62.402 E0.11859
G1 X35.847 Y62.402 E0.12042
G1 X50.608 Y62.401 E0.96266
G1 X53.399 Y62.362 E1.12193
G1 X56.11 Y62.246 E1.27676
G1 X59.215 Y62.017 E1.4544
G1 X59.315 Y62.011 E1.46012
G1 X59.657 Y61.996 E1.47965
G1 X59.772 Y61.993 E1.48622
G1 X60.085 Y61.99 E1.50408
G1 X60.117 Y61.99 E1.5059
G1 X77.69 Y61.989 E2.5086
G1 X77.739 Y61.989 E2.51139
G1 X79.051 Y62.008 E2.58626
G1 X79.097 Y62.009 E2.58889
G1 X80.649 Y62.053 E2.67748
G1 X83.378 Y62.055 E2.83319
G1 X86.036 Y61.991 E2.9849
G1 X86.117 Y61.99 E2.98952
G1 X103.711 Y61.989 E3.99341
G1 X103.758 Y61.989 E3.99609
G1 X105.754 Y62.017 E4.10999
G1 X108.499 Y62.017 E4.26662
G1 X109.262 Y61.999 E4.31016
G1 X109.306 Y61.998 E4.31268
G1 X110.082 Y61.99 E4.35696
G1 X110.117 Y61.99 E4.35895
G1 X127.691 Y61.989 E5.3617
G1 X127.739 Y61.989 E5.36444
G1 X128.443 Y61.999 E5.40461
G1 X128.958 Y62.047 E5.43413
G1 X129.459 Y62.173 E5.4636
G1 X129.936 Y62.374 E5.49314
G1 X130.375 Y62.647 E5.52264
G1 X130.759 Y62.976 E5.55149
G1 X131.013 Y63.229 E5.57194
G1 X131.35 Y63.621 E5.60144
G1 X131.623 Y64.06 E5.63094
G1 X131.825 Y64.537 E5.66049
G1 X131.951 Y65.038 E5.68997
G1 X131.998 Y65.526 E5.71794
G1 X132.009 Y66.011 E5.74562
G1 X132.01 Y66.087 E5.74996
G1 X132.011 Y103.674 E7.89463
G1 X132.011 Y103.721 E7.89731
G1 X132.001 Y104.435 E7.93805
G1 X131.954 Y104.95 E7.96756
G1 X131.828 Y105.452 E7.99709
G1 X131.626 Y105.928 E8.0266
G1 X131.353 Y106.368 E8.05614
G1 X131.056 Y106.72 E8.08242
G1 X130.803 Y106.981 E8.10316
G1 X130.416 Y107.323 E8.13263
G1 X129.98 Y107.602 E8.16216
G1 X129.506 Y107.81 E8.1917
G1 X129.007 Y107.943 E8.22117
G1 X128.531 Y107.996 E8.24849
G1 X128.329 Y108.004 E8.26003
G1 X128.228 Y108.007 E8.26579
G1 X127.915 Y108.01 E8.28365
G1 X127.883 Y108.01 E8.28548
G1 X110.29 Y108.011 E9.28931
G1 X110.243 Y108.011 E9.292
G1 X108.247 Y107.983 E9.4059
G1 X105.502 Y107.983 E9.56252
G1 X104.739 Y108.001 E9.60607
G1 X104.695 Y108.002 E9.60858
G1 X103.919 Y108.01 E9.65286
G1 X103.884 Y108.01 E9.65486
G1 X86.31 Y108.011 E10.65761
G1 X86.261 Y108.011 E10.6604
G1 X84.949 Y107.992 E10.73527
G1 X84.903 Y107.991 E10.7379
G1 X83.351 Y107.947 E10.82649
G1 X80.622 Y107.945 E10.9822
G1 X77.963 Y108.009 E11.13396
G1 X77.882 Y108.01 E11.13859
G1 X63.121 Y108.011 E11.98083
G1 X60.33 Y108.05 E12.1401
G1 X57.618 Y108.166 E12.29498
G1 X54.513 Y108.395 E12.47263
G1 X54.413 Y108.401 E12.47835
G1 X54.071 Y108.416 E12.49788
G1 X53.956 Y108.419 E12.50444
G1 X53.643 Y108.422 E12.5223
G1 X53.611 Y108.422 E12.52413
G1 X36.038 Y108.423 E13.52682
G1 X35.99 Y108.423 E13.52956
G1 X35.287 Y108.413 E13.56968
G1 X34.772 Y108.365 E13.59919
G1 X34.27 Y108.239 E13.62872
G1 X33.794 Y108.038 E13.6582
G1 X33.355 Y107.765 E13.6877
G1 X32.976 Y107.441 E13.71615
G1 X32.721 Y107.188 E13.73665
G1 X32.383 Y106.797 E13.76614
G1 X32.109 Y106.358 E13.79566
G1 X31.906 Y105.882 E13.82519
G1 X31.779 Y105.38 E13.85474
G1 X31.732 Y104.935 E13.88027
G1 X31.724 Y104.72 E13.89254
G1 X31.722 Y104.624 E13.89802
G1 X31.719 Y104.281 E13.9176
G1 X31.719 Y104.252 E13.91925
G1 X31.718 Y66.699 E16.06198
G1 X31.718 Y66.65 E16.06477
G1 X31.728 Y65.967 E16.10375
G1 X31.776 Y65.452 E16.13326
G1 X31.902 Y64.95 E16.16279
G1 X32.104 Y64.474 E16.1923
G1 X32.377 Y64.034 E16.22184
G1 X32.709 Y63.647 E16.25093
G1 X32.962 Y63.394 E16.27135
G1 X33.355 Y63.058 E16.30085
G1 X33.795 Y62.786 E16.33037
G10
;MESH:slidingblocklid.stl(2)
G0 F3600 X35.486 Y66.184
G0 X35.632 Y77.665
G0 X35.51 Y79.121
G0 X39.62 Y91.609
G0 X39.532 Y93.284
G0 X39.444 Y93.237
;TYPE:WALL-OUTER
G11
G1 F1800 X39.633 Y92.713 E16.36215
G1 X39.68 Y92.166 E16.39348
G1 X39.583 Y91.621 E16.42506
G1 X39.304 Y91.058 E16.46092
G1 X38.927 Y90.649 E16.49266
G1 X38.464 Y90.354 E16.52398
G1 X37.939 Y90.189 E16.55538
G1 X37.391 Y90.167 E16.58667
G1 X36.855 Y90.287 E16.61801
G1 X36.369 Y90.542 E16.64933
G1 X36.135 Y90.757 E16.66746
G1 X35.965 Y90.914 E16.68067
G1 X35.668 Y91.381 E16.71224
G1 X35.497 Y91.971 E16.74729
G1 X35.477 Y92.276 E16.76473
G1 X35.548 Y92.811 E16.79553
G1 X35.759 Y93.318 E16.82686
G1 X36.095 Y93.753 E16.85823
G1 X36.153 Y93.798 E16.86241
G1 X36.531 Y94.087 E16.88956
G1 X37.04 Y94.295 E16.92094
G1 X37.584 Y94.365 E16.95223
G1 X38.128 Y94.292 E16.98355
G1 X38.635 Y94.082 E17.01486
G1 X39.073 Y93.743 E17.04647
G1 X39.444 Y93.237 E17.08227
G0 F3600 X39.579 Y92.861
G0 X40.303 Y93.123
G0 X39.532 Y79.584
G0 X39.444 Y79.537
G1 F1800 X39.633 Y79.013 E17.11405
G1 X39.68 Y78.466 E17.14538
G1 X39.583 Y77.921 E17.17696
G1 X39.304 Y77.358 E17.21282
G1 X38.927 Y76.949 E17.24455
G1 X38.464 Y76.654 E17.27588
G1 X37.939 Y76.489 E17.30728
G1 X37.391 Y76.467 E17.33857
G1 X36.855 Y76.587 E17.36991
G1 X36.369 Y76.842 E17.40123
G1 X36.135 Y77.057 E17.41936
G1 X35.965 Y77.214 E17.43256
G1 X35.668 Y77.681 E17.46414
G1 X35.497 Y78.271 E17.49919
G1 X35.477 Y78.576 E17.51663
G1 X35.548 Y79.111 E17.54743
G1 X35.759 Y79.618 E17.57876
G1 X36.095 Y80.053 E17.61012
G1 X36.153 Y80.098 E17.61431
G1 X36.531 Y80.387 E17.64146
G1 X37.04 Y80.595 E17.67284
G1 X37.584 Y80.665 E17.70413
G1 X38.128 Y80.592 E17.73545
G1 X38.635 Y80.382 E17.76676
G1 X39.073 Y80.043 E17.79837
G1 X39.444 Y79.537 E17.83417
G0 F3600 X39.579 Y79.161
G0 X40.303 Y79.423
G0 X51.884 Y80.705
G0 X52.955 Y80.416
G0 X53.832 Y79.584
G0 X53.744 Y79.537
G1 F1800 X53.933 Y79.013 E17.86595
G1 X53.98 Y78.466 E17.89728
G1 X53.883 Y77.921 E17.92886
G1 X53.604 Y77.358 E17.96471
G1 X53.331 Y77.062 E17.98769
G1 X53.227 Y76.949 E17.99645
G1 X52.764 Y76.654 E18.02778
G1 X52.239 Y76.489 E18.05918
G1 X51.691 Y76.467 E18.09047
G1 X51.155 Y76.587 E18.12181
G1 X50.669 Y76.842 E18.15313
G1 X50.265 Y77.214 E18.18446
G1 X49.968 Y77.681 E18.21604
G1 X49.797 Y78.271 E18.25109
G1 X49.777 Y78.576 E18.26853
G1 X49.848 Y79.111 E18.29933
G1 X50.059 Y79.618 E18.33066
G1 X50.395 Y80.053 E18.36202
G1 X50.831 Y80.387 E18.39336
G1 X51.34 Y80.595 E18.42474
G1 X51.884 Y80.665 E18.45603
G1 X52.428 Y80.592 E18.48735
G1 X52.935 Y80.382 E18.51866
G1 X53.306 Y80.095 E18.54543
G1 X53.373 Y80.043 E18.55027
G1 X53.744 Y79.537 E18.58607
G0 F3600 X53.879 Y79.161
G0 X53.973 Y79.195
G0 X53.92 Y91.609
G0 X53.982 Y92.615
G0 X53.744 Y93.237
G1 F1800 X53.933 Y92.713 E18.61785
G1 X53.98 Y92.166 E18.64918
G1 X53.883 Y91.621 E18.68076
G1 X53.604 Y91.058 E18.71661
G1 X53.331 Y90.762 E18.73959
G1 X53.227 Y90.649 E18.74835
G1 X52.764 Y90.354 E18.77968
G1 X52.239 Y90.189 E18.81108
G1 X51.691 Y90.167 E18.84237
G1 X51.155 Y90.287 E18.87371
G1 X50.669 Y90.542 E18.90503
G1 X50.265 Y90.914 E18.93636
G1 X49.968 Y91.381 E18.96794
G1 X49.797 Y91.971 E19.00299
G1 X49.777 Y92.276 E19.02043
G1 X49.848 Y92.811 E19.05123
G1 X50.059 Y93.318 E19.08256
G1 X50.395 Y93.753 E19.11392
G1 X50.831 Y94.087 E19.14526
G1 X51.34 Y94.295 E19.17664
G1 X51.884 Y94.365 E19.20793
G1 X52.428 Y94.292 E19.23925
G1 X52.935 Y94.082 E19.27056
G1 X53.306 Y93.795 E19.29733
G1 X53.373 Y93.743 E19.30216
G1 X53.744 Y93.237 E19.33797
G0 F3600 X53.879 Y92.861
G0 X53.989 Y93.827
G1 F1800 X53.99 Y104.647 E19.95534
G1 X53.964 Y104.672 E19.9574
G1 X35.826 Y104.673 E20.99233
G1 X35.494 Y104.673 E21.01127
G1 X35.469 Y104.647 E21.01333
G1 X35.469 Y104.315 E21.03227
G1 X35.469 Y93.827 E21.63071
G1 X35.469 Y93.753 E21.63211
G1 X35.469 Y93.318 E21.64774
G1 X35.469 Y92.811 E21.65492
G1 X35.469 Y92.276 E21.65676
G1 X35.469 Y91.971 E21.65721
G1 X35.469 Y91.381 E21.66238
G1 X35.469 Y90.915 E21.67817
G1 X35.469 Y90.683 E21.68964
G1 X35.469 Y80.127 E22.29195
G1 X35.469 Y80.053 E22.29336
G1 X35.469 Y79.618 E22.30899
G1 X35.469 Y79.111 E22.31617
G1 X35.469 Y78.576 E22.31801
G1 X35.469 Y78.271 E22.31846
G1 X35.469 Y77.681 E22.32363
G1 X35.469 Y77.215 E22.33942
G1 X35.469 Y76.983 E22.35089
G1 X35.468 Y66.177 E22.96747
G1 X35.494 Y66.152 E22.96953
G1 X53.632 Y66.151 E24.00446
G1 X53.964 Y66.151 E24.0234
G1 X53.989 Y66.177 E24.02546
G1 X53.989 Y66.509 E24.0444
G1 X53.989 Y76.955 E24.64044
G1 X53.989 Y77.358 E24.65776
G1 X53.989 Y77.921 E24.6684
G1 X53.989 Y78.466 E24.67085
G1 X53.989 Y79.013 E24.67227
G1 X53.989 Y79.537 E24.67834
G1 X53.989 Y80.043 E24.69538
G1 X53.989 Y80.128 E24.69997
G1 X53.989 Y90.655 E25.30063
G1 X53.989 Y91.058 E25.31796
G1 X53.989 Y91.621 E25.32859
G1 X53.989 Y92.166 E25.33104
G1 X53.989 Y92.713 E25.33246
G1 X53.989 Y93.237 E25.33853
G1 X53.989 Y93.742 E25.35892
G1 X53.989 Y93.827 E25.36351
G0 F3600 X53.989 Y94.227
G0 X53.3 Y94.672
;TYPE:SKIN
G1 F1800 X53.3 Y103.982 E25.89473
G1 X36.159 Y103.983 E26.87277
G1 X36.159 Y94.672 E27.40405
G1 X36.184 Y94.691 E27.40584
G1 X36.862 Y94.968 E27.44763
G1 X37.586 Y95.061 E27.48928
G1 X38.309 Y94.964 E27.5309
G1 X38.984 Y94.684 E27.5726
G1 X39.572 Y94.23 E27.61499
G1 X40.059 Y93.565 E27.66202
G1 X40.313 Y92.863 E27.70461
G1 X40.376 Y92.135 E27.74631
G1 X40.245 Y91.402 E27.78879
G1 X39.878 Y90.663 E27.83587
G1 X39.373 Y90.115 E27.87839
G1 X38.758 Y89.723 E27.92001
G1 X38.059 Y89.503 E27.96182
G1 X37.328 Y89.473 E28.00356
G1 X36.615 Y89.634 E28.04527
G1 X36.159 Y89.873 E28.07465
G1 X36.158 Y80.971 E28.58258
G1 X36.184 Y80.991 E28.58446
G1 X36.862 Y81.268 E28.62625
G1 X37.586 Y81.361 E28.6679
G1 X38.309 Y81.264 E28.70952
G1 X38.984 Y80.984 E28.75122
G1 X39.572 Y80.53 E28.7936
G1 X40.059 Y79.865 E28.84063
G1 X40.313 Y79.163 E28.88323
G1 X40.376 Y78.435 E28.92492
G1 X40.245 Y77.702 E28.96741
G1 X39.878 Y76.963 E29.01449
G1 X39.373 Y76.415 E29.05701
G1 X38.758 Y76.023 E29.09862
G1 X38.059 Y75.803 E29.14044
G1 X37.328 Y75.773 E29.18218
G1 X36.615 Y75.934 E29.22389
G1 X36.158 Y76.174 E29.25334
G1 X36.158 Y66.842 E29.78581
G1 X53.299 Y66.841 E30.76386
G1 X53.299 Y76.177 E31.29656
G1 X53.058 Y76.023 E31.31288
G1 X52.359 Y75.803 E31.35469
G1 X51.628 Y75.773 E31.39643
G1 X50.915 Y75.934 E31.43814
G1 X50.269 Y76.273 E31.47977
G1 X49.731 Y76.768 E31.52148
G1 X49.333 Y77.394 E31.56381
G1 X49.113 Y78.151 E31.60879
G1 X49.084 Y78.599 E31.6344
G1 X49.176 Y79.292 E31.67429
G1 X49.457 Y79.967 E31.71601
G1 X49.904 Y80.546 E31.75775
G1 X50.484 Y80.991 E31.79946
G1 X51.162 Y81.268 E31.84125
G1 X51.886 Y81.361 E31.8829
G1 X52.609 Y81.264 E31.92452
G1 X53.284 Y80.984 E31.96622
G1 X53.299 Y80.972 E31.96732
G1 X53.3 Y89.877 E32.47542
G1 X53.058 Y89.723 E32.49179
G1 X52.359 Y89.503 E32.5336
G1 X51.628 Y89.473 E32.57535
G1 X50.915 Y89.634 E32.61706
G1 X50.269 Y89.973 E32.65868
G1 X49.731 Y90.468 E32.7004
G1 X49.333 Y91.094 E32.74272
G1 X49.113 Y91.851 E32.7877
G1 X49.084 Y92.299 E32.81332
G1 X49.176 Y92.992 E32.85321
G1 X49.457 Y93.667 E32.89493
G1 X49.904 Y94.246 E32.93666
G1 X50.484 Y94.691 E32.97838
G1 X51.162 Y94.968 E33.02017
G1 X51.886 Y95.061 E33.06182
G1 X52.609 Y94.964 E33.10344
G1 X53.3 Y94.672 E33.14624
G0 F3600 X37.34 Y103.666
G1 F1800 X36.473 Y102.8 E33.21616
G0 F3600 X36.473 Y101.81
G1 F1800 X38.33 Y103.666 E33.36597
G0 F3600 X39.32 Y103.666
G1 F1800 X36.473 Y100.82 E33.59566
G0 F3600 X36.473 Y99.83
G1 F1800 X40.31 Y103.666 E33.90524
G0 F3600 X41.299 Y103.666
G1 F1800 X36.473 Y98.84 E34.29467
G0 F3600 X36.473 Y97.85
G1 F1800 X42.289 Y103.666 E34.76398
G0 F3600 X43.279 Y103.666
G1 F1800 X36.473 Y96.86 E35.31318
G0 F3600 X36.473 Y95.87
G1 F1800 X44.269 Y103.666 E35.94226
G0 F3600 X45.259 Y103.666
G1 F1800 X36.879 Y95.286 E36.61847
G0 F3600 X37.916 Y95.333
G1 F1800 X46.249 Y103.666 E37.29089
G0 F3600 X47.238 Y103.666
G1 F1800 X38.711 Y95.138 E37.979
G0 F3600 X39.356 Y94.794
G1 F1800 X48.228 Y103.666 E38.69491
G0 F3600 X49.218 Y103.666
G1 F1800 X39.885 Y94.332 E39.44806
G0 F3600 X40.305 Y93.762
G1 F1800 X50.208 Y103.666 E40.2472
G0 F3600 X51.198 Y103.666
G1 F1800 X40.58 Y93.047 E41.10404
G0 F3600 X40.689 Y92.166
G1 F1800 X52.188 Y103.666 E42.03197
G0 F3600 X52.984 Y103.472
G1 F1800 X40.283 Y90.77 E43.0569
G1 X40.16 Y90.647
G0 F3600 X39.044 Y89.531
G1 F1800 X36.473 Y86.96 E43.26436
G0 F3600 X36.473 Y85.97
G1 F1800 X52.984 Y102.482 E44.59672
G0 F3600 X52.984 Y101.492
G1 F1800 X36.473 Y84.98 E45.92909
G0 F3600 X36.473 Y83.99
G1 F1800 X52.984 Y100.502 E47.26146
G0 F3600 X52.984 Y99.512
G1 F1800 X36.473 Y83 E48.59382
G0 F3600 X36.473 Y82.01
G1 F1800 X52.984 Y98.522 E49.92619
G0 F3600 X52.984 Y97.532
G1 F1800 X50.482 Y95.03 E50.12808
G0 F3600 X51.81 Y95.368
G1 F1800 X52.984 Y96.542 E50.22281
G0 F3600 X52.984 Y95.552
G1 F1800 X52.699 Y95.267 E50.24581
G0 F3600 X49.112 Y93.66
G1 F1800 X37.062 Y81.61 E51.21816
G0 F3600 X38.057 Y81.614
G1 F1800 X48.771 Y92.329 E52.08275
G0 F3600 X48.897 Y91.465
G1 F1800 X38.824 Y81.392 E52.89557
G0 F3600 X39.447 Y81.025
G1 F1800 X49.176 Y90.754 E53.68064
G0 F3600 X49.585 Y90.173
G1 F1800 X39.953 Y80.541 E54.45787
G0 F3600 X40.359 Y79.957
G1 F1800 X50.104 Y89.702 E55.24423
G0 F3600 X50.753 Y89.361
G1 F1800 X40.622 Y79.23 E56.06173
G0 F3600 X40.67 Y78.288
G1 F1800 X51.548 Y89.166 E56.93951
G0 F3600 X52.627 Y89.255
G1 F1800 X39.963 Y76.591 E57.96141
G0 F3600 X39.483 Y76.111
G1 F1800 X36.472 Y73.1 E58.20438
G0 F3600 X36.472 Y72.11
G1 F1800 X52.984 Y88.623 E59.53682
G0 F3600 X52.984 Y87.633
G1 F1800 X36.472 Y71.12 E60.86927
G0 F3600 X36.472 Y70.13
G1 F1800 X52.984 Y86.643 E62.20172
G0 F3600 X52.984 Y85.653
G1 F1800 X36.472 Y69.14 E63.53416
G0 F3600 X36.472 Y68.15
G1 F1800 X52.984 Y84.663 E64.86661
G0 F3600 X52.984 Y83.673
G1 F1800 X50.751 Y81.439 E65.04684
G0 F3600 X51.968 Y81.667
G1 F1800 X52.984 Y82.683 E65.12882
G0 F3600 X52.984 Y81.693
G1 F1800 X52.812 Y81.52 E65.14274
G0 F3600 X48.999 Y79.688
G1 F1800 X36.472 Y67.161 E66.15358
G0 F3600 X37.457 Y67.156
G1 F1800 X48.776 Y78.475 E67.06695
G0 F3600 X48.933 Y77.642
G1 F1800 X38.447 Y67.156 E67.9131
G0 F3600 X39.437 Y67.156
G1 F1800 X49.238 Y76.957 E68.70397
G0 F3600 X49.668 Y76.397
G1 F1800 X40.427 Y67.156 E69.44966
G0 F3600 X41.417 Y67.156
G1 F1800 X50.208 Y75.947 E70.15903
G0 F3600 X50.871 Y75.62
G1 F1800 X42.407 Y67.156 E70.84202
G0 F3600 X43.397 Y67.156
G1 F1800 X51.7 Y75.458 E71.51197
G0 F3600 X52.861 Y75.63
G1 F1800 X44.387 Y67.156 E72.19577
G0 F3600 X45.377 Y67.156
G1 F1800 X52.984 Y74.763 E72.8096
G0 F3600 X52.984 Y73.773
G1 F1800 X46.367 Y67.156 E73.34355
G0 F3600 X47.357 Y67.156
G1 F1800 X52.984 Y72.783 E73.79761
G0 F3600 X52.984 Y71.793
G1 F1800 X48.347 Y67.156 E74.17178
G0 F3600 X49.336 Y67.156
G1 F1800 X52.984 Y70.803 E74.46611
G0 F3600 X52.984 Y69.813
G1 F1800 X50.326 Y67.156 E74.68055
G0 F3600 X51.316 Y67.156
G1 F1800 X52.984 Y68.823 E74.81511
G0 F3600 X52.984 Y67.833
G1 F1800 X52.306 Y67.156 E74.86978
G0 F3600 X37.86 Y75.478
G1 F1800 X36.472 Y74.09 E74.98178
G0 F3600 X36.472 Y75.08
G1 F1800 X36.93 Y75.538 E75.01874
G0 F3600 X35.632 Y77.665
G0 X35.477 Y78.885
G0 X36.473 Y87.95
G1 F1800 X37.694 Y89.171 E75.11726
G0 F3600 X36.8 Y89.267
G1 F1800 X36.473 Y88.94 E75.14365
G10
;MESH:slidingblocklid.stl(1)(1)
G0 F3600 X52.245 Y90.15
G0 X53.252 Y90.619
G0 X53.92 Y91.609
G0 X55.273 Y92.165
G0 X58.456 Y92.167
G0 X59.74 Y92.166
G0 X59.819 Y92.399
;TYPE:WALL-OUTER
G11
G1 F1800 X60.031 Y92.906 E75.17501
G1 X60.366 Y93.341 E75.20633
G1 X60.424 Y93.385 E75.21049
G1 X60.802 Y93.674 E75.23764
G1 X61.31 Y93.883 E75.26898
G1 X61.855 Y93.953 E75.30033
G1 X62.4 Y93.88 E75.33171
G1 X62.906 Y93.669 E75.36299
G1 X63.341 Y93.334 E75.39432
G1 X63.674 Y92.898 E75.42562
G1 X63.883 Y92.39 E75.45696
G1 X63.953 Y91.845 E75.48831
G1 X63.88 Y91.3 E75.51969
G1 X63.669 Y90.794 E75.55097
G1 X63.334 Y90.359 E75.5823
G1 X62.898 Y90.026 E75.6136
G1 X62.39 Y89.817 E75.64495
G1 X61.845 Y89.747 E75.6763
G1 X61.3 Y89.82 E75.70767
G1 X60.794 Y90.031 E75.73895
G1 X60.423 Y90.316 E75.76565
G1 X60.359 Y90.366 E75.77028
G1 X60.026 Y90.802 E75.80159
G1 X59.817 Y91.31 E75.83293
G1 X59.747 Y91.85 E75.864
G1 X59.819 Y92.399 E75.89559
G0 F3600 X59.973 Y92.768
G0 X59.881 Y92.806
G0 X59.723 Y78.725
G0 X59.819 Y78.699
G1 F1800 X60.031 Y79.206 E75.92695
G1 X60.366 Y79.641 E75.95828
