;FLAVOR:Marlin
;TIME:1208
;Filament used: 0.643935m
;Layer height: 0.4
;MINX:81.289
;MINY:61.289
;MINZ:0.52
;MAXX:108.711
;MAXY:108.711
;MAXZ:5.72
;Generated with Cura_SteamEngine 4.1.0
M82 ;absolute extrusion mode
M98 P0:/sys/startprint.g

G92 E0
G92 E0
G10
;LAYER_COUNT:14
;LAYER:0
M107
G0 F3600 X81.954 Y63.396 Z0.52
;TYPE:SKIRT
G11
G1 F1800 X82.485 Y62.74 E0.04816
G1 X82.737 Y62.488 E0.06849
G1 X83.167 Y62.115 E0.10097
G1 X83.644 Y61.806 E0.1334
G1 X84.16 Y61.567 E0.16585
G1 X84.705 Y61.402 E0.19834
G1 X85.422 Y61.306 E0.23961
G1 X85.625 Y61.297 E0.25121
G1 X85.765 Y61.293 E0.2592
G1 X86.078 Y61.29 E0.27706
G1 X86.117 Y61.29 E0.27928
G1 X103.691 Y61.289 E1.28203
G1 X103.749 Y61.289 E1.28534
G1 X104.448 Y61.299 E1.32523
G1 X105.015 Y61.347 E1.3577
G1 X105.569 Y61.474 E1.39013
G1 X106.1 Y61.678 E1.42259
G1 X106.598 Y61.954 E1.45507
G1 X107.052 Y62.297 E1.48754
G1 X107.453 Y62.7 E1.51998
G1 X107.794 Y63.155 E1.55242
G1 X108.068 Y63.654 E1.58491
G1 X108.269 Y64.186 E1.61736
G1 X108.394 Y64.741 E1.64982
G1 X108.438 Y65.229 E1.67777
G1 X108.459 Y65.938 E1.71825
G1 X108.461 Y65.996 E1.72156
G1 X108.703 Y81.913 E2.62987
G1 X108.703 Y81.941 E2.63146
G1 X108.71 Y82.787 E2.67974
G1 X108.71 Y82.821 E2.68168
G1 X108.711 Y103.673 E3.87146
G1 X108.711 Y103.729 E3.87466
G1 X108.701 Y104.447 E3.91563
G1 X108.653 Y105.014 E3.9481
G1 X108.526 Y105.569 E3.98059
G1 X108.323 Y106.1 E4.01302
G1 X108.047 Y106.598 E4.04551
G1 X107.543 Y107.227 E4.0915
G1 X107.291 Y107.484 E4.11204
G1 X106.865 Y107.861 E4.1445
G1 X106.39 Y108.175 E4.17699
G1 X105.877 Y108.419 E4.2094
G1 X105.334 Y108.589 E4.24186
G1 X104.578 Y108.694 E4.28542
G1 X104.375 Y108.703 E4.29701
G1 X104.235 Y108.707 E4.305
G1 X103.922 Y108.71 E4.32286
G1 X103.883 Y108.71 E4.32509
G1 X86.31 Y108.711 E5.32778
G1 X86.253 Y108.711 E5.33103
G1 X85.548 Y108.701 E5.37126
G1 X84.981 Y108.653 E5.40373
G1 X84.426 Y108.526 E5.43622
G1 X83.895 Y108.322 E5.46867
G1 X83.397 Y108.046 E5.50116
G1 X82.943 Y107.704 E5.53359
G1 X82.736 Y107.509 E5.54982
G1 X82.481 Y107.253 E5.57044
G1 X82.108 Y106.823 E5.60292
G1 X81.8 Y106.345 E5.63536
G1 X81.562 Y105.828 E5.66784
G1 X81.399 Y105.283 E5.70029
G1 X81.302 Y104.535 E5.74333
G1 X81.295 Y104.333 E5.75486
G1 X81.293 Y104.229 E5.7608
G1 X81.29 Y103.889 E5.7802
G1 X81.29 Y103.853 E5.78225
G1 X81.289 Y66.309 E7.92447
G1 X81.289 Y66.252 E7.92772
G1 X81.299 Y65.547 E7.96795
G1 X81.347 Y64.98 E8.00042
G1 X81.474 Y64.425 E8.0329
G1 X81.678 Y63.894 E8.06536
G1 X81.954 Y63.396 E8.09785
G0 F3600 X82.647 Y63.624
G1 F1800 X82.98 Y63.235 E8.12707
G1 X83.232 Y62.983 E8.1474
G1 X83.625 Y62.647 E8.1769
G1 X84.065 Y62.375 E8.20642
G1 X84.542 Y62.174 E8.23595
G1 X85.044 Y62.049 E8.26547
G1 X85.453 Y62.005 E8.28894
G1 X85.656 Y61.996 E8.30054
G1 X85.772 Y61.993 E8.30716
G1 X86.085 Y61.99 E8.32502
G1 X86.117 Y61.99 E8.32684
G1 X103.691 Y61.989 E9.32959
G1 X103.739 Y61.989 E9.33233
G1 X104.438 Y61.999 E9.37222
G1 X104.953 Y62.047 E9.40173
G1 X105.455 Y62.173 E9.43126
G1 X105.931 Y62.375 E9.46077
G1 X106.371 Y62.647 E9.49028
G1 X106.763 Y62.984 E9.51978
G1 X107.099 Y63.378 E9.54933
G1 X107.37 Y63.818 E9.57881
G1 X107.57 Y64.295 E9.60832
G1 X107.694 Y64.798 E9.63788
G1 X107.739 Y65.25 E9.6638
G1 X107.76 Y65.959 E9.70428
G1 X107.761 Y66.007 E9.70701
G1 X108.003 Y81.924 E10.61532
G1 X108.003 Y81.947 E10.61663
G1 X108.01 Y82.793 E10.66491
G1 X108.01 Y82.821 E10.66651
G1 X108.011 Y103.673 E11.85629
G1 X108.011 Y103.72 E11.85898
G1 X108.001 Y104.438 E11.89995
G1 X107.954 Y104.953 E11.92945
G1 X107.828 Y105.455 E11.95899
G1 X107.626 Y105.931 E11.98849
G1 X107.354 Y106.371 E12.01801
G1 X107.043 Y106.736 E12.04537
G1 X106.791 Y106.993 E12.06591
G1 X106.401 Y107.334 E12.09546
G1 X105.964 Y107.61 E12.12496
G1 X105.489 Y107.816 E12.1545
G1 X104.989 Y107.946 E12.18398
G1 X104.547 Y107.995 E12.20935
G1 X104.344 Y108.004 E12.22094
G1 X104.228 Y108.007 E12.22757
G1 X103.915 Y108.01 E12.24543
G1 X103.883 Y108.01 E12.24725
G1 X86.31 Y108.011 E13.24994
G1 X86.262 Y108.011 E13.25268
G1 X85.557 Y108.001 E13.29291
G1 X85.042 Y107.953 E13.32243
G1 X84.541 Y107.827 E13.3519
G1 X84.064 Y107.626 E13.38144
G1 X83.625 Y107.353 E13.41093
G1 X83.232 Y107.015 E13.44051
G1 X82.977 Y106.759 E13.46113
G1 X82.641 Y106.366 E13.49063
G1 X82.37 Y105.925 E13.52017
G1 X82.17 Y105.448 E13.54968
G1 X82.046 Y104.946 E13.57918
G1 X82.002 Y104.511 E13.60413
G1 X81.995 Y104.309 E13.61566
G1 X81.993 Y104.223 E13.62057
G1 X81.99 Y103.883 E13.63997
G1 X81.99 Y103.853 E13.64168
G1 X81.989 Y66.309 E15.78389
G1 X81.989 Y66.261 E15.78663
G1 X81.999 Y65.556 E15.82686
G1 X82.047 Y65.041 E15.85638
G1 X82.173 Y64.54 E15.88585
G1 X82.374 Y64.063 E15.91539
G1 X82.647 Y63.624 E15.94488
G10
;MESH:slidingblocklid.stl
G0 F3600 X85.757 Y65.772
G0 X85.755 Y77.92
G0 X85.835 Y91.223
G0 X85.84 Y92.425
G0 X85.819 Y92.399
;TYPE:WALL-OUTER
G11
G1 F1800 X86.031 Y92.906 E15.97624
G1 X86.366 Y93.341 E16.00757
G1 X86.424 Y93.385 E16.01172
G1 X86.802 Y93.674 E16.03887
G1 X87.31 Y93.883 E16.07021
G1 X87.855 Y93.953 E16.10157
G1 X88.4 Y93.88 E16.13294
G1 X88.906 Y93.669 E16.16422
G1 X89.341 Y93.334 E16.19555
G1 X89.674 Y92.898 E16.22685
G1 X89.883 Y92.39 E16.2582
G1 X89.953 Y91.845 E16.28955
G1 X89.88 Y91.3 E16.32092
G1 X89.669 Y90.794 E16.35221
G1 X89.334 Y90.359 E16.38353
G1 X88.898 Y90.026 E16.41484
G1 X88.39 Y89.817 E16.44618
G1 X87.845 Y89.747 E16.47753
G1 X87.3 Y89.82 E16.50891
G1 X86.794 Y90.031 E16.54019
G1 X86.423 Y90.316 E16.56688
G1 X86.359 Y90.366 E16.57152
G1 X86.026 Y90.802 E16.60282
G1 X85.817 Y91.31 E16.63416
G1 X85.747 Y91.85 E16.66523
G1 X85.819 Y92.399 E16.69683
G0 F3600 X85.973 Y92.768
G0 X85.881 Y92.806
G0 X85.723 Y78.725
G0 X85.819 Y78.699
G1 F1800 X86.031 Y79.206 E16.72818
G1 X86.366 Y79.641 E16.75951
G1 X86.424 Y79.685 E16.76366
G1 X86.802 Y79.974 E16.79081
G1 X87.31 Y80.183 E16.82216
G1 X87.855 Y80.253 E16.85351
G1 X88.4 Y80.18 E16.88488
G1 X88.906 Y79.969 E16.91617
G1 X89.341 Y79.634 E16.94749
G1 X89.674 Y79.198 E16.9788
G1 X89.883 Y78.69 E17.01014
G1 X89.953 Y78.145 E17.04149
G1 X89.88 Y77.6 E17.07287
G1 X89.669 Y77.094 E17.10415
G1 X89.334 Y76.659 E17.13548
G1 X88.898 Y76.326 E17.16678
G1 X88.39 Y76.117 E17.19812
G1 X87.845 Y76.047 E17.22948
G1 X87.3 Y76.12 E17.26085
G1 X86.794 Y76.331 E17.29213
G1 X86.423 Y76.616 E17.31883
G1 X86.359 Y76.666 E17.32346
G1 X86.026 Y77.102 E17.35476
G1 X85.817 Y77.61 E17.38611
G1 X85.747 Y78.15 E17.41718
G1 X85.819 Y78.699 E17.44877
G0 F3600 X85.973 Y79.068
G0 X85.881 Y79.106
G0 X86.783 Y80.008
G0 X87.749 Y80.278
G0 X100.023 Y78.725
G0 X100.119 Y78.699
G1 F1800 X100.331 Y79.206 E17.48013
G1 X100.666 Y79.641 E17.51145
G1 X101.102 Y79.974 E17.54276
G1 X101.61 Y80.183 E17.5741
G1 X102.155 Y80.253 E17.60545
G1 X102.7 Y80.18 E17.63683
G1 X103.206 Y79.969 E17.66811
G1 X103.577 Y79.684 E17.6948
G1 X103.641 Y79.634 E17.69944
G1 X103.974 Y79.198 E17.73074
G1 X104.183 Y78.69 E17.76208
G1 X104.253 Y78.145 E17.79343
G1 X104.18 Y77.6 E17.82481
G1 X103.969 Y77.094 E17.85609
G1 X103.634 Y76.659 E17.88742
G1 X103.576 Y76.615 E17.89157
G1 X103.198 Y76.326 E17.91872
G1 X102.69 Y76.117 E17.95007
G1 X102.145 Y76.047 E17.98142
G1 X101.6 Y76.12 E18.01279
G1 X101.094 Y76.331 E18.04407
G1 X100.659 Y76.666 E18.0754
G1 X100.326 Y77.102 E18.10671
G1 X100.117 Y77.61 E18.13805
G1 X100.047 Y78.15 E18.16912
G1 X100.119 Y78.699 E18.20071
G0 F3600 X100.273 Y79.068
G0 X99.562 Y79.365
G0 X100.023 Y92.425
G0 X100.119 Y92.399
G1 F1800 X100.331 Y92.906 E18.23207
G1 X100.666 Y93.341 E18.2634
G1 X101.102 Y93.674 E18.2947
G1 X101.61 Y93.883 E18.32604
G1 X102.155 Y93.953 E18.35739
G1 X102.7 Y93.88 E18.38877
G1 X103.206 Y93.669 E18.42005
G1 X103.577 Y93.384 E18.44674
G1 X103.641 Y93.334 E18.45138
G1 X103.974 Y92.898 E18.48268
G1 X104.183 Y92.39 E18.51402
G1 X104.253 Y91.845 E18.54538
G1 X104.18 Y91.3 E18.57675
G1 X103.969 Y90.794 E18.60803
G1 X103.634 Y90.359 E18.63936
G1 X103.576 Y90.315 E18.64352
G1 X103.198 Y90.026 E18.67066
G1 X102.69 Y89.817 E18.70201
G1 X102.145 Y89.747 E18.73336
G1 X101.6 Y89.82 E18.76473
G1 X101.094 Y90.031 E18.79602
G1 X100.659 Y90.366 E18.82734
G1 X100.326 Y90.802 E18.85865
G1 X100.117 Y91.31 E18.88999
G1 X100.047 Y91.85 E18.92106
G1 X100.119 Y92.399 E18.95265
G0 F3600 X100.273 Y92.768
G0 X99.562 Y93.065
G0 X101.6 Y93.921
G0 X102.604 Y93.933
G0 X104.16 Y93.415
G0 X104.26 Y93.415
G1 F1800 X104.261 Y104.235 E19.57003
G1 X104.235 Y104.26 E19.57209
G1 X86.097 Y104.261 E20.60702
G1 X85.765 Y104.261 E20.62596
G1 X85.74 Y104.235 E20.62802
G1 X85.74 Y103.903 E20.64696
G1 X85.74 Y93.415 E21.24539
G1 X85.74 Y93.341 E21.24681
G1 X85.74 Y92.906 E21.26246
G1 X85.74 Y92.399 E21.26966
G1 X85.74 Y91.85 E21.27153
G1 X85.74 Y91.31 E21.27333
G1 X85.74 Y90.802 E21.2804
G1 X85.74 Y90.367 E21.2991
G1 X85.74 Y90.285 E21.30353
G1 X85.74 Y79.715 E21.90664
G1 X85.74 Y79.641 E21.90806
G1 X85.74 Y79.206 E21.92371
G1 X85.74 Y78.699 E21.93091
G1 X85.74 Y78.15 E21.93278
G1 X85.74 Y77.61 E21.93458
G1 X85.74 Y77.102 E21.94165
G1 X85.74 Y76.667 E21.96035
G1 X85.74 Y76.585 E21.96478
G1 X85.739 Y65.765 E22.58216
G1 X85.765 Y65.74 E22.58422
G1 X103.903 Y65.739 E23.61915
G1 X104.235 Y65.739 E23.63809
G1 X104.26 Y65.765 E23.64015
G1 X104.26 Y66.097 E23.65909
G1 X104.26 Y76.585 E24.25752
G1 X104.26 Y76.659 E24.25894
G1 X104.26 Y77.094 E24.27458
G1 X104.26 Y77.6 E24.2818
G1 X104.26 Y78.145 E24.28367
G1 X104.26 Y78.69 E24.28549
G1 X104.26 Y79.198 E24.29256
G1 X104.26 Y79.634 E24.30802
G1 X104.26 Y79.716 E24.31246
G1 X104.26 Y90.285 E24.91552
G1 X104.26 Y90.359 E24.91693
G1 X104.26 Y90.794 E24.93258
G1 X104.26 Y91.3 E24.93979
G1 X104.26 Y91.845 E24.94167
G1 X104.26 Y92.39 E24.94348
G1 X104.26 Y92.898 E24.95055
G1 X104.26 Y93.333 E24.96925
G1 X104.26 Y93.415 E24.97369
G0 F3600 X104.26 Y93.815
G0 X103.571 Y94.259
;TYPE:SKIN
G1 F1800 X103.571 Y103.57 E25.50496
G1 X86.43 Y103.571 E26.483
G1 X86.43 Y94.258 E27.01439
G1 X86.455 Y94.277 E27.01618
G1 X87.132 Y94.555 E27.05794
G1 X87.857 Y94.649 E27.09965
G1 X88.582 Y94.552 E27.14139
G1 X89.255 Y94.271 E27.183
G1 X89.834 Y93.825 E27.22471
G1 X90.277 Y93.245 E27.26635
G1 X90.555 Y92.568 E27.30811
G1 X90.649 Y91.843 E27.34982
G1 X90.552 Y91.118 E27.39156
G1 X90.271 Y90.445 E27.43317
G1 X89.825 Y89.866 E27.47487
G1 X89.245 Y89.423 E27.51652
G1 X88.568 Y89.145 E27.55827
G1 X87.843 Y89.051 E27.59999
G1 X87.118 Y89.148 E27.64172
G1 X86.445 Y89.429 E27.68334
G1 X86.43 Y89.441 E27.68443
G1 X86.429 Y80.557 E28.19134
G1 X86.455 Y80.577 E28.19322
G1 X87.132 Y80.855 E28.23497
G1 X87.857 Y80.949 E28.27669
G1 X88.582 Y80.852 E28.31842
G1 X89.255 Y80.571 E28.36004
G1 X89.834 Y80.125 E28.40174
G1 X90.277 Y79.545 E28.44338
G1 X90.555 Y78.868 E28.48514
G1 X90.649 Y78.143 E28.52685
G1 X90.552 Y77.418 E28.56859
G1 X90.271 Y76.745 E28.6102
G1 X89.825 Y76.166 E28.65191
G1 X89.245 Y75.723 E28.69355
G1 X88.568 Y75.445 E28.73531
G1 X87.843 Y75.351 E28.77702
G1 X87.118 Y75.448 E28.81876
G1 X86.429 Y75.741 E28.86148
G1 X86.429 Y66.43 E29.39275
G1 X103.57 Y66.429 E30.37079
G1 X103.57 Y75.742 E30.90218
G1 X103.545 Y75.723 E30.90397
G1 X102.868 Y75.445 E30.94573
G1 X102.143 Y75.351 E30.98745
G1 X101.418 Y75.448 E31.02918
G1 X100.745 Y75.729 E31.0708
G1 X100.166 Y76.175 E31.1125
G1 X99.723 Y76.755 E31.15414
G1 X99.445 Y77.431 E31.19585
G1 X99.351 Y78.15 E31.23722
G1 X99.447 Y78.88 E31.27923
G1 X99.73 Y79.555 E31.321
G1 X100.175 Y80.134 E31.36266
G1 X100.755 Y80.577 E31.40431
G1 X101.432 Y80.855 E31.44606
G1 X102.157 Y80.949 E31.48778
G1 X102.882 Y80.852 E31.52951
G1 X103.555 Y80.571 E31.57113
G1 X103.57 Y80.559 E31.57222
G1 X103.571 Y89.443 E32.07913
G1 X103.545 Y89.423 E32.081
G1 X102.868 Y89.145 E32.12276
G1 X102.143 Y89.051 E32.16448
G1 X101.418 Y89.148 E32.20621
G1 X100.745 Y89.429 E32.24783
G1 X100.166 Y89.875 E32.28953
G1 X99.723 Y90.455 E32.33117
G1 X99.445 Y91.131 E32.37288
G1 X99.351 Y91.85 E32.41425
G1 X99.447 Y92.58 E32.45626
G1 X99.73 Y93.255 E32.49803
G1 X100.175 Y93.834 E32.53969
G1 X100.755 Y94.277 E32.58134
G1 X101.432 Y94.555 E32.6231
G1 X102.157 Y94.649 E32.66481
G1 X102.882 Y94.552 E32.70655
G1 X103.571 Y94.259 E32.74927
G0 F3600 X87.416 Y103.255
G1 F1800 X86.744 Y102.583 E32.80349
G0 F3600 X86.744 Y101.593
G1 F1800 X88.406 Y103.255 E32.9376
G0 F3600 X89.395 Y103.255
G1 F1800 X86.744 Y100.603 E33.15156
G0 F3600 X86.744 Y99.613
G1 F1800 X90.385 Y103.255 E33.44541
G0 F3600 X91.375 Y103.255
G1 F1800 X86.744 Y98.623 E33.81914
G0 F3600 X86.744 Y97.633
G1 F1800 X92.365 Y103.255 E34.27275
G0 F3600 X93.355 Y103.255
G1 F1800 X86.744 Y96.643 E34.80626
G0 F3600 X86.744 Y95.653
G1 F1800 X94.345 Y103.255 E35.41964
G0 F3600 X95.335 Y103.255
G1 F1800 X86.867 Y94.786 E36.10299
G0 F3600 X88.015 Y94.945
G1 F1800 X96.325 Y103.255 E36.77356
G0 F3600 X97.315 Y103.255
G1 F1800 X88.844 Y94.784 E37.45711
G0 F3600 X89.516 Y94.466
G1 F1800 X98.305 Y103.255 E38.16632
G0 F3600 X99.295 Y103.255
G1 F1800 X90.071 Y94.031 E38.91063
G0 F3600 X90.499 Y93.469
G1 F1800 X100.285 Y103.255 E39.7003
G0 F3600 X101.275 Y103.255
G1 F1800 X90.805 Y92.785 E40.54515
G0 F3600 X90.952 Y91.942
G1 F1800 X102.265 Y103.255 E41.45804
G0 F3600 X103.255 Y103.255
G1 F1800 X90.731 Y90.731 E42.46864
G1 X90.608 Y90.608
G0 F3600 X88.968 Y88.968
G1 F1800 X86.744 Y86.744 E42.6481
G0 F3600 X86.744 Y85.754
G1 F1800 X103.255 Y102.265 E43.98042
G0 F3600 X103.255 Y101.275
G1 F1800 X86.743 Y84.763 E45.31283
G0 F3600 X86.743 Y83.773
G1 F1800 X103.255 Y100.285 E46.64523
G0 F3600 X103.255 Y99.295
G1 F1800 X86.743 Y82.783 E47.97764
G0 F3600 X86.743 Y81.793
G1 F1800 X103.255 Y98.305 E49.31005
G0 F3600 X103.255 Y97.315
G1 F1800 X100.154 Y94.214 E49.56028
G0 F3600 X99.789 Y93.85
G1 F1800 X87.109 Y81.169 E50.58351
G0 F3600 X88.155 Y81.226
G1 F1800 X99.072 Y92.142 E51.46439
G0 F3600 X99.118 Y91.199
G1 F1800 X88.956 Y81.037 E52.2844
G0 F3600 X89.607 Y80.697
G1 F1800 X99.376 Y90.467 E53.07273
G0 F3600 X99.771 Y89.871
G1 F1800 X90.14 Y80.241 E53.84984
G0 F3600 X90.563 Y79.673
G1 F1800 X100.279 Y89.389 E54.63386
G0 F3600 X100.901 Y89.021
G1 F1800 X90.851 Y78.972 E55.44478
G0 F3600 X90.957 Y78.087
G1 F1800 X101.666 Y88.797 E56.30897
G0 F3600 X102.659 Y88.8
G1 F1800 X90.617 Y76.757 E57.28072
G1 X90.494 Y76.634
G0 F3600 X89.239 Y75.38
G1 F1800 X86.742 Y72.883 E57.48221
G0 F3600 X86.742 Y71.893
G1 F1800 X103.255 Y88.406 E58.81469
G0 F3600 X103.255 Y87.416
G1 F1800 X86.742 Y70.903 E60.14718
G0 F3600 X86.742 Y69.913
G1 F1800 X103.255 Y86.426 E61.47967
G0 F3600 X103.255 Y85.436
G1 F1800 X86.742 Y68.923 E62.81215
G0 F3600 X86.742 Y67.933
G1 F1800 X103.255 Y84.446 E64.14464
G0 F3600 X103.255 Y83.456
G1 F1800 X100.691 Y80.892 E64.35154
G0 F3600 X102.04 Y81.251
G1 F1800 X103.255 Y82.466 E64.44958
G0 F3600 X103.255 Y81.476
G1 F1800 X102.94 Y81.161 E64.475
G0 F3600 X99.411 Y79.612
G1 F1800 X86.742 Y66.943 E65.4973
G0 F3600 X87.534 Y66.745
G1 F1800 X99.048 Y78.259 E66.4264
G0 F3600 X99.137 Y77.358
G1 F1800 X88.524 Y66.745 E67.2828
G0 F3600 X89.514 Y66.745
G1 F1800 X99.423 Y76.654 E68.08238
G0 F3600 X99.84 Y76.081
G1 F1800 X90.504 Y66.745 E68.83574
G0 F3600 X91.493 Y66.745
G1 F1800 X100.368 Y75.62 E69.55189
G0 F3600 X101.013 Y75.275
G1 F1800 X92.483 Y66.745 E70.2402
G0 F3600 X93.473 Y66.745
G1 F1800 X101.807 Y75.078 E70.91266
G0 F3600 X102.843 Y75.124
G1 F1800 X94.463 Y66.745 E71.58883
G0 F3600 X95.453 Y66.744
G1 F1800 X103.254 Y74.546 E72.21835
G0 F3600 X103.254 Y73.556
G1 F1800 X96.443 Y66.744 E72.76799
G0 F3600 X97.432 Y66.744
G1 F1800 X103.254 Y72.566 E73.23779
G0 F3600 X103.254 Y71.576
G1 F1800 X98.422 Y66.744 E73.6277
G0 F3600 X99.412 Y66.744
G1 F1800 X103.254 Y70.586 E73.93772
G0 F3600 X103.254 Y69.596
G1 F1800 X100.402 Y66.744 E74.16786
G0 F3600 X101.392 Y66.744
G1 F1800 X103.254 Y68.606 E74.31811
G0 F3600 X103.254 Y67.616
G1 F1800 X102.382 Y66.744 E74.38847
G0 F3600 X87.912 Y75.043
G1 F1800 X86.742 Y73.873 E74.48289
G0 F3600 X86.742 Y74.863
G1 F1800 X87.024 Y75.144 E74.5056
G0 F3600 X85.992 Y77.083
G0 X85.707 Y78.15
G0 X86.744 Y87.734
G1 F1800 X87.754 Y88.744 E74.5871
G0 F3600 X86.911 Y88.891
G1 F1800 X86.744 Y88.724 E74.60058
G0 F3600 X101.857 Y94.927
G1 F1800 X103.255 Y96.325 E74.71339
G0 F3600 X103.255 Y95.335
G1 F1800 X102.8 Y94.881 E74.75006
;MESH:NONMESH
