;FLAVOR:Marlin
;TIME:2702
;Filament used: 1.26135m
;Layer height: 0.2
;MINX:81.934
;MINY:61.934
;MINZ:0.28
;MAXX:132.066
;MAXY:108.066
;MAXZ:5.68
;Generated with Cura_SteamEngine 4.1.0
M82 ;absolute extrusion mode
M98 P0:/sys/startprint.g

G92 E0
G92 E0
G10
;LAYER_COUNT:28
;LAYER:0
M107
G0 F3600 X82.594 Y63.565 Z0.28
;TYPE:SKIRT
M220 S50
G11
G1 F1800 X83.013 Y63.075 E0.0099
G1 X83.151 Y62.941 E0.01286
G1 X83.559 Y62.601 E0.02102
G1 X84.013 Y62.326 E0.02917
G1 X84.503 Y62.122 E0.03733
G1 X85.018 Y61.995 E0.04547
G1 X85.492 Y61.947 E0.05279
G1 X85.738 Y61.939 E0.05657
G1 X85.852 Y61.937 E0.05833
G1 X103.665 Y61.934 E0.33197
G1 X103.717 Y61.934 E0.33277
G1 X105.741 Y61.963 E0.36386
G1 X108.477 Y61.963 E0.40589
G1 X109.439 Y61.94 E0.42068
G1 X109.495 Y61.939 E0.42154
G1 X110 Y61.935 E0.42929
G1 X110.028 Y61.935 E0.42972
G1 X127.691 Y61.934 E0.70106
G1 X127.741 Y61.934 E0.70183
G1 X128.445 Y61.944 E0.71265
G1 X128.974 Y61.992 E0.72081
G1 X129.489 Y62.118 E0.72895
G1 X129.98 Y62.32 E0.73711
G1 X130.434 Y62.594 E0.74525
G1 X130.888 Y62.976 E0.75437
G1 X131.023 Y63.111 E0.7573
G1 X131.368 Y63.514 E0.76545
G1 X131.65 Y63.964 E0.77361
G1 X131.861 Y64.451 E0.78176
G1 X131.996 Y64.964 E0.78991
G1 X132.053 Y65.481 E0.7979
G1 X132.061 Y65.71 E0.80142
G1 X132.063 Y65.833 E0.80331
G1 X132.066 Y103.67 E1.38456
G1 X132.066 Y103.719 E1.38531
G1 X132.056 Y104.441 E1.39641
G1 X132.008 Y104.969 E1.40455
G1 X131.882 Y105.485 E1.41271
G1 X131.68 Y105.976 E1.42087
G1 X131.407 Y106.43 E1.429
G1 X131.015 Y106.894 E1.43834
G1 X130.876 Y107.032 E1.44134
G1 X130.472 Y107.376 E1.4495
G1 X130.021 Y107.656 E1.45765
G1 X129.533 Y107.865 E1.46581
G1 X129.02 Y107.999 E1.47395
G1 X128.507 Y108.053 E1.48187
G1 X128.262 Y108.061 E1.48564
G1 X128.148 Y108.063 E1.48739
G1 X110.335 Y108.066 E1.76103
G1 X110.283 Y108.066 E1.76183
G1 X108.259 Y108.037 E1.79293
G1 X105.523 Y108.037 E1.83496
G1 X104.561 Y108.06 E1.84974
G1 X104.505 Y108.061 E1.8506
G1 X104 Y108.065 E1.85836
G1 X103.972 Y108.065 E1.85879
G1 X86.309 Y108.066 E2.13013
G1 X86.259 Y108.066 E2.1309
G1 X85.555 Y108.056 E2.14171
G1 X85.026 Y108.008 E2.14987
G1 X84.511 Y107.882 E2.15802
G1 X84.02 Y107.68 E2.16617
G1 X83.566 Y107.406 E2.17432
G1 X83.076 Y106.987 E2.18422
G1 X82.941 Y106.848 E2.1872
G1 X82.601 Y106.44 E2.19536
G1 X82.326 Y105.987 E2.2035
G1 X82.123 Y105.497 E2.21165
G1 X81.995 Y104.982 E2.2198
G1 X81.947 Y104.51 E2.22709
G1 X81.938 Y104.241 E2.23122
G1 X81.936 Y104.123 E2.23304
G1 X81.934 Y66.309 E2.81393
G1 X81.934 Y66.259 E2.8147
G1 X81.944 Y65.554 E2.82553
G1 X81.992 Y65.025 E2.83369
G1 X82.118 Y64.51 E2.84184
G1 X82.32 Y64.019 E2.84999
G1 X82.594 Y63.565 E2.85814
G0 F3600 X82.94 Y63.684
G1 F1800 X83.257 Y63.326 E2.86548
G1 X83.395 Y63.192 E2.86844
G1 X83.783 Y62.871 E2.87618
G1 X84.217 Y62.615 E2.88392
G1 X84.686 Y62.432 E2.89165
G1 X85.178 Y62.324 E2.89939
G1 X85.504 Y62.297 E2.90441
G1 X85.75 Y62.289 E2.90819
G1 X85.852 Y62.287 E2.90976
G1 X103.665 Y62.284 E3.1834
G1 X103.711 Y62.284 E3.18411
G1 X105.735 Y62.313 E3.21521
G1 X108.485 Y62.313 E3.25745
G1 X109.447 Y62.29 E3.27223
G1 X109.498 Y62.289 E3.27302
G1 X110.003 Y62.285 E3.28078
G1 X110.028 Y62.285 E3.28116
G1 X127.691 Y62.284 E3.5525
G1 X127.736 Y62.284 E3.55319
G1 X128.44 Y62.294 E3.564
G1 X128.941 Y62.341 E3.57173
G1 X129.429 Y62.467 E3.57948
G1 X129.891 Y62.668 E3.58722
G1 X130.315 Y62.94 E3.59496
G1 X130.64 Y63.224 E3.60159
G1 X130.775 Y63.359 E3.60452
G1 X131.102 Y63.742 E3.61226
G1 X131.364 Y64.172 E3.61999
G1 X131.555 Y64.638 E3.62773
G1 X131.669 Y65.129 E3.63547
G1 X131.703 Y65.493 E3.64109
G1 X131.711 Y65.722 E3.64461
G1 X131.713 Y65.833 E3.64631
G1 X131.716 Y103.67 E4.22756
G1 X131.716 Y103.714 E4.22824
G1 X131.706 Y104.436 E4.23933
G1 X131.659 Y104.937 E4.24706
G1 X131.533 Y105.425 E4.2548
G1 X131.332 Y105.887 E4.26254
G1 X131.061 Y106.311 E4.27027
G1 X130.768 Y106.645 E4.2771
G1 X130.629 Y106.783 E4.28011
G1 X130.245 Y107.108 E4.28784
G1 X129.814 Y107.369 E4.29558
G1 X129.347 Y107.558 E4.30332
G1 X128.856 Y107.671 E4.31106
G1 X128.496 Y107.703 E4.31661
G1 X128.251 Y107.711 E4.32037
G1 X128.148 Y107.713 E4.32196
G1 X110.335 Y107.716 E4.5956
G1 X110.289 Y107.716 E4.5963
G1 X108.265 Y107.687 E4.6274
G1 X105.515 Y107.687 E4.66965
G1 X104.553 Y107.71 E4.68443
G1 X104.502 Y107.711 E4.68521
G1 X103.997 Y107.715 E4.69297
G1 X103.972 Y107.715 E4.69335
G1 X86.309 Y107.716 E4.96469
G1 X86.264 Y107.716 E4.96538
G1 X85.56 Y107.706 E4.9762
G1 X85.059 Y107.659 E4.98393
G1 X84.571 Y107.533 E4.99167
G1 X84.109 Y107.332 E4.99941
G1 X83.685 Y107.06 E5.00715
G1 X83.327 Y106.743 E5.0145
G1 X83.192 Y106.604 E5.01747
G1 X82.871 Y106.216 E5.02521
G1 X82.616 Y105.782 E5.03294
G1 X82.432 Y105.313 E5.04068
G1 X82.324 Y104.822 E5.0484
G1 X82.297 Y104.498 E5.0534
G1 X82.288 Y104.229 E5.05753
G1 X82.286 Y104.123 E5.05916
G1 X82.284 Y66.309 E5.64006
G1 X82.284 Y66.264 E5.64075
G1 X82.294 Y65.559 E5.65158
G1 X82.341 Y65.058 E5.65931
G1 X82.467 Y64.57 E5.66705
G1 X82.668 Y64.108 E5.67479
G1 X82.94 Y63.684 E5.68253
G10
;MESH:slidingblocklid.stl
G0 F3600 X84.764 Y66
G0 X85.998 Y65.999
G0 X85.984 Y65.985
;TYPE:WALL-INNER
G11
G1 F1800 X103.841 Y65.984 E5.95685
G1 X104.015 Y65.984 E5.95952
G1 X104.015 Y66.158 E5.96125
G1 X104.015 Y76.514 E6.12034
G1 X104.015 Y76.572 E6.12123
G1 X104.015 Y76.949 E6.12702
G1 X103.724 Y76.572 E6.13072
G1 X103.678 Y76.537 E6.13154
G1 X103.263 Y76.218 E6.13958
G1 X102.725 Y75.996 E6.14852
G1 X102.148 Y75.92 E6.15746
G1 X101.571 Y75.998 E6.16641
G1 X101.033 Y76.22 E6.17535
G1 X100.572 Y76.576 E6.18429
G1 X100.218 Y77.037 E6.19322
G1 X99.996 Y77.575 E6.20216
G1 X99.92 Y78.15 E6.21107
G1 X99.997 Y78.729 E6.22005
G1 X100.22 Y79.267 E6.22899
G1 X100.576 Y79.728 E6.23794
G1 X101.037 Y80.082 E6.24687
G1 X101.575 Y80.304 E6.25581
G1 X102.152 Y80.38 E6.26475
G1 X102.729 Y80.302 E6.2737
G1 X103.267 Y80.08 E6.28264
G1 X103.679 Y79.762 E6.29063
G1 X103.728 Y79.724 E6.29158
G1 X104.015 Y79.35 E6.29883
G1 X104.015 Y79.723 E6.30094
G1 X104.015 Y79.786 E6.30183
G1 X104.015 Y90.213 E6.46201
G1 X104.015 Y90.271 E6.4629
G1 X104.016 Y90.65 E6.46872
G1 X103.724 Y90.272 E6.47242
G1 X103.678 Y90.237 E6.47324
G1 X103.263 Y89.918 E6.48128
G1 X102.725 Y89.696 E6.49023
G1 X102.148 Y89.62 E6.49917
G1 X101.571 Y89.698 E6.50811
G1 X101.033 Y89.92 E6.51705
G1 X100.572 Y90.276 E6.526
G1 X100.218 Y90.737 E6.53493
G1 X99.996 Y91.275 E6.54387
G1 X99.92 Y91.85 E6.55278
G1 X99.997 Y92.429 E6.56175
G1 X100.22 Y92.967 E6.5707
G1 X100.576 Y93.428 E6.57965
G1 X101.037 Y93.782 E6.58857
G1 X101.575 Y94.004 E6.59751
G1 X102.152 Y94.08 E6.60646
G1 X102.729 Y94.002 E6.6154
G1 X103.267 Y93.78 E6.62434
G1 X103.679 Y93.461 E6.63234
G1 X103.728 Y93.424 E6.63329
G1 X104.016 Y93.049 E6.64055
G1 X104.016 Y93.424 E6.64269
G1 X104.016 Y93.486 E6.64357
G1 X104.016 Y104.015 E6.80531
G1 X86.159 Y104.016 E7.07963
G1 X85.985 Y104.016 E7.08231
G1 X85.985 Y103.842 E7.08403
G1 X85.985 Y93.486 E7.24312
G1 X85.985 Y93.428 E7.24401
G1 X85.985 Y93.051 E7.2498
G1 X86.276 Y93.428 E7.2535
G1 X86.322 Y93.463 E7.25432
G1 X86.737 Y93.782 E7.26236
G1 X87.275 Y94.004 E7.2713
G1 X87.852 Y94.08 E7.28024
G1 X88.429 Y94.002 E7.28919
G1 X88.967 Y93.78 E7.29813
G1 X89.428 Y93.424 E7.30708
G1 X89.782 Y92.963 E7.31601
G1 X90.004 Y92.425 E7.32495
G1 X90.08 Y91.848 E7.33389
G1 X90.002 Y91.271 E7.34283
G1 X89.78 Y90.733 E7.35177
G1 X89.424 Y90.272 E7.36072
G1 X88.963 Y89.918 E7.36965
G1 X88.425 Y89.696 E7.37859
G1 X87.848 Y89.62 E7.38753
G1 X87.271 Y89.698 E7.39647
G1 X86.733 Y89.92 E7.40541
G1 X86.321 Y90.238 E7.41341
G1 X86.272 Y90.276 E7.41436
G1 X85.985 Y90.65 E7.4216
G1 X85.985 Y90.277 E7.42372
G1 X85.985 Y90.214 E7.42461
G1 X85.985 Y79.787 E7.58479
G1 X85.985 Y79.729 E7.58568
G1 X85.984 Y79.35 E7.5915
G1 X86.276 Y79.728 E7.5952
G1 X86.322 Y79.763 E7.59602
G1 X86.737 Y80.082 E7.60406
G1 X87.275 Y80.304 E7.613
G1 X87.852 Y80.38 E7.62194
G1 X88.429 Y80.302 E7.63089
G1 X88.967 Y80.08 E7.63983
G1 X89.428 Y79.724 E7.64878
G1 X89.782 Y79.263 E7.65771
G1 X90.004 Y78.725 E7.66665
G1 X90.08 Y78.148 E7.67559
G1 X90.002 Y77.571 E7.68453
G1 X89.78 Y77.033 E7.69347
G1 X89.424 Y76.572 E7.70242
G1 X88.963 Y76.218 E7.71135
G1 X88.425 Y75.996 E7.72029
G1 X87.848 Y75.92 E7.72923
G1 X87.271 Y75.998 E7.73817
G1 X86.733 Y76.22 E7.74711
G1 X86.321 Y76.539 E7.75512
G1 X86.272 Y76.576 E7.75606
G1 X85.984 Y76.951 E7.76333
G1 X85.984 Y76.576 E7.76546
G1 X85.984 Y76.514 E7.76634
G1 X85.984 Y65.985 E7.92809
G0 F3600 X86.054 Y66.055
G0 X90.04 Y77.564
G0 X90.12 Y91.845
G0 X89.816 Y92.981
G0 X88.985 Y93.814
G0 X87.799 Y94.173
G0 X87.852 Y93.752
;TYPE:WALL-OUTER
G1 F1800 X88.344 Y93.686 E7.93571
G1 X88.803 Y93.496 E7.94335
G1 X89.196 Y93.193 E7.95097
G1 X89.498 Y92.799 E7.9586
G1 X89.687 Y92.34 E7.96622
G1 X89.752 Y91.848 E7.97384
G1 X89.686 Y91.356 E7.98147
G1 X89.496 Y90.897 E7.9891
G1 X89.193 Y90.504 E7.99672
G1 X88.799 Y90.202 E8.00435
G1 X88.34 Y90.013 E8.01198
G1 X87.848 Y89.948 E8.0196
G1 X87.356 Y90.014 E8.02723
G1 X86.897 Y90.204 E8.03486
G1 X86.504 Y90.507 E8.04248
G1 X86.202 Y90.901 E8.05011
G1 X86.013 Y91.36 E8.05773
G1 X86.009 Y91.385 E8.05812
G1 X85.948 Y91.85 E8.06533
G1 X86.009 Y92.312 E8.07248
G1 X86.014 Y92.344 E8.07298
G1 X86.204 Y92.803 E8.08061
G1 X86.507 Y93.196 E8.08824
G1 X86.901 Y93.498 E8.09586
G1 X87.36 Y93.687 E8.10349
G1 X87.852 Y93.752 E8.11111
G0 F3600 X88.05 Y93.726
G0 X88.1 Y94.107
G0 X88.104 Y94.147
G0 X88.985 Y93.814
G0 X89.816 Y92.981
G0 X90.12 Y91.845
G0 X87.799 Y80.473
G0 X87.852 Y80.052
G1 F1800 X88.344 Y79.986 E8.11874
G1 X88.803 Y79.796 E8.12637
G1 X89.196 Y79.493 E8.13399
G1 X89.498 Y79.099 E8.14162
G1 X89.687 Y78.64 E8.14924
G1 X89.752 Y78.148 E8.15687
G1 X89.686 Y77.656 E8.16449
G1 X89.496 Y77.197 E8.17212
G1 X89.193 Y76.804 E8.17975
G1 X88.799 Y76.502 E8.18737
G1 X88.34 Y76.313 E8.195
G1 X87.848 Y76.248 E8.20262
G1 X87.356 Y76.314 E8.21025
G1 X86.897 Y76.504 E8.21788
G1 X86.504 Y76.807 E8.2255
G1 X86.202 Y77.201 E8.23313
G1 X86.013 Y77.66 E8.24076
G1 X86.009 Y77.685 E8.24114
G1 X85.948 Y78.15 E8.24835
G1 X86.009 Y78.612 E8.25551
G1 X86.014 Y78.644 E8.25601
G1 X86.204 Y79.103 E8.26364
G1 X86.507 Y79.496 E8.27126
G1 X86.901 Y79.798 E8.27889
G1 X87.36 Y79.987 E8.28651
G1 X87.852 Y80.052 E8.29414
G0 F3600 X88.05 Y80.026
G0 X88.1 Y80.407
G0 X88.104 Y80.447
G0 X102.099 Y80.473
G0 X102.152 Y80.052
G1 F1800 X102.644 Y79.986 E8.30176
G1 X103.103 Y79.796 E8.30939
G1 X103.496 Y79.493 E8.31702
G1 X103.798 Y79.099 E8.32464
G1 X103.987 Y78.64 E8.33227
G1 X103.991 Y78.615 E8.33266
G1 X104.052 Y78.148 E8.33989
G1 X103.991 Y77.688 E8.34702
G1 X103.986 Y77.656 E8.34752
G1 X103.796 Y77.197 E8.35515
G1 X103.493 Y76.804 E8.36277
G1 X103.099 Y76.502 E8.3704
G1 X102.64 Y76.313 E8.37802
G1 X102.148 Y76.248 E8.38565
G1 X101.656 Y76.314 E8.39327
G1 X101.197 Y76.504 E8.4009
G1 X100.804 Y76.807 E8.40853
G1 X100.502 Y77.201 E8.41615
G1 X100.313 Y77.66 E8.42378
G1 X100.248 Y78.15 E8.43137
G1 X100.314 Y78.644 E8.43903
G1 X100.504 Y79.103 E8.44666
G1 X100.807 Y79.496 E8.45428
G1 X101.201 Y79.798 E8.46191
G1 X101.66 Y79.987 E8.46953
G1 X102.152 Y80.052 E8.47716
G0 F3600 X102.35 Y80.026
G0 X102.4 Y80.407
G0 X102.404 Y80.447
G0 X99.958 Y91.268
G0 X99.959 Y92.436
G0 X100.548 Y93.456
G0 X101.173 Y93.879
G0 X102.099 Y94.173
G0 X102.152 Y93.752
G1 F1800 X102.644 Y93.686 E8.48478
G1 X103.103 Y93.496 E8.49242
G1 X103.496 Y93.193 E8.50004
G1 X103.798 Y92.799 E8.50767
G1 X103.987 Y92.34 E8.51529
G1 X103.991 Y92.315 E8.51568
G1 X104.052 Y91.848 E8.52291
G1 X103.991 Y91.388 E8.53004
G1 X103.986 Y91.356 E8.53054
G1 X103.796 Y90.897 E8.53817
G1 X103.493 Y90.504 E8.5458
G1 X103.099 Y90.202 E8.55342
G1 X102.64 Y90.013 E8.56105
G1 X102.148 Y89.948 E8.56867
G1 X101.656 Y90.014 E8.5763
G1 X101.197 Y90.204 E8.58393
G1 X100.804 Y90.507 E8.59155
G1 X100.502 Y90.901 E8.59918
G1 X100.313 Y91.36 E8.6068
G1 X100.248 Y91.85 E8.6144
G1 X100.314 Y92.344 E8.62205
G1 X100.504 Y92.803 E8.62968
G1 X100.807 Y93.196 E8.63731
G1 X101.201 Y93.498 E8.64493
G1 X101.66 Y93.687 E8.65256
G1 X102.152 Y93.752 E8.66018
G0 F3600 X102.35 Y93.726
G0 X102.4 Y94.107
G0 X102.404 Y94.147
G0 X103.598 Y93.556
G0 X104.24 Y92.317
G0 X104.34 Y92.318
G1 F1800 X104.341 Y104.317 E8.84451
G1 X104.317 Y104.34 E8.84502
G1 X85.841 Y104.341 E9.12885
G1 X85.683 Y104.341 E9.13128
G1 X85.66 Y104.317 E9.13179
G1 X85.66 Y104.159 E9.13421
G1 X85.66 Y92.317 E9.31613
G1 X85.66 Y91.851 E9.32266
G1 X85.66 Y91.382 E9.32922
G1 X85.66 Y78.617 E9.52532
G1 X85.66 Y78.151 E9.53185
G1 X85.66 Y77.682 E9.53841
G1 X85.659 Y65.683 E9.72274
G1 X85.683 Y65.66 E9.72325
G1 X104.159 Y65.659 E10.00708
G1 X104.317 Y65.659 E10.00951
G1 X104.34 Y65.683 E10.01002
G1 X104.34 Y65.841 E10.01245
G1 X104.34 Y77.684 E10.19438
G1 X104.34 Y78.148 E10.20088
G1 X104.34 Y78.619 E10.20747
G1 X104.34 Y91.383 E10.40355
G1 X104.34 Y91.847 E10.41005
G1 X104.34 Y92.318 E10.41665
G0 F3600 X104.34 Y92.518
G0 X104.24 Y92.517
G0 X103.676 Y93.894
;TYPE:SKIN
G1 F1800 X103.676 Y103.675 E10.5669
G1 X86.325 Y103.676 E10.83345
G1 X86.325 Y93.894 E10.98372
G1 X86.566 Y94.079 E10.98838
G1 X87.186 Y94.336 E10.9987
G1 X87.852 Y94.423 E11.00901
G1 X88.518 Y94.333 E11.01934
G1 X89.138 Y94.077 E11.02964
G1 X89.671 Y93.667 E11.03997
G1 X90.079 Y93.134 E11.05028
G1 X90.336 Y92.514 E11.06059
G1 X90.423 Y91.848 E11.07091
G1 X90.333 Y91.182 E11.08124
G1 X90.077 Y90.562 E11.09154
G1 X89.667 Y90.029 E11.10187
G1 X89.134 Y89.621 E11.11218
G1 X88.514 Y89.364 E11.12249
G1 X87.848 Y89.277 E11.13281
G1 X87.182 Y89.367 E11.14313
G1 X86.562 Y89.623 E11.15344
G1 X86.325 Y89.805 E11.15803
G1 X86.324 Y80.193 E11.30569
G1 X86.566 Y80.379 E11.31038
G1 X87.186 Y80.636 E11.32069
G1 X87.852 Y80.723 E11.331
G1 X88.518 Y80.633 E11.34133
G1 X89.138 Y80.377 E11.35163
G1 X89.671 Y79.967 E11.36196
G1 X90.079 Y79.434 E11.37227
G1 X90.336 Y78.814 E11.38258
G1 X90.423 Y78.148 E11.3929
G1 X90.333 Y77.482 E11.40323
G1 X90.077 Y76.862 E11.41353
G1 X89.667 Y76.329 E11.42386
G1 X89.134 Y75.921 E11.43417
G1 X88.514 Y75.664 E11.44448
G1 X87.848 Y75.577 E11.4548
G1 X87.182 Y75.667 E11.46513
G1 X86.562 Y75.923 E11.47543
G1 X86.324 Y76.106 E11.48004
G1 X86.324 Y66.325 E11.6303
G1 X103.675 Y66.324 E11.89684
G1 X103.675 Y76.106 E12.04711
G1 X103.434 Y75.921 E12.05178
G1 X102.814 Y75.664 E12.06209
G1 X102.148 Y75.577 E12.07241
G1 X101.482 Y75.667 E12.08273
G1 X100.862 Y75.923 E12.09304
G1 X100.329 Y76.333 E12.10337
G1 X99.921 Y76.866 E12.11368
G1 X99.665 Y77.486 E12.12398
G1 X99.577 Y78.15 E12.13427
G1 X99.666 Y78.818 E12.14462
G1 X99.923 Y79.439 E12.15495
G1 X100.334 Y79.971 E12.16528
G1 X100.866 Y80.379 E12.17558
G1 X101.486 Y80.636 E12.18589
G1 X102.152 Y80.723 E12.1962
G1 X102.818 Y80.633 E12.20653
G1 X103.438 Y80.377 E12.21683
G1 X103.675 Y80.195 E12.22142
G1 X103.676 Y89.807 E12.36908
G1 X103.434 Y89.621 E12.37377
G1 X102.814 Y89.364 E12.38408
G1 X102.148 Y89.277 E12.3944
G1 X101.482 Y89.367 E12.40472
G1 X100.862 Y89.623 E12.41503
G1 X100.329 Y90.033 E12.42536
G1 X99.921 Y90.566 E12.43567
G1 X99.665 Y91.186 E12.44597
G1 X99.577 Y91.85 E12.45626
G1 X99.666 Y92.518 E12.46662
G1 X99.923 Y93.139 E12.47694
G1 X100.334 Y93.671 E12.48727
G1 X100.866 Y94.079 E12.49757
G1 X101.486 Y94.336 E12.50788
G1 X102.152 Y94.423 E12.51819
G1 X102.818 Y94.333 E12.52852
G1 X103.438 Y94.077 E12.53882
G1 X103.676 Y93.894 E12.54344
G0 F3600 X86.688 Y103.517
G1 F1800 X86.481 Y103.311 E12.54792
G0 F3600 X86.481 Y102.816
G1 F1800 X87.183 Y103.517 E12.56316
G0 F3600 X87.678 Y103.517
G1 F1800 X86.481 Y102.321 E12.58916
G0 F3600 X86.481 Y101.826
G1 F1800 X88.173 Y103.517 E12.6259
G0 F3600 X88.668 Y103.517
G1 F1800 X86.481 Y101.331 E12.67341
G0 F3600 X86.481 Y100.836
G1 F1800 X89.163 Y103.517 E12.73166
G0 F3600 X89.658 Y103.517
G1 F1800 X86.481 Y100.341 E12.80067
G0 F3600 X86.481 Y99.846
G1 F1800 X90.153 Y103.517 E12.88043
G0 F3600 X90.648 Y103.517
G1 F1800 X86.481 Y99.351 E12.97095
G0 F3600 X86.481 Y98.856
G1 F1800 X91.143 Y103.517 E13.07222
G0 F3600 X91.638 Y103.517
G1 F1800 X86.481 Y98.361 E13.18425
G0 F3600 X86.481 Y97.866
G1 F1800 X92.133 Y103.517 E13.30703
G0 F3600 X92.628 Y103.517
G1 F1800 X86.481 Y97.371 E13.44056
G0 F3600 X86.481 Y96.876
G1 F1800 X93.123 Y103.517 E13.58485
