;FLAVOR:Marlin
;TIME:4820
;Filament used: 2.38357m
;Layer height: 0.4
;MINX:57.037
;MINY:79.052
;MINZ:0.52
;MAXX:104.955
;MAXY:140.287
;MAXZ:38.92
;Generated with Cura_SteamEngine 4.1.0
M82 ;absolute extrusion mode
M98 P0:/sys/startprint.g

G92 E0
G92 E0
G10
;LAYER_COUNT:97
;LAYER:0
M107
G0 F3600 X68.754 Y81.089 Z0.52
;TYPE:SKIRT
G11
G1 F1800 X69.253 Y80.7 E0.0361
G1 X69.574 Y80.474 E0.0585
G1 X69.79 Y80.337 E0.0731
G1 X70.016 Y80.203 E0.08809
G1 X70.391 Y79.998 E0.11247
G1 X70.832 Y79.791 E0.14027
G1 X71.383 Y79.571 E0.17412
G1 X71.743 Y79.446 E0.19587
G1 X71.937 Y79.389 E0.2074
G1 X72.123 Y79.339 E0.21839
G1 X72.51 Y79.245 E0.24112
G1 X72.846 Y79.179 E0.26066
G1 X73.046 Y79.148 E0.2722
G1 X73.231 Y79.123 E0.28286
G1 X73.629 Y79.08 E0.3057
G1 X73.951 Y79.059 E0.32411
G1 X74.166 Y79.053 E0.33638
G1 X74.365 Y79.052 E0.34774
G1 X74.742 Y79.06 E0.36925
G1 X75.063 Y79.079 E0.3876
G1 X75.281 Y79.101 E0.4001
G1 X75.486 Y79.127 E0.41189
G1 X75.846 Y79.182 E0.43267
G1 X76.132 Y79.237 E0.44929
G1 X76.343 Y79.285 E0.46164
G1 X76.565 Y79.342 E0.47472
G1 X76.975 Y79.46 E0.49906
G1 X77.321 Y79.577 E0.5199
G1 X77.509 Y79.65 E0.53141
G1 X77.654 Y79.709 E0.54034
G1 X78 Y79.859 E0.56186
G1 X78.404 Y80.062 E0.58765
G1 X78.941 Y80.37 E0.62298
G1 X79.299 Y80.601 E0.64729
G1 X79.476 Y80.729 E0.65975
G1 X79.61 Y80.83 E0.66933
G1 X79.893 Y81.053 E0.68988
G1 X80.14 Y81.265 E0.70846
G1 X80.306 Y81.419 E0.72138
G1 X80.456 Y81.565 E0.73332
G1 X80.732 Y81.849 E0.75592
G1 X80.962 Y82.106 E0.7756
G1 X81.093 Y82.266 E0.78739
G1 X81.204 Y82.409 E0.79772
G1 X81.611 Y82.954 E0.83654
G1 X83.266 Y85.103 E0.9913
G1 X84.972 Y87.195 E1.14533
G1 X86.771 Y89.277 E1.30233
G1 X88.591 Y91.267 E1.4562
G1 X90.486 Y93.225 E1.61168
G1 X92.42 Y95.113 E1.76589
G1 X94.416 Y96.956 E1.92091
G1 X96.455 Y98.731 E2.07516
G1 X98.554 Y100.459 E2.23029
G1 X101.391 Y102.643 E2.43457
G1 X101.523 Y102.749 E2.44423
G1 X102.076 Y103.213 E2.48542
G1 X102.455 Y103.575 E2.51533
G1 X102.909 Y104.069 E2.55361
G1 X103.188 Y104.408 E2.57866
G1 X103.311 Y104.575 E2.5905
G1 X103.438 Y104.758 E2.60321
G1 X103.662 Y105.1 E2.62653
G1 X103.899 Y105.513 E2.6537
G1 X104.171 Y106.059 E2.68851
G1 X104.372 Y106.538 E2.71815
G1 X104.57 Y107.109 E2.75263
G1 X104.71 Y107.613 E2.78248
G1 X104.832 Y108.201 E2.81674
G1 X104.896 Y108.621 E2.84099
G1 X104.917 Y108.831 E2.85303
G1 X104.929 Y108.979 E2.8615
G1 X104.953 Y109.36 E2.88328
G1 X104.955 Y109.843 E2.91084
G1 X104.92 Y110.465 E2.94639
G1 X104.856 Y110.985 E2.97628
G1 X104.746 Y111.57 E3.01025
G1 X104.618 Y112.072 E3.03981
G1 X104.437 Y112.63 E3.07328
G1 X104.295 Y113.005 E3.09616
G1 X104.21 Y113.199 E3.10824
G1 X104.131 Y113.369 E3.11894
G1 X103.958 Y113.719 E3.14122
G1 X103.807 Y113.997 E3.15927
G1 X103.698 Y114.18 E3.17142
G1 X103.594 Y114.344 E3.1825
G1 X103.38 Y114.667 E3.20461
G1 X103.098 Y115.043 E3.23143
G1 X102.707 Y115.506 E3.26601
G1 X102.446 Y115.787 E3.28789
G1 X102.303 Y115.927 E3.29931
G1 X102.141 Y116.077 E3.31191
G1 X101.831 Y116.349 E3.33544
G1 X101.581 Y116.552 E3.35381
G1 X101.345 Y116.728 E3.37061
G1 X99.174 Y118.386 E3.52648
G1 X97.077 Y120.084 E3.68044
G1 X95.007 Y121.858 E3.83599
G1 X92.99 Y123.689 E3.99142
G1 X91.048 Y125.555 E4.14509
G1 X89.143 Y127.49 E4.30003
G1 X87.296 Y129.478 E4.45486
G1 X85.495 Y131.531 E4.61069
G1 X83.784 Y133.593 E4.76358
G1 X81.108 Y137.054 E5.0132
G1 X80.829 Y137.377 E5.03755
G1 X80.401 Y137.824 E5.07287
G1 X80.121 Y138.09 E5.0949
G1 X79.961 Y138.228 E5.10696
G1 X79.802 Y138.358 E5.11868
G1 X79.519 Y138.578 E5.13913
G1 X79.275 Y138.754 E5.1563
G1 X79.096 Y138.873 E5.16856
G1 X78.901 Y138.995 E5.18168
G1 X78.551 Y139.2 E5.20483
G1 X78.283 Y139.343 E5.22216
G1 X78.103 Y139.431 E5.23359
G1 X77.911 Y139.519 E5.24564
G1 X77.533 Y139.68 E5.26909
G1 X77.098 Y139.837 E5.29548
G1 X76.535 Y140.004 E5.32898
G1 X76.159 Y140.096 E5.35107
G1 X75.949 Y140.137 E5.36328
G1 X75.754 Y140.17 E5.37456
G1 X75.361 Y140.227 E5.39722
G1 X75.041 Y140.261 E5.41558
G1 X74.824 Y140.275 E5.42799
G1 X74.605 Y140.283 E5.44049
G1 X74.215 Y140.287 E5.46275
G1 X73.891 Y140.277 E5.48124
G1 X73.676 Y140.262 E5.49354
G1 X73.482 Y140.244 E5.50466
G1 X73.093 Y140.198 E5.52701
G1 X72.632 Y140.116 E5.55373
G1 X72.052 Y139.978 E5.58774
G1 X71.576 Y139.834 E5.61612
G1 X71.122 Y139.665 E5.64376
G1 X70.71 Y139.485 E5.66941
G1 X70.072 Y139.163 E5.71019
G1 X69.673 Y138.932 E5.7365
G1 X69.498 Y138.817 E5.74845
G1 X69.313 Y138.687 E5.76135
G1 X69.009 Y138.462 E5.78293
G1 X68.772 Y138.273 E5.80022
G1 X68.597 Y138.122 E5.81341
G1 X68.434 Y137.974 E5.82598
G1 X68.246 Y137.793 E5.84087
G1 X68.08 Y137.623 E5.85442
G1 X67.451 Y136.942 E5.90732
G1 X67.345 Y136.823 E5.91641
G1 X66.223 Y135.508 E6.01504
G1 X66.149 Y135.419 E6.02165
G1 X65.955 Y135.178 E6.0393
G1 X65.899 Y135.106 E6.04451
G1 X65.141 Y134.12 E6.11547
G1 X65.084 Y134.045 E6.12084
G1 X64.939 Y133.847 E6.13485
G1 X64.896 Y133.786 E6.13911
G1 X64.086 Y132.636 E6.21937
G1 X63.995 Y132.501 E6.22866
G1 X63.278 Y131.391 E6.30406
G1 X63.191 Y131.251 E6.31346
G1 X62.341 Y129.809 E6.40897
G1 X62.258 Y129.662 E6.4186
G1 X61.526 Y128.293 E6.50718
G1 X61.449 Y128.14 E6.51695
G1 X60.669 Y126.52 E6.61955
G1 X60.61 Y126.391 E6.62764
G1 X60.243 Y125.555 E6.67973
G1 X60.168 Y125.374 E6.69091
G1 X59.378 Y123.309 E6.81707
G1 X59.326 Y123.163 E6.82591
G1 X59.024 Y122.273 E6.87954
G1 X58.966 Y122.09 E6.89049
G1 X58.351 Y119.948 E7.01765
G1 X58.313 Y119.806 E7.02604
G1 X58.095 Y118.928 E7.07765
G1 X58.07 Y118.821 E7.08392
G1 X57.952 Y118.284 E7.1153
G1 X57.938 Y118.215 E7.11931
G1 X57.729 Y117.178 E7.17967
G1 X57.707 Y117.059 E7.18658
G1 X57.62 Y116.549 E7.2161
G1 X57.612 Y116.501 E7.21887
G1 X57.444 Y115.44 E7.28017
G1 X57.427 Y115.325 E7.2868
G1 X57.364 Y114.836 E7.31493
G1 X57.357 Y114.779 E7.31821
G1 X57.235 Y113.713 E7.37943
G1 X57.224 Y113.598 E7.38602
G1 X57.18 Y113.085 E7.4154
G1 X57.175 Y113.028 E7.41867
G1 X57.099 Y111.967 E7.47936
G1 X57.093 Y111.851 E7.48599
G1 X57.07 Y111.312 E7.51677
G1 X57.068 Y111.252 E7.5202
G1 X57.04 Y110.253 E7.57722
G1 X57.038 Y110.156 E7.58276
G1 X57.037 Y109.908 E7.59691
G1 X57.038 Y109.81 E7.6025
G1 X57.076 Y107.933 E7.70962
G1 X57.081 Y107.802 E7.7171
G1 X57.124 Y106.984 E7.76384
G1 X57.13 Y106.892 E7.7691
G1 X57.175 Y106.297 E7.80315
G1 X57.182 Y106.211 E7.80807
G1 X57.279 Y105.212 E7.86534
G1 X57.288 Y105.126 E7.87027
G1 X57.353 Y104.578 E7.90176
G1 X57.365 Y104.488 E7.90694
G1 X57.521 Y103.385 E7.9705
G1 X57.534 Y103.302 E7.9753
G1 X57.609 Y102.841 E8.00195
G1 X57.624 Y102.754 E8.00698
G1 X57.813 Y101.733 E8.06623
G1 X57.829 Y101.651 E8.071
G1 X57.938 Y101.123 E8.10176
G1 X57.957 Y101.032 E8.10706
G1 X58.208 Y99.943 E8.17083
G1 X58.23 Y99.854 E8.17606
G1 X58.343 Y99.41 E8.2022
G1 X58.363 Y99.334 E8.20669
G1 X58.664 Y98.241 E8.27137
G1 X58.686 Y98.165 E8.27589
G1 X58.801 Y97.777 E8.29898
G1 X58.829 Y97.686 E8.30441
G1 X59.197 Y96.544 E8.37287
G1 X59.227 Y96.455 E8.37823
G1 X59.354 Y96.09 E8.40028
G1 X59.381 Y96.014 E8.40488
G1 X59.821 Y94.826 E8.47717
G1 X59.853 Y94.743 E8.48225
G1 X59.961 Y94.47 E8.499
G1 X59.993 Y94.392 E8.50381
G1 X60.467 Y93.263 E8.57367
G1 X60.501 Y93.184 E8.57858
G1 X60.667 Y92.811 E8.60188
G1 X60.706 Y92.726 E8.60721
G1 X61.214 Y91.652 E8.675
G1 X61.253 Y91.573 E8.68003
G1 X61.423 Y91.233 E8.70172
G1 X61.459 Y91.162 E8.70626
G1 X62.029 Y90.076 E8.77625
G1 X62.063 Y90.013 E8.78033
G1 X62.213 Y89.739 E8.79815
G1 X62.266 Y89.645 E8.80431
G1 X62.928 Y88.509 E8.87933
G1 X62.977 Y88.427 E8.88478
G1 X63.119 Y88.196 E8.90025
G1 X63.16 Y88.13 E8.90469
G1 X63.876 Y87.014 E8.98034
G1 X63.968 Y86.878 E8.98971
G1 X64.898 Y85.55 E9.08222
G1 X64.997 Y85.414 E9.09182
G1 X65.941 Y84.179 E9.18051
G1 X66.069 Y84.02 E9.19216
G1 X67.358 Y82.499 E9.30592
G1 X67.454 Y82.389 E9.31425
G1 X67.946 Y81.849 E9.35593
G1 X68.066 Y81.723 E9.36586
G1 X68.21 Y81.578 E9.37752
G1 X68.324 Y81.468 E9.38656
G1 X68.484 Y81.319 E9.39904
G1 X68.754 Y81.089 E9.41927
G0 F3600 X69.184 Y81.641
G1 F1800 X69.683 Y81.252 E9.45538
G1 X69.949 Y81.065 E9.47393
G1 X70.165 Y80.928 E9.48852
G1 X70.352 Y80.818 E9.5009
G1 X70.727 Y80.613 E9.52529
G1 X71.092 Y80.441 E9.54831
G1 X71.643 Y80.221 E9.58216
G1 X71.941 Y80.118 E9.60015
G1 X72.135 Y80.061 E9.61169
G1 X72.288 Y80.02 E9.62073
G1 X72.675 Y79.926 E9.64345
G1 X72.953 Y79.871 E9.65962
G1 X73.153 Y79.84 E9.67117
G1 X73.306 Y79.819 E9.67998
G1 X73.704 Y79.776 E9.70282
G1 X73.971 Y79.758 E9.71809
G1 X74.186 Y79.752 E9.73037
G1 X74.35 Y79.752 E9.73972
G1 X74.727 Y79.76 E9.76124
G1 X74.992 Y79.776 E9.77639
G1 X75.21 Y79.798 E9.78889
G1 X75.38 Y79.819 E9.79866
G1 X75.74 Y79.874 E9.81944
G1 X75.977 Y79.919 E9.83321
G1 X76.188 Y79.967 E9.84555
G1 X76.372 Y80.015 E9.8564
G1 X76.782 Y80.133 E9.88075
G1 X77.068 Y80.229 E9.89796
G1 X77.256 Y80.302 E9.90947
G1 X77.375 Y80.351 E9.91681
G1 X77.721 Y80.501 E9.93833
G1 X78.056 Y80.669 E9.95971
G1 X78.593 Y80.977 E9.99504
G1 X78.889 Y81.168 E10.01514
G1 X79.066 Y81.296 E10.0276
G1 X79.176 Y81.38 E10.0355
G1 X79.459 Y81.603 E10.05606
G1 X79.664 Y81.778 E10.07143
G1 X79.83 Y81.932 E10.08435
G1 X79.954 Y82.053 E10.09424
G1 X80.23 Y82.337 E10.11684
G1 X80.42 Y82.55 E10.13312
G1 X80.551 Y82.71 E10.14492
G1 X80.643 Y82.827 E10.15341
G1 X81.048 Y83.369 E10.19202
G1 X82.729 Y85.553 E10.34928
G1 X84.446 Y87.658 E10.50427
G1 X86.236 Y89.73 E10.66051
G1 X88.084 Y91.75 E10.81672
G1 X89.989 Y93.718 E10.973
G1 X91.932 Y95.615 E11.12795
G1 X93.959 Y97.486 E11.28534
G1 X96.009 Y99.271 E11.44044
G1 X98.112 Y101.002 E11.59586
G1 X100.964 Y103.198 E11.80124
G1 X101.073 Y103.286 E11.80923
G1 X101.626 Y103.75 E11.85042
G1 X101.94 Y104.049 E11.87516
G1 X102.394 Y104.543 E11.91344
G1 X102.624 Y104.823 E11.93412
G1 X102.747 Y104.99 E11.94595
G1 X102.852 Y105.142 E11.95649
G1 X103.076 Y105.484 E11.97982
G1 X103.273 Y105.825 E12.00229
G1 X103.545 Y106.371 E12.0371
G1 X103.711 Y106.767 E12.0616
G1 X103.909 Y107.338 E12.09608
G1 X104.024 Y107.755 E12.12076
G1 X104.146 Y108.343 E12.15503
G1 X104.199 Y108.691 E12.17511
G1 X104.22 Y108.901 E12.18716
G1 X104.23 Y109.023 E12.19414
G1 X104.254 Y109.404 E12.21592
G1 X104.256 Y109.803 E12.23869
G1 X104.221 Y110.425 E12.27424
G1 X104.168 Y110.856 E12.29901
G1 X104.058 Y111.441 E12.33298
G1 X103.953 Y111.856 E12.3574
G1 X103.772 Y112.414 E12.39087
G1 X103.653 Y112.724 E12.40982
G1 X103.568 Y112.918 E12.42191
G1 X103.503 Y113.058 E12.43071
G1 X103.33 Y113.408 E12.45299
G1 X103.205 Y113.638 E12.46793
G1 X103.096 Y113.821 E12.48008
G1 X103.011 Y113.957 E12.48923
G1 X102.797 Y114.28 E12.51134
G1 X102.563 Y114.591 E12.53355
G1 X102.172 Y115.054 E12.56813
G1 X101.957 Y115.287 E12.58622
G1 X101.814 Y115.427 E12.59763
G1 X101.679 Y115.551 E12.60809
G1 X101.369 Y115.823 E12.63162
G1 X101.163 Y115.99 E12.64676
G1 X100.927 Y116.166 E12.66355
G1 X98.768 Y117.815 E12.81857
G1 X96.622 Y119.552 E12.9761
G1 X94.537 Y121.339 E13.13278
G1 X92.531 Y123.16 E13.28737
G1 X90.555 Y125.059 E13.44374
G1 X88.626 Y127.018 E13.60062
G1 X86.77 Y129.016 E13.75622
G1 X84.959 Y131.08 E13.91289
G1 X83.229 Y133.165 E14.06748
G1 X80.554 Y136.625 E14.31702
G1 X80.324 Y136.893 E14.33717
G1 X79.896 Y137.34 E14.37249
G1 X79.664 Y137.56 E14.39073
G1 X79.504 Y137.698 E14.40279
G1 X79.372 Y137.806 E14.41252
G1 X79.089 Y138.026 E14.43297
G1 X78.888 Y138.171 E14.44711
G1 X78.709 Y138.29 E14.45938
G1 X78.547 Y138.391 E14.47027
G1 X78.197 Y138.596 E14.49341
G1 X77.975 Y138.715 E14.50778
G1 X77.795 Y138.803 E14.51922
G1 X77.637 Y138.875 E14.52912
G1 X77.259 Y139.036 E14.55257
G1 X76.899 Y139.166 E14.57441
G1 X76.336 Y139.333 E14.60791
G1 X76.025 Y139.409 E14.62618
G1 X75.815 Y139.45 E14.63839
G1 X75.654 Y139.477 E14.64771
G1 X75.261 Y139.534 E14.67036
G1 X74.996 Y139.562 E14.68557
G1 X74.779 Y139.576 E14.69798
G1 X74.597 Y139.583 E14.70837
G1 X74.207 Y139.587 E14.73062
G1 X73.94 Y139.579 E14.74586
G1 X73.725 Y139.564 E14.75816
G1 X73.565 Y139.549 E14.76733
G1 X73.176 Y139.503 E14.78968
G1 X72.794 Y139.435 E14.81182
G1 X72.214 Y139.297 E14.84584
G1 X71.82 Y139.178 E14.86932
G1 X71.366 Y139.009 E14.89696
G1 X71.026 Y138.86 E14.91814
G1 X70.388 Y138.538 E14.95892
G1 X70.057 Y138.347 E14.98073
G1 X69.882 Y138.232 E14.99268
G1 X69.729 Y138.125 E15.00333
G1 X69.425 Y137.9 E15.02491
G1 X69.23 Y137.743 E15.03919
G1 X69.055 Y137.592 E15.05238
G1 X68.92 Y137.469 E15.0628
G1 X68.732 Y137.288 E15.07769
G1 X68.594 Y137.148 E15.08891
G1 X67.965 Y136.467 E15.1418
G1 X67.878 Y136.368 E15.14932
G1 X66.756 Y135.053 E15.24796
G1 X66.694 Y134.98 E15.25342
G1 X66.5 Y134.739 E15.27108
G1 X66.454 Y134.68 E15.27534
G1 X65.696 Y133.694 E15.34631
G1 X65.649 Y133.631 E15.35079
G1 X65.504 Y133.433 E15.3648
G1 X65.468 Y133.383 E15.36831
G1 X64.658 Y132.233 E15.44857
G1 X64.583 Y132.122 E15.45621
G1 X63.866 Y131.012 E15.53161
G1 X63.794 Y130.895 E15.53945
G1 X62.944 Y129.453 E15.63496
G1 X62.876 Y129.332 E15.64288
G1 X62.144 Y127.963 E15.73146
G1 X62.08 Y127.836 E15.73957
G1 X61.3 Y126.216 E15.84217
G1 X61.251 Y126.11 E15.84883
G1 X60.884 Y125.274 E15.90092
G1 X60.822 Y125.124 E15.91019
G1 X60.032 Y123.059 E16.03634
G1 X59.989 Y122.938 E16.04367
G1 X59.687 Y122.048 E16.09729
G1 X59.639 Y121.896 E16.10639
G1 X59.024 Y119.754 E16.23355
G1 X58.993 Y119.637 E16.24045
G1 X58.775 Y118.759 E16.29207
G1 X58.754 Y118.671 E16.29723
G1 X58.636 Y118.134 E16.3286
G1 X58.624 Y118.077 E16.33193
G1 X58.415 Y117.04 E16.39229
G1 X58.397 Y116.941 E16.39803
G1 X58.31 Y116.431 E16.42755
G1 X58.303 Y116.392 E16.42981
G1 X58.135 Y115.331 E16.4911
G1 X58.121 Y115.235 E16.49664
G1 X58.058 Y114.746 E16.52477
G1 X58.053 Y114.699 E16.52747
G1 X57.931 Y113.633 E16.58869
G1 X57.921 Y113.538 E16.59414
G1 X57.877 Y113.025 E16.62352
G1 X57.874 Y112.978 E16.62621
G1 X57.798 Y111.917 E16.6869
G1 X57.792 Y111.821 E16.69239
G1 X57.769 Y111.282 E16.72317
G1 X57.767 Y111.233 E16.72597
G1 X57.739 Y110.234 E16.78299
G1 X57.738 Y110.154 E16.78756
G1 X57.737 Y109.906 E16.80171
G1 X57.738 Y109.824 E16.80639
G1 X57.776 Y107.947 E16.91351
G1 X57.78 Y107.839 E16.91968
G1 X57.823 Y107.021 E16.96641
G1 X57.828 Y106.944 E16.97082
G1 X57.873 Y106.349 E17.00486
G1 X57.879 Y106.278 E17.00893
G1 X57.976 Y105.279 E17.0662
G1 X57.983 Y105.208 E17.07027
G1 X58.048 Y104.66 E17.10176
G1 X58.058 Y104.586 E17.10602
G1 X58.214 Y103.483 E17.16958
G1 X58.224 Y103.414 E17.17356
G1 X58.299 Y102.953 E17.20021
G1 X58.312 Y102.881 E17.20438
G1 X58.501 Y101.86 E17.26363
G1 X58.514 Y101.793 E17.26752
G1 X58.623 Y101.265 E17.29829
G1 X58.64 Y101.19 E17.30267
G1 X58.891 Y100.101 E17.36644
G1 X58.908 Y100.027 E17.37077
G1 X59.021 Y99.583 E17.39691
G1 X59.038 Y99.52 E17.40064
G1 X59.339 Y98.427 E17.46532
G1 X59.357 Y98.364 E17.46906
G1 X59.472 Y97.976 E17.49215
G1 X59.495 Y97.901 E17.49663
G1 X59.863 Y96.759 E17.56509
G1 X59.888 Y96.685 E17.56955
G1 X60.015 Y96.32 E17.5916
G1 X60.038 Y96.257 E17.59543
G1 X60.478 Y95.069 E17.66771
G1 X60.504 Y95.001 E17.67186
G1 X60.612 Y94.728 E17.68862
G1 X60.638 Y94.663 E17.69261
G1 X61.112 Y93.534 E17.76248
G1 X61.14 Y93.469 E17.76652
G1 X61.306 Y93.096 E17.78981
G1 X61.339 Y93.026 E17.79423
G1 X61.847 Y91.952 E17.86202
G1 X61.879 Y91.886 E17.8662
G1 X62.049 Y91.546 E17.88789
G1 X62.079 Y91.487 E17.89167
G1 X62.649 Y90.401 E17.96165
G1 X62.677 Y90.349 E17.96502
G1 X62.827 Y90.075 E17.98284
G1 X62.871 Y89.997 E17.98795
G1 X63.533 Y88.861 E18.06298
G1 X63.573 Y88.794 E18.06743
G1 X63.715 Y88.563 E18.0829
G1 X63.749 Y88.508 E18.08659
G1 X64.465 Y87.392 E18.16225
G1 X64.541 Y87.279 E18.17002
G1 X65.471 Y85.951 E18.26252
G1 X65.553 Y85.839 E18.27044
G1 X66.497 Y84.604 E18.35914
G1 X66.603 Y84.472 E18.3688
G1 X67.892 Y82.951 E18.48256
G1 X67.972 Y82.861 E18.48943
G1 X68.464 Y82.321 E18.53111
G1 X68.563 Y82.216 E18.53935
G1 X68.707 Y82.071 E18.55101
G1 X68.801 Y81.98 E18.55847
G1 X68.961 Y81.831 E18.57095
G1 X69.184 Y81.641 E18.58766
G10
;MESH:stepperstandoff_39mm.stl
G0 F3600 X72.015 Y85.013
G0 X71.2 Y86.966
G0 X71.212 Y88.574
G0 X71.957 Y89.94
G0 X73.366 Y90.837
G0 X75.308 Y90.904
G0 X75.28 Y90.809
;TYPE:WALL-INNER
G11
G1 F1800 X76.049 Y90.45 E18.63609
G1 X76.639 Y89.972 E18.67941
G1 X77.106 Y89.349 E18.72384
G1 X77.406 Y88.66 E18.76672
G1 X77.444 Y88.435 E18.77974
G1 X77.535 Y87.881 E18.81177
