;FLAVOR:Marlin
;TIME:9965
;Filament used: 4.74263m
;Layer height: 0.4
;MINX:57.737
;MINY:79.648
;MINZ:0.52
;MAXX:147.525
;MAXY:139.587
;MAXZ:38.92
;Generated with Cura_SteamEngine 4.1.0
M82 ;absolute extrusion mode
M98 P0:/sys/startprint.g

G92 E0
G92 E0
G10
;LAYER_COUNT:97
;LAYER:0
M107
G0 F3600 X69.184 Y81.641 Z0.52
;TYPE:SKIRT
G11
G1 F1800 X69.683 Y81.252 E0.0361
G1 X69.949 Y81.065 E0.05465
G1 X70.165 Y80.928 E0.06925
G1 X70.352 Y80.818 E0.08163
G1 X70.727 Y80.613 E0.10601
G1 X71.092 Y80.441 E0.12904
G1 X71.643 Y80.221 E0.16289
G1 X71.941 Y80.118 E0.18088
G1 X72.135 Y80.061 E0.19242
G1 X72.288 Y80.02 E0.20146
G1 X72.675 Y79.926 E0.22418
G1 X72.953 Y79.871 E0.24035
G1 X73.153 Y79.84 E0.2519
G1 X73.306 Y79.819 E0.26071
G1 X73.704 Y79.776 E0.28355
G1 X73.971 Y79.758 E0.29882
G1 X74.186 Y79.752 E0.31109
G1 X74.353 Y79.752 E0.32062
G1 X74.715 Y79.76 E0.34128
G1 X74.957 Y79.774 E0.35511
G1 X75.189 Y79.796 E0.36841
G1 X75.378 Y79.819 E0.37927
G1 X75.739 Y79.874 E0.40011
G1 X75.99 Y79.922 E0.41469
G1 X76.288 Y79.991 E0.43214
G1 X76.388 Y80.016 E0.43802
G1 X76.944 Y80.163 E0.47084
G1 X76.968 Y80.17 E0.47227
G1 X78.179 Y80.5 E0.54388
G1 X80.87 Y81.158 E0.70195
G1 X83.517 Y81.724 E0.8564
G1 X86.209 Y82.223 E1.01262
G1 X88.919 Y82.645 E1.16911
G1 X91.606 Y82.986 E1.32366
G1 X94.338 Y83.255 E1.4803
G1 X97.08 Y83.447 E1.63713
G1 X99.785 Y83.559 E1.79161
G1 X102.531 Y83.596 E1.94831
G1 X105.273 Y83.556 E2.10478
G1 X108.02 Y83.436 E2.26167
G1 X110.718 Y83.243 E2.41601
G1 X113.421 Y82.972 E2.57101
G1 X116.169 Y82.618 E2.7291
G1 X118.854 Y82.194 E2.8842
G1 X121.544 Y81.692 E3.04034
G1 X124.189 Y81.12 E3.19475
G1 X126.866 Y80.462 E3.35204
G1 X128.558 Y80.004 E3.45206
G1 X128.98 Y79.885 E3.47708
G1 X129.278 Y79.815 E3.49454
G1 X129.477 Y79.778 E3.50609
G1 X129.619 Y79.755 E3.5143
G1 X130.014 Y79.699 E3.53707
G1 X130.269 Y79.673 E3.55169
G1 X130.487 Y79.659 E3.56416
G1 X130.667 Y79.652 E3.57443
G1 X131.054 Y79.648 E3.59652
G1 X131.322 Y79.656 E3.61181
G1 X131.537 Y79.671 E3.62411
G1 X131.698 Y79.686 E3.63334
G1 X132.086 Y79.732 E3.65563
G1 X132.359 Y79.776 E3.67141
G1 X132.556 Y79.816 E3.68288
G1 X132.707 Y79.851 E3.69172
G1 X133.092 Y79.948 E3.71438
G1 X133.453 Y80.06 E3.73595
G1 X134.03 Y80.277 E3.77112
G1 X134.436 Y80.462 E3.79658
G1 X134.961 Y80.744 E3.83058
G1 X135.317 Y80.964 E3.85446
G1 X135.808 Y81.313 E3.88883
G1 X136.15 Y81.592 E3.91402
G1 X136.513 Y81.93 E3.94232
G1 X136.694 Y82.112 E3.95696
G1 X137.279 Y82.747 E4.00623
G1 X137.363 Y82.842 E4.01346
G1 X138.505 Y84.18 E4.11383
G1 X138.563 Y84.25 E4.11902
G1 X138.756 Y84.489 E4.13655
G1 X138.806 Y84.553 E4.14118
G1 X139.566 Y85.542 E4.21235
G1 X139.613 Y85.604 E4.21679
G1 X139.758 Y85.802 E4.23079
G1 X139.794 Y85.852 E4.23431
G1 X140.604 Y87.002 E4.31457
G1 X140.679 Y87.113 E4.32221
G1 X141.395 Y88.221 E4.39749
G1 X141.467 Y88.338 E4.40532
G1 X142.318 Y89.782 E4.50096
G1 X142.386 Y89.903 E4.50888
G1 X143.127 Y91.288 E4.59851
G1 X143.191 Y91.415 E4.60662
G1 X143.954 Y93 E4.70699
G1 X144.008 Y93.117 E4.71434
G1 X144.454 Y94.143 E4.77818
G1 X144.514 Y94.29 E4.78724
G1 X145.23 Y96.176 E4.90234
G1 X145.27 Y96.288 E4.90913
G1 X145.575 Y97.186 E4.96324
G1 X145.623 Y97.339 E4.97239
G1 X146.238 Y99.481 E5.09955
G1 X146.269 Y99.598 E5.10646
G1 X146.487 Y100.476 E5.15808
G1 X146.508 Y100.566 E5.16335
G1 X146.615 Y101.054 E5.19186
G1 X146.626 Y101.106 E5.19489
G1 X146.846 Y102.192 E5.25811
G1 X146.864 Y102.288 E5.26369
G1 X146.946 Y102.764 E5.29125
G1 X146.954 Y102.81 E5.29391
G1 X147.127 Y103.905 E5.35716
G1 X147.141 Y104.001 E5.3627
G1 X147.203 Y104.483 E5.39043
G1 X147.208 Y104.528 E5.39301
G1 X147.331 Y105.601 E5.45464
G1 X147.341 Y105.695 E5.46003
G1 X147.384 Y106.194 E5.48861
G1 X147.387 Y106.242 E5.49135
G1 X147.464 Y107.316 E5.55279
G1 X147.47 Y107.413 E5.55834
G1 X147.493 Y107.953 E5.58918
G1 X147.495 Y108.002 E5.59197
G1 X147.523 Y109.001 E5.649
G1 X147.524 Y109.081 E5.65356
G1 X147.525 Y109.329 E5.66771
G1 X147.524 Y109.411 E5.67239
G1 X147.486 Y111.288 E5.77951
G1 X147.482 Y111.397 E5.78574
G1 X147.439 Y112.209 E5.83213
G1 X147.434 Y112.285 E5.83648
G1 X147.389 Y112.878 E5.87041
G1 X147.384 Y112.946 E5.8743
G1 X147.287 Y113.953 E5.93203
G1 X147.279 Y114.027 E5.93627
G1 X147.214 Y114.575 E5.96776
G1 X147.204 Y114.649 E5.97202
G1 X147.048 Y115.753 E6.03564
G1 X147.038 Y115.818 E6.03939
G1 X146.969 Y116.245 E6.06407
G1 X146.956 Y116.321 E6.06847
G1 X146.754 Y117.411 E6.13173
G1 X146.74 Y117.481 E6.1358
G1 X146.638 Y117.973 E6.16447
G1 X146.623 Y118.043 E6.16855
G1 X146.375 Y119.122 E6.23173
G1 X146.357 Y119.198 E6.23618
G1 X146.241 Y119.654 E6.26303
G1 X146.223 Y119.719 E6.26688
G1 X145.922 Y120.81 E6.33145
G1 X145.905 Y120.871 E6.33507
G1 X145.785 Y121.276 E6.35917
G1 X145.761 Y121.353 E6.36377
G1 X145.394 Y122.49 E6.43194
G1 X145.37 Y122.562 E6.43627
G1 X145.258 Y122.884 E6.45573
G1 X145.236 Y122.945 E6.45943
G1 X144.785 Y124.164 E6.53359
G1 X144.758 Y124.234 E6.53787
G1 X144.65 Y124.507 E6.55462
G1 X144.624 Y124.572 E6.55862
G1 X144.15 Y125.701 E6.62848
G1 X144.122 Y125.766 E6.63252
G1 X143.956 Y126.139 E6.65582
G1 X143.923 Y126.209 E6.66023
G1 X143.415 Y127.283 E6.72802
G1 X143.383 Y127.349 E6.73221
G1 X143.213 Y127.689 E6.7539
G1 X143.183 Y127.748 E6.75767
G1 X142.618 Y128.824 E6.82702
G1 X142.593 Y128.872 E6.83011
G1 X142.438 Y129.156 E6.84857
G1 X142.391 Y129.238 E6.85396
G1 X141.729 Y130.374 E6.92898
G1 X141.689 Y130.441 E6.93343
G1 X141.547 Y130.672 E6.94891
G1 X141.513 Y130.727 E6.9526
G1 X140.797 Y131.843 E7.02825
G1 X140.721 Y131.956 E7.03602
G1 X139.791 Y133.284 E7.12853
G1 X139.709 Y133.396 E7.13645
G1 X138.765 Y134.631 E7.22514
G1 X138.659 Y134.762 E7.23476
G1 X137.374 Y136.279 E7.3482
G1 X137.294 Y136.37 E7.35511
G1 X136.801 Y136.911 E7.39687
G1 X136.658 Y137.059 E7.40862
G1 X136.353 Y137.355 E7.43287
G1 X136.077 Y137.595 E7.45374
G1 X135.586 Y137.977 E7.48923
G1 X135.338 Y138.153 E7.50659
G1 X135.112 Y138.298 E7.52191
G1 X134.91 Y138.417 E7.53528
G1 X134.535 Y138.622 E7.55967
G1 X134.17 Y138.794 E7.58269
G1 X133.619 Y139.014 E7.61655
G1 X133.321 Y139.117 E7.63454
G1 X133.127 Y139.174 E7.64607
G1 X132.974 Y139.215 E7.65511
G1 X132.587 Y139.309 E7.67783
G1 X132.309 Y139.364 E7.694
G1 X132.109 Y139.395 E7.70555
G1 X131.956 Y139.416 E7.71436
G1 X131.558 Y139.459 E7.73721
G1 X131.276 Y139.477 E7.75333
G1 X131.062 Y139.482 E7.76554
G1 X130.914 Y139.482 E7.77399
G1 X130.53 Y139.474 E7.7959
G1 X130.153 Y139.445 E7.81748
G1 X129.581 Y139.368 E7.85041
G1 X129.266 Y139.31 E7.86869
G1 X128.928 Y139.231 E7.88849
G1 X128.835 Y139.208 E7.89396
G1 X128.551 Y139.133 E7.91072
G1 X128.532 Y139.128 E7.91184
G1 X126.878 Y138.681 E8.0096
G1 X124.221 Y138.036 E8.16561
G1 X121.568 Y137.474 E8.32034
G1 X118.888 Y136.984 E8.4758
G1 X116.17 Y136.565 E8.63271
G1 X113.446 Y136.224 E8.78935
G1 X110.747 Y135.963 E8.94407
G1 X108.011 Y135.777 E9.10055
G1 X105.302 Y135.67 E9.25524
G1 X102.557 Y135.638 E9.41188
G1 X99.814 Y135.684 E9.56841
G1 X97.067 Y135.809 E9.72531
G1 X94.373 Y136.006 E9.87944
G1 X91.629 Y136.287 E10.03683
G1 X88.92 Y136.641 E10.19271
G1 X86.243 Y137.068 E10.34739
G1 X83.534 Y137.58 E10.5047
G1 X80.91 Y138.153 E10.65795
G1 X78.213 Y138.821 E10.81649
G1 X76.257 Y139.355 E10.93218
G1 X76.012 Y139.412 E10.94653
G1 X75.811 Y139.451 E10.95821
G1 X75.654 Y139.477 E10.96729
G1 X75.261 Y139.534 E10.98995
G1 X74.996 Y139.562 E11.00516
G1 X74.779 Y139.576 E11.01756
G1 X74.597 Y139.583 E11.02796
G1 X74.207 Y139.587 E11.05021
G1 X73.94 Y139.579 E11.06545
G1 X73.725 Y139.564 E11.07775
G1 X73.565 Y139.549 E11.08692
G1 X73.176 Y139.503 E11.10927
G1 X72.794 Y139.435 E11.13141
G1 X72.214 Y139.297 E11.16543
G1 X71.82 Y139.178 E11.18891
G1 X71.366 Y139.009 E11.21655
G1 X71.026 Y138.86 E11.23773
G1 X70.388 Y138.538 E11.27851
G1 X70.057 Y138.347 E11.30031
G1 X69.882 Y138.232 E11.31226
G1 X69.729 Y138.125 E11.32292
G1 X69.425 Y137.9 E11.3445
G1 X69.23 Y137.743 E11.35878
G1 X69.055 Y137.592 E11.37197
G1 X68.92 Y137.469 E11.38239
G1 X68.732 Y137.288 E11.39728
G1 X68.594 Y137.148 E11.4085
G1 X67.965 Y136.467 E11.46139
G1 X67.878 Y136.368 E11.46891
G1 X66.756 Y135.053 E11.56755
G1 X66.696 Y134.982 E11.57285
G1 X66.5 Y134.739 E11.59066
G1 X66.452 Y134.677 E11.59514
G1 X65.696 Y133.693 E11.66594
G1 X65.649 Y133.631 E11.67038
G1 X65.504 Y133.433 E11.68438
G1 X65.468 Y133.383 E11.6879
G1 X64.658 Y132.233 E11.76816
G1 X64.583 Y132.122 E11.7758
G1 X63.866 Y131.012 E11.8512
G1 X63.794 Y130.895 E11.85904
G1 X62.944 Y129.453 E11.95455
G1 X62.876 Y129.332 E11.96247
G1 X62.144 Y127.963 E12.05105
G1 X62.08 Y127.836 E12.05916
G1 X61.3 Y126.216 E12.16175
G1 X61.251 Y126.11 E12.16842
G1 X60.88 Y125.265 E12.22107
G1 X60.818 Y125.114 E12.23039
G1 X60.032 Y123.058 E12.35598
G1 X59.989 Y122.94 E12.36315
G1 X59.687 Y122.051 E12.41672
G1 X59.639 Y121.897 E12.42592
G1 X59.024 Y119.754 E12.55313
G1 X58.993 Y119.638 E12.55999
G1 X58.775 Y118.761 E12.61155
G1 X58.752 Y118.66 E12.61746
G1 X58.636 Y118.123 E12.64881
G1 X58.626 Y118.08 E12.65133
G1 X58.416 Y117.041 E12.71181
G1 X58.399 Y116.948 E12.7172
G1 X58.315 Y116.462 E12.74534
G1 X58.307 Y116.415 E12.74806
G1 X58.135 Y115.329 E12.8108
G1 X58.122 Y115.235 E12.81622
G1 X58.059 Y114.748 E12.84424
G1 X58.053 Y114.699 E12.84705
G1 X57.93 Y113.625 E12.90873
G1 X57.92 Y113.529 E12.91424
G1 X57.877 Y113.025 E12.9431
G1 X57.874 Y112.979 E12.94573
G1 X57.798 Y111.916 E13.00654
G1 X57.792 Y111.82 E13.01203
G1 X57.769 Y111.281 E13.04281
G1 X57.767 Y111.232 E13.04561
G1 X57.739 Y110.234 E13.10258
G1 X57.738 Y110.153 E13.1072
G1 X57.737 Y109.903 E13.12147
G1 X57.738 Y109.822 E13.12609
G1 X57.776 Y107.948 E13.23304
G1 X57.78 Y107.841 E13.23915
G1 X57.823 Y107.021 E13.286
G1 X57.828 Y106.94 E13.29063
G1 X57.873 Y106.353 E13.32422
G1 X57.878 Y106.287 E13.328
G1 X57.975 Y105.281 E13.38567
G1 X57.983 Y105.209 E13.3898
G1 X58.048 Y104.66 E13.42134
G1 X58.058 Y104.585 E13.42566
G1 X58.214 Y103.482 E13.48922
G1 X58.225 Y103.411 E13.49332
G1 X58.3 Y102.952 E13.51986
G1 X58.312 Y102.883 E13.52386
G1 X58.501 Y101.861 E13.58316
G1 X58.514 Y101.793 E13.58711
G1 X58.623 Y101.265 E13.61787
G1 X58.64 Y101.19 E13.62226
G1 X58.891 Y100.101 E13.68603
G1 X58.907 Y100.032 E13.69007
G1 X59.019 Y99.589 E13.71614
G1 X59.037 Y99.52 E13.72021
G1 X59.34 Y98.42 E13.78531
G1 X59.361 Y98.35 E13.78948
G1 X59.475 Y97.969 E13.81217
G1 X59.496 Y97.901 E13.81623
G1 X59.865 Y96.757 E13.88482
G1 X59.886 Y96.692 E13.88872
G1 X60.012 Y96.327 E13.91075
G1 X60.038 Y96.256 E13.91506
G1 X60.478 Y95.069 E13.9873
G1 X60.504 Y95.001 E13.99145
G1 X60.612 Y94.728 E14.0082
G1 X60.639 Y94.662 E14.01227
G1 X61.114 Y93.532 E14.08221
G1 X61.141 Y93.469 E14.08612
G1 X61.306 Y93.098 E14.10929
G1 X61.338 Y93.028 E14.11368
G1 X61.846 Y91.953 E14.18152
G1 X61.879 Y91.886 E14.18578
G1 X62.049 Y91.546 E14.20747
G1 X62.08 Y91.485 E14.21138
G1 X62.645 Y90.41 E14.28067
G1 X62.671 Y90.361 E14.28384
G1 X62.827 Y90.076 E14.30238
G1 X62.872 Y89.997 E14.30756
G1 X63.534 Y88.861 E14.38259
G1 X63.569 Y88.803 E14.38645
G1 X63.71 Y88.572 E14.40189
G1 X63.749 Y88.509 E14.40612
G1 X64.465 Y87.392 E14.48183
G1 X64.541 Y87.278 E14.48964
G1 X65.47 Y85.952 E14.58202
G1 X65.552 Y85.84 E14.58994
G1 X66.496 Y84.605 E14.67864
G1 X66.601 Y84.474 E14.68822
G1 X67.889 Y82.953 E14.80194
G1 X67.972 Y82.859 E14.8091
G1 X68.466 Y82.318 E14.8509
G1 X68.563 Y82.216 E14.85893
G1 X68.715 Y82.063 E14.87124
G1 X68.814 Y81.968 E14.87906
G1 X68.966 Y81.827 E14.89089
G1 X69.184 Y81.641 E14.90725
G10
;MESH:stepperstandoff_39mm.stl
G0 F3600 X72.015 Y85.013
G0 X71.2 Y86.966
G0 X71.212 Y88.574
G0 X71.957 Y89.94
G0 X73.366 Y90.837
G0 X75.308 Y90.904
G0 X75.28 Y90.809
;TYPE:WALL-INNER
G11
G1 F1800 X76.049 Y90.45 E14.95567
G1 X76.639 Y89.972 E14.999
G1 X77.106 Y89.349 E15.04342
G1 X77.406 Y88.66 E15.0863
G1 X77.444 Y88.435 E15.09932
G1 X77.535 Y87.881 E15.13135
G1 X77.462 Y87.064 E15.17816
G1 X77.342 Y86.716 E15.19916
G1 X77.214 Y86.349 E15.22134
G1 X76.97 Y85.974 E15.24687
G1 X76.79 Y85.697 E15.26572
G1 X76.765 Y85.673 E15.26769
G1 X76.421 Y85.348 E15.2947
G1 X76.243 Y85.18 E15.30866
G1 X76.141 Y85.123 E15.31533
G1 X75.73 Y84.891 E15.34226
G1 X75.559 Y84.794 E15.35348
G1 X75.407 Y84.754 E15.36244
G1 X74.944 Y84.629 E15.38981
G1 X74.757 Y84.578 E15.40087
G1 X74.601 Y84.578 E15.40977
G1 X74.13 Y84.578 E15.43664
G1 X73.931 Y84.578 E15.448
G1 X73.767 Y84.619 E15.45764
G1 X73.321 Y84.732 E15.4839
G1 X73.195 Y84.764 E15.49131
G1 X72.987 Y84.874 E15.50474
G1 X72.565 Y85.099 E15.53203
G1 X72.509 Y85.129 E15.53565
G1 X72.288 Y85.325 E15.55251
G1 X71.968 Y85.61 E15.57696
G1 X71.946 Y85.63 E15.57865
G1 X71.506 Y86.271 E15.62302
G1 X71.317 Y86.767 E15.6533
G1 X71.238 Y86.973 E15.66589
G1 X71.143 Y87.754 E15.71078
G1 X71.25 Y88.567 E15.75757
G1 X71.529 Y89.273 E15.80089
G1 X71.751 Y89.584 E15.82269
G1 X71.817 Y89.676 E15.82915
G1 X71.986 Y89.913 E15.84576
G1 X72.214 Y90.104 E15.86273
G1 X72.622 Y90.446 E15.8931
G1 X73.379 Y90.799 E15.94076
G1 X73.429 Y90.807 E15.94365
G1 X74.224 Y90.949 E15.98973
G1 X75.28 Y90.809 E16.05051
G0 F3600 X75.096 Y90.178
;TYPE:WALL-OUTER
G1 F1800 X75.702 Y89.895 E16.08868
G1 X76.167 Y89.518 E16.12283
G1 X76.54 Y89.02 E16.15833
G1 X76.778 Y88.474 E16.19232
G1 X76.88 Y87.856 E16.22806
G1 X76.822 Y87.201 E16.26558
G1 X76.626 Y86.637 E16.29965
G1 X76.287 Y86.116 E16.33511
G1 X75.854 Y85.707 E16.3691
G1 X75.311 Y85.4 E16.40469
G1 X74.671 Y85.228 E16.44251
G1 X74.012 Y85.228 E16.48011
G1 X73.431 Y85.375 E16.5143
G1 X72.883 Y85.666 E16.54971
G1 X72.437 Y86.063 E16.58378
G1 X72.086 Y86.575 E16.6192
G1 X71.874 Y87.131 E16.65315
G1 X71.798 Y87.751 E16.68879
G1 X71.884 Y88.403 E16.72631
G1 X72.104 Y88.96 E16.76048
G1 X72.467 Y89.468 E16.79611
G1 X72.974 Y89.893 E16.83386
G1 X73.576 Y90.174 E16.87177
G1 X74.238 Y90.291 E16.91012
G1 X75.096 Y90.178 E16.9595
G0 F3600 X75.458 Y90.009
G0 X75.783 Y90.707
G0 X93.156 Y108.749
G0 X93.099 Y110.362
G0 X93.78 Y111.748
G0 X95.018 Y112.656
G0 X96.122 Y112.884
G0 X97.239 Y112.818
G0 X97.221 Y112.719
;TYPE:WALL-INNER
G1 F1800 X97.915 Y112.396 E17.00318
G1 X97.97 Y112.37 E17.00665
G1 X98.238 Y112.152 E17.02636
G1 X98.559 Y111.892 E17.04993
G1 X98.807 Y111.562 E17.07349
G1 X99.032 Y111.263 E17.09484
G1 X99.206 Y110.841 E17.12088
G1 X99.346 Y110.503 E17.14176
G1 X99.414 Y110.04 E17.16846
G1 X99.457 Y109.754 E17.18496
G1 X99.45 Y109.678 E17.18932
G1 X99.405 Y109.217 E17.21575
G1 X99.381 Y108.981 E17.22928
G1 X99.338 Y108.855 E17.23688
G1 X99.183 Y108.408 E17.26387
G1 X99.135 Y108.269 E17.27226
G1 X99.019 Y108.09 E17.28443
G1 X98.759 Y107.691 E17.31161
G1 X98.711 Y107.618 E17.31659
G1 X98.512 Y107.43 E17.33221
G1 X98.174 Y107.109 E17.35881
G1 X98.164 Y107.1 E17.35958
G1 X97.874 Y106.937 E17.37856
G1 X97.485 Y106.717 E17.40406
G1 X96.763 Y106.512 E17.44688
G1 X96.655 Y106.509 E17.45305
G1 X95.987 Y106.485 E17.49119
G1 X95.246 Y106.636 E17.53434
G1 X94.547 Y106.972 E17.57859
G1 X93.961 Y107.445 E17.62156
G1 X93.494 Y108.069 E17.66603
G1 X93.211 Y108.721 E17.70659
G1 X93.194 Y108.76 E17.70902
G1 X93.118 Y109.222 E17.73573
G1 X93.065 Y109.537 E17.75396
G1 X93.096 Y109.894 E17.7744
G1 X93.138 Y110.354 E17.80076
G1 X93.213 Y110.571 E17.81386
G1 X93.386 Y111.069 E17.84394
G1 X93.81 Y111.721 E17.88832
G1 X94.357 Y112.238 E17.93126
G1 X95.034 Y112.621 E17.97565
G1 X95.746 Y112.824 E18.01789
G1 X96.416 Y112.861 E18.05618
G1 X96.689 Y112.812 E18.072
G1 X97.221 Y112.719 E18.10282
G0 F3600 X97.024 Y112.094
;TYPE:WALL-OUTER
G1 F1800 X97.623 Y111.815 E18.14052
G1 X98.087 Y111.438 E18.17464
G1 X98.463 Y110.938 E18.21033
G1 X98.715 Y110.329 E18.24794
G1 X98.802 Y109.738 E18.28202
G1 X98.742 Y109.121 E18.31739
G1 X98.547 Y108.557 E18.35144
G1 X98.208 Y108.037 E18.38686
G1 X97.775 Y107.627 E18.42089
G1 X97.233 Y107.321 E18.4564
G1 X96.661 Y107.159 E18.49032
G1 X96.041 Y107.137 E18.52572
G1 X95.455 Y107.257 E18.55985
G1 X94.897 Y107.525 E18.59517
G1 X94.433 Y107.9 E18.62921
G1 X94.06 Y108.398 E18.66472
G1 X93.822 Y108.945 E18.69875
G1 X93.72 Y109.562 E18.73444
G1 X93.778 Y110.217 E18.77196
G1 X93.974 Y110.781 E18.80602
G1 X94.313 Y111.302 E18.84149
G1 X94.746 Y111.711 E18.87548
G1 X95.287 Y112.017 E18.91094
G1 X95.855 Y112.179 E18.94464
