;FLAVOR:Marlin
;TIME:12965
;Filament used: 7.08531m
;Layer height: 0.4
;MINX:36.089
;MINY:58.674
;MINZ:0.52
;MAXX:153.911
;MAXY:112.432
;MAXZ:52.52
;Generated with Cura_SteamEngine 4.1.0
M82 ;absolute extrusion mode
M98 P0:/sys/startprint.g

G92 E0
G92 E0
G10
;LAYER_COUNT:131
;LAYER:0
M107
G0 F3600 X38.187 Y69.379 Z0.52
;TYPE:SKIRT
G11
G1 F1800 X38.643 Y69.133 E0.02956
G1 X39.377 Y68.904 E0.07344
G1 X39.673 Y68.848 E0.09062
G1 X40.172 Y68.792 E0.11928
G1 X40.415 Y68.783 E0.13315
G1 X40.513 Y68.781 E0.13874
G1 X40.767 Y68.779 E0.15324
G1 X149.013 Y68.779 E6.32961
G1 X149.711 Y68.789 E6.36944
G1 X150.271 Y68.845 E6.40155
G1 X150.634 Y68.912 E6.42262
G1 X151.134 Y69.045 E6.45214
G1 X151.608 Y69.253 E6.48167
G1 X151.831 Y69.384 E6.49643
G1 X152.067 Y69.535 E6.51242
G1 X152.585 Y69.943 E6.55004
G1 X152.822 Y70.171 E6.56881
G1 X153.166 Y70.557 E6.59831
G1 X153.394 Y70.899 E6.62176
G1 X153.447 Y70.99 E6.62777
G1 X153.672 Y71.456 E6.6573
G1 X153.823 Y71.951 E6.68682
G1 X153.902 Y72.626 E6.7256
G1 X153.91 Y73.162 E6.75619
G1 X153.91 Y73.212 E6.75904
G1 X153.911 Y97.908 E8.16816
G1 X153.911 Y97.953 E8.17073
G1 X153.901 Y98.69 E8.21279
G1 X153.875 Y99.061 E8.23401
G1 X153.847 Y99.285 E8.24689
G1 X153.83 Y99.404 E8.25375
G1 X153.796 Y99.614 E8.26589
G1 X153.674 Y100.117 E8.29542
G1 X153.555 Y100.429 E8.31447
G1 X153.349 Y100.897 E8.34365
G1 X153.105 Y101.353 E8.37316
G1 X152.799 Y101.759 E8.40217
G1 X152.478 Y102.124 E8.4299
G1 X152.107 Y102.485 E8.45944
G1 X151.743 Y102.75 E8.48513
G1 X151.351 Y102.996 E8.51153
G1 X150.893 Y103.236 E8.54104
G1 X150.456 Y103.389 E8.56746
G1 X149.989 Y103.517 E8.59508
G1 X149.481 Y103.615 E8.6246
G1 X149.167 Y103.635 E8.64256
G1 X148.281 Y103.652 E8.69312
G1 X148.224 Y103.653 E8.69637
G1 X144.443 Y103.661 E8.91211
G1 X144.436 Y103.661 E8.91251
G1 X80.164 Y103.66 E12.57979
G1 X41.808 Y103.661 E14.76833
G1 X41.76 Y103.661 E14.77107
G1 X41.059 Y103.651 E14.81107
G1 X40.688 Y103.625 E14.83229
G1 X40.442 Y103.594 E14.84644
G1 X40.324 Y103.577 E14.85324
G1 X40.133 Y103.546 E14.86428
G1 X39.631 Y103.424 E14.89376
G1 X39.317 Y103.304 E14.91294
G1 X38.848 Y103.097 E14.94219
G1 X38.393 Y102.852 E14.97168
G1 X37.97 Y102.531 E15.00198
G1 X37.589 Y102.191 E15.03111
G1 X37.231 Y101.818 E15.06061
G1 X36.931 Y101.387 E15.09058
G1 X36.674 Y100.949 E15.11955
G1 X36.447 Y100.484 E15.14908
G1 X36.292 Y99.977 E15.17933
G1 X36.182 Y99.479 E15.20843
G1 X36.105 Y98.879 E15.24294
G1 X36.097 Y98.662 E15.25533
G1 X36.095 Y98.566 E15.26081
G1 X36.093 Y98.319 E15.27491
G1 X36.093 Y98.294 E15.27633
G1 X36.089 Y92.592 E15.60168
G1 X36.089 Y92.59 E15.6018
G1 X36.09 Y73.371 E16.69841
G1 X36.09 Y73.322 E16.7012
G1 X36.1 Y72.639 E16.74018
G1 X36.148 Y72.124 E16.76969
G1 X36.274 Y71.622 E16.79922
G1 X36.476 Y71.146 E16.82873
G1 X36.747 Y70.71 E16.85802
G1 X36.938 Y70.449 E16.87647
G1 X37.274 Y70.056 E16.90598
G1 X37.828 Y69.61 E16.94656
G1 X38.187 Y69.379 E16.97092
G10
;MESH:tft24box_angled_v2.stl
G0 F3600 X40.504 Y73.193
G0 X144.797 Y74.412
G0 X144.802 Y74.511
;TYPE:WALL-INNER
G11
G1 F1800 X144.091 Y74.622 E17.01198
G1 X143.409 Y74.858 E17.05315
G1 X142.776 Y75.206 E17.09437
G1 X142.253 Y75.603 E17.13184
G1 X141.792 Y76.06 E17.16887
G1 X141.384 Y76.567 E17.20601
G1 X140.966 Y77.229 E17.25068
G1 X140.623 Y77.944 E17.29593
G1 X140.415 Y78.502 E17.32991
G1 X140.209 Y79.25 E17.37418
G1 X140.096 Y79.835 E17.40817
G1 X140.01 Y80.626 E17.45357
G1 X139.99 Y81.215 E17.4872
G1 X140.008 Y81.8 E17.52059
G1 X140.093 Y82.577 E17.56519
G1 X140.182 Y83.051 E17.59271
G1 X140.201 Y83.154 E17.59869
G1 X140.303 Y83.524 E17.62059
G1 X140.393 Y83.851 E17.63994
G1 X139.968 Y83.653 E17.65106
G1 X139.919 Y83.63
G1 X139.816 Y83.612 E17.65703
G1 X139.14 Y83.493 E17.69619
G1 X138.345 Y83.558 E17.74171
G1 X137.592 Y83.832 E17.78743
G1 X136.941 Y84.286 E17.83271
G1 X136.42 Y84.903 E17.87879
G1 X136.083 Y85.628 E17.92441
G1 X135.944 Y86.413 E17.9699
G1 X136.01 Y87.202 E18.01507
G1 X136.283 Y87.955 E18.06078
G1 X136.74 Y88.609 E18.1063
G1 X137.35 Y89.124 E18.15185
G1 X138.074 Y89.462 E18.19744
G1 X138.856 Y89.603 E18.24278
G1 X139.652 Y89.537 E18.28836
G1 X140.411 Y89.262 E18.33442
G1 X141.067 Y88.802 E18.38013
G1 X141.58 Y88.191 E18.42566
G1 X141.917 Y87.467 E18.47122
G1 X141.982 Y87.105 E18.49221
G1 X142.013 Y86.925 E18.50263
G1 X142.056 Y86.682 E18.51671
G1 X142.051 Y86.629 E18.51975
G1 X142.079 Y86.655
G1 X142.466 Y87.004 E18.53686
G1 X142.618 Y87.105 E18.54578
G1 X143.076 Y87.409 E18.57714
G1 X143.74 Y87.706 E18.61865
G1 X144.438 Y87.88 E18.65969
G1 X145.152 Y87.926 E18.70052
G1 X145.865 Y87.839 E18.7415
G1 X146.554 Y87.622 E18.78272
G1 X147.199 Y87.291 E18.82408
G1 X147.788 Y86.861 E18.86569
G1 X148.252 Y86.413 E18.9025
G1 X148.719 Y85.833 E18.94498
G1 X148.835 Y85.646 E18.95754
G1 X149.129 Y85.173 E18.98932
G1 X149.47 Y84.456 E19.03462
G1 X149.51 Y84.341 E19.04157
G1 X149.51 Y84.456 E19.04167
G1 X149.51 Y85.172 E19.05569
G1 X149.51 Y85.729 E19.08052
G1 X149.511 Y98.573 E19.81338
G1 X149.477 Y98.813 E19.82721
G1 X149.397 Y98.986 E19.83809
G1 X149.284 Y99.111 E19.8477
G1 X149.149 Y99.196 E19.85681
G1 X148.943 Y99.251 E19.86897
G1 X144.434 Y99.261 E20.12625
G1 X80.16 Y99.26 E23.79364
G1 X41.177 Y99.261 E26.01796
G1 X40.939 Y99.227 E26.03168
G1 X40.767 Y99.148 E26.04248
G1 X40.633 Y99.024 E26.05289
G1 X40.544 Y98.871 E26.06299
G1 X40.493 Y98.642 E26.07638
G1 X40.489 Y92.526 E26.42535
G1 X40.489 Y85.711 E26.81421
G1 X40.489 Y85.378 E26.83321
G1 X40.489 Y84.673 E26.87343
G1 X40.489 Y84.331 E26.89295
G1 X40.621 Y84.673 E26.89585
G1 X40.984 Y85.378 E26.91818
G1 X41.17 Y85.654 E26.93452
G1 X41.416 Y86.018 E26.95958
G1 X41.846 Y86.516 E26.99712
G1 X42.386 Y87.004 E27.03865
G1 X42.996 Y87.409 E27.08043
G1 X43.66 Y87.706 E27.12194
G1 X44.358 Y87.88 E27.16298
G1 X45.071 Y87.926 E27.20375
G1 X45.787 Y87.839 E27.2449
G1 X46.474 Y87.622 E27.28601
G1 X47.119 Y87.291 E27.32738
G1 X47.431 Y87.063 E27.34943
G1 X47.708 Y86.861 E27.36899
G1 X47.857 Y86.717 E27.38081
G1 X47.961 Y86.616 E27.38908
G1 X47.953 Y86.814 E27.39217
G1 X48.027 Y87.15 E27.40652
G1 X48.126 Y87.594 E27.43248
G1 X48.494 Y88.302 E27.478
G1 X49.034 Y88.891 E27.5236
G1 X49.708 Y89.32 E27.56919
G1 X50.459 Y89.557 E27.61412
G1 X51.256 Y89.597 E27.65965
G1 X52.046 Y89.422 E27.70582
G1 X52.754 Y89.053 E27.75138
G1 X53.343 Y88.514 E27.79693
G1 X53.773 Y87.841 E27.8425
G1 X54.013 Y87.079 E27.88809
G1 X54.048 Y86.287 E27.93332
G1 X53.876 Y85.508 E27.97884
G1 X53.51 Y84.801 E28.02427
G1 X52.975 Y84.212 E28.06967
G1 X52.298 Y83.778 E28.11555
G1 X51.538 Y83.538 E28.16103
G1 X50.741 Y83.498 E28.20656
G1 X50.281 Y83.601 E28.23346
G1 X49.954 Y83.673 E28.25256
G1 X49.715 Y83.797 E28.26793
G1 X49.601 Y83.857 E28.27528
G1 X49.659 Y83.692 E28.27698
G1 X49.679 Y83.607
G1 X49.758 Y83.282 E28.29123
G1 X49.851 Y82.902 E28.31355
G1 X49.943 Y82.322 E28.34706
G1 X50.004 Y81.522 E28.39284
G1 X50.006 Y80.933 E28.42645
G1 X49.946 Y80.135 E28.47211
G1 X49.855 Y79.551 E28.50583
G1 X49.674 Y78.785 E28.55074
G1 X49.41 Y78.021 E28.59686
G1 X49.077 Y77.307 E28.64182
G1 X48.678 Y76.651 E28.68563
G1 X48.271 Y76.129 E28.7234
G1 X47.811 Y75.661 E28.76084
G1 X47.289 Y75.25 E28.79875
G1 X46.653 Y74.888 E28.8405
G1 X45.981 Y74.643 E28.88132
G1 X45.428 Y74.533 E28.91349
G1 X44.721 Y74.511 E28.95385
G1 X44.01 Y74.622 E28.99491
G1 X43.329 Y74.858 E29.03603
G1 X42.696 Y75.206 E29.07725
G1 X42.173 Y75.603 E29.11471
G1 X41.712 Y76.06 E29.15175
G1 X41.304 Y76.567 E29.18888
G1 X41.165 Y76.787 E29.20373
G1 X40.886 Y77.229 E29.23356
G1 X40.543 Y77.944 E29.27881
G1 X40.49 Y78.087 E29.28751
G1 X40.49 Y77.944 E29.28771
G1 X40.49 Y77.229 E29.30003
G1 X40.49 Y76.706 E29.32367
G1 X40.49 Y73.179 E29.52491
G1 X149.51 Y73.179 E35.74545
G1 X149.51 Y76.69 E35.94579
G1 X149.51 Y77.307 E35.98099
G1 X149.51 Y78.021 E36.02173
G1 X149.51 Y78.079 E36.02504
G1 X149.49 Y78.021 E36.02523
G1 X149.157 Y77.307 E36.03949
G1 X148.837 Y76.78 E36.06628
G1 X148.758 Y76.651 E36.07491
G1 X148.351 Y76.129 E36.11268
G1 X147.891 Y75.661 E36.15012
G1 X147.369 Y75.25 E36.18803
G1 X146.733 Y74.888 E36.22978
G1 X146.06 Y74.642 E36.27067
G1 X145.507 Y74.534 E36.30282
G1 X144.802 Y74.511 E36.34307
G0 F3600 X144.842 Y75.163
;TYPE:WALL-OUTER
G1 F1800 X144.248 Y75.255 E36.37736
G1 X143.674 Y75.454 E36.41203
G1 X143.131 Y75.753 E36.4474
G1 X142.68 Y76.095 E36.47969
G1 X142.276 Y76.496 E36.51217
G1 X141.914 Y76.946 E36.54513
G1 X141.536 Y77.544 E36.58549
G1 X141.222 Y78.199 E36.62694
G1 X141.034 Y78.703 E36.65763
G1 X140.842 Y79.398 E36.69877
G1 X140.739 Y79.932 E36.7298
G1 X140.659 Y80.672 E36.77227
G1 X140.64 Y81.216 E36.80333
G1 X140.657 Y81.755 E36.8341
G1 X140.736 Y82.482 E36.87583
G1 X140.835 Y83.008 E36.90637
G1 X141.03 Y83.718 E36.94838
G1 X141.295 Y84.407 E36.9905
G1 X141.38 Y84.572 E37.00109
G1 X141.624 Y85.046 E37.03151
G1 X141.651 Y85.086 E37.03426
G1 X142.013 Y85.622 E37.07117
G1 X142.392 Y86.061 E37.10426
G1 X142.866 Y86.489 E37.1407
G1 X143.391 Y86.838 E37.17667
G1 X143.953 Y87.089 E37.21179
G1 X144.538 Y87.235 E37.24619
G1 X145.133 Y87.273 E37.28021
G1 X145.727 Y87.201 E37.31435
G1 X146.306 Y87.019 E37.34899
G1 X146.857 Y86.736 E37.38433
G1 X147.369 Y86.362 E37.42051
G1 X147.771 Y85.974 E37.45239
G1 X148.188 Y85.456 E37.49033
G1 X148.558 Y84.861 E37.53031
G1 X148.868 Y84.208 E37.57155
G1 X149.115 Y83.507 E37.61396
G1 X149.293 Y82.774 E37.657
G1 X149.377 Y82.246 E37.68751
G1 X149.434 Y81.496 E37.73042
G1 X149.436 Y80.956 E37.76124
G1 X149.38 Y80.209 E37.80398
G1 X149.297 Y79.676 E37.83476
G1 X149.129 Y78.966 E37.87639
G1 X148.887 Y78.265 E37.9187
G1 X148.583 Y77.614 E37.9597
G1 X148.222 Y77.021 E37.99931
G1 X147.861 Y76.558 E38.03281
G1 X147.456 Y76.146 E38.06577
G1 X147.005 Y75.791 E38.09852
G1 X146.459 Y75.48 E38.13438
G1 X145.885 Y75.27 E38.16925
G1 X145.434 Y75.182 E38.19547
G1 X144.842 Y75.163 E38.22927
G0 F3600 X144.447 Y75.224
G0 X144.331 Y74.463
G0 X145.51 Y74.495
G0 X146.752 Y74.853
G0 X147.918 Y75.634
G0 X148.789 Y76.628
G0 X149.542 Y78.069
G0 X149.404 Y80.211
G0 X149.458 Y81.495
G0 X149.32 Y82.764
G0 X148.9 Y84.156
G0 X149.165 Y85.191
G0 X148.278 Y86.441
G0 X147.217 Y87.326
G0 X145.87 Y87.878
G0 X144.436 Y87.919
G0 X143.063 Y87.447
G0 X141.927 Y86.555
G0 X141.206 Y85.398
G0 X141.132 Y85.438
G1 F1800 X141.11 Y85.407 E38.23118
G1 X140.805 Y84.971 E38.25998
G1 X140.773 Y84.925 E38.26318
G1 X140.292 Y84.521 E38.29902
G1 X139.722 Y84.255 E38.33491
G1 X139.11 Y84.148 E38.37036
G1 X138.485 Y84.199 E38.40614
G1 X137.894 Y84.414 E38.44203
G1 X137.383 Y84.77 E38.47756
G1 X136.973 Y85.256 E38.51384
G1 X136.708 Y85.825 E38.54966
G1 X136.599 Y86.443 E38.58546
G1 X136.651 Y87.062 E38.62091
G1 X136.865 Y87.653 E38.65677
G1 X137.224 Y88.167 E38.69254
G1 X137.703 Y88.571 E38.7283
G1 X138.273 Y88.837 E38.76419
G1 X138.887 Y88.948 E38.79979
G1 X139.512 Y88.896 E38.83558
G1 X140.109 Y88.68 E38.8718
G1 X140.624 Y88.319 E38.90769
G1 X141.027 Y87.839 E38.94345
G1 X141.292 Y87.27 E38.97926
G1 X141.401 Y86.653 E39.01501
G1 X141.347 Y86.028 E39.05081
G1 X141.132 Y85.438 E39.08664
G0 F3600 X141.11 Y85.407
G0 X140.903 Y85.111
G0 X140.972 Y85.063
G0 X141.371 Y86.023
G0 X141.955 Y87.481
G0 X142.094 Y94.792
G0 X141.662 Y96.35
G0 X141.578 Y96.297
;TYPE:WALL-INNER
G1 F1800 X141.915 Y95.575 E39.1321
G1 X142.055 Y94.793 E39.17743
G1 X141.987 Y93.989 E39.22347
G1 X141.714 Y93.239 E39.26901
G1 X141.257 Y92.583 E39.31463
G1 X140.643 Y92.071 E39.36024
G1 X139.928 Y91.737 E39.40527
G1 X139.146 Y91.595 E39.45062
G1 X138.348 Y91.661 E39.49631
G1 X137.587 Y91.936 E39.54248
G1 X136.933 Y92.396 E39.5881
G1 X136.42 Y93.007 E39.63362
G1 X136.083 Y93.731 E39.67919
G1 X135.944 Y94.514 E39.72457
G1 X136.01 Y95.304 E39.7698
G1 X136.283 Y96.058 E39.81556
G1 X136.74 Y96.712 E39.86108
G1 X137.35 Y97.225 E39.90656
G1 X138.074 Y97.566 E39.95222
G1 X138.856 Y97.705 E39.99754
G1 X139.652 Y97.64 E40.04311
G1 X140.403 Y97.367 E40.0887
G1 X141.058 Y96.912 E40.13421
G1 X141.578 Y96.297 E40.18016
G0 F3600 X141.026 Y95.944
;TYPE:WALL-OUTER
G1 F1800 X141.29 Y95.377 E40.21585
G1 X141.4 Y94.762 E40.2515
G1 X141.347 Y94.13 E40.28769
G1 X141.132 Y93.541 E40.32346
G1 X140.773 Y93.026 E40.35928
G1 X140.292 Y92.624 E40.39505
G1 X139.729 Y92.362 E40.43048
G1 X139.114 Y92.25 E40.46615
G1 X138.488 Y92.302 E40.50199
G1 X137.89 Y92.518 E40.53827
G1 X137.376 Y92.879 E40.57411
G1 X136.973 Y93.359 E40.60987
G1 X136.708 Y93.928 E40.64569
G1 X136.599 Y94.544 E40.68138
G1 X136.651 Y95.164 E40.71688
G1 X136.865 Y95.756 E40.7528
G1 X137.224 Y96.27 E40.78857
G1 X137.703 Y96.673 E40.82429
G1 X138.273 Y96.941 E40.86023
G1 X138.887 Y97.05 E40.89581
G1 X139.512 Y96.999 E40.93159
G1 X140.102 Y96.785 E40.9674
G1 X140.617 Y96.427 E41.00319
G1 X141.026 Y95.944 E41.0393
G0 F3600 X141.194 Y95.582
G0 X141.892 Y95.908
G0 X141.084 Y96.941
G0 X139.659 Y97.679
G0 X138.407 Y97.665
G0 X130.113 Y95.197
G0 X130.015 Y95.181
;TYPE:WALL-INNER
G1 F1800 X130.047 Y94.381 E41.08499
G1 X129.874 Y93.603 E41.13046
G1 X129.503 Y92.894 E41.17612
G1 X128.967 Y92.307 E41.22148
G1 X128.292 Y91.878 E41.26711
G1 X127.533 Y91.639 E41.31252
G1 X126.737 Y91.602 E41.35798
G1 X125.957 Y91.774 E41.40356
G1 X125.25 Y92.141 E41.44901
G1 X124.662 Y92.68 E41.49452
G1 X124.231 Y93.35 E41.53998
G1 X123.99 Y94.112 E41.58558
G1 X123.952 Y94.91 E41.63117
G1 X124.126 Y95.697 E41.67716
G1 X124.491 Y96.401 E41.7224
G1 X125.03 Y96.991 E41.768
G1 X125.702 Y97.419 E41.81346
G1 X126.463 Y97.661 E41.85903
G1 X127.264 Y97.698 E41.90478
G1 X128.044 Y97.526 E41.95035
G1 X128.749 Y97.16 E41.99568
G1 X129.343 Y96.618 E42.04156
G1 X129.772 Y95.945 E42.0871
G1 X130.015 Y95.181 E42.13284
G0 F3600 X129.369 Y95.067
;TYPE:WALL-OUTER
G1 F1800 X129.394 Y94.44 E42.16865
G1 X129.258 Y93.828 E42.20442
G1 X128.966 Y93.27 E42.24035
G1 X128.545 Y92.809 E42.27598
G1 X128.015 Y92.472 E42.31181
G1 X127.418 Y92.284 E42.34753
G1 X126.793 Y92.255 E42.38323
G1 X126.181 Y92.39 E42.41898
G1 X125.626 Y92.678 E42.45466
G1 X125.163 Y93.102 E42.49048
G1 X124.825 Y93.629 E42.52621
G1 X124.635 Y94.228 E42.56206
G1 X124.605 Y94.854 E42.59782
G1 X124.742 Y95.473 E42.634
G1 X125.029 Y96.026 E42.66955
G1 X125.452 Y96.489 E42.70533
G1 X125.98 Y96.825 E42.74104
G1 X126.579 Y97.016 E42.77691
G1 X127.208 Y97.045 E42.81284
G1 X127.821 Y96.91 E42.84866
G1 X128.374 Y96.623 E42.88421
G1 X128.841 Y96.196 E42.92031
G1 X129.178 Y95.667 E42.9561
G1 X129.369 Y95.067 E42.99203
G0 F3600 X129.384 Y94.667
G0 X130.154 Y94.697
G0 X129.911 Y93.588
G0 X128.993 Y92.278
G0 X124.713 Y88.639
G0 X123.916 Y87.232
G0 X124.013 Y87.21
;TYPE:WALL-INNER
G1 F1800 X124.287 Y87.96 E43.03759
G1 X124.743 Y88.614 E43.08308
G1 X125.356 Y89.128 E43.12873
G1 X126.081 Y89.465 E43.17435
G1 X126.866 Y89.604 E43.21983
G1 X127.662 Y89.534 E43.26543
G1 X128.412 Y89.262 E43.31095
G1 X129.067 Y88.802 E43.35662
G1 X129.58 Y88.191 E43.40214
G1 X129.917 Y87.467 E43.44771
G1 X130.056 Y86.682 E43.49319
G1 X129.987 Y85.886 E43.53878
G1 X129.713 Y85.135 E43.5844
G1 X129.257 Y84.482 E43.62984
G1 X128.644 Y83.968 E43.67549
G1 X127.919 Y83.63 E43.72113
G1 X127.134 Y83.492 E43.76661
G1 X126.338 Y83.561 E43.8122
G1 X125.587 Y83.835 E43.85781
G1 X124.934 Y84.291 E43.90326
G1 X124.42 Y84.904 E43.9489
G1 X124.083 Y85.628 E43.99447
G1 X123.944 Y86.414 E44.04001
G1 X124.013 Y87.21 E44.0856
G0 F3600 X124.653 Y87.068
;TYPE:WALL-OUTER
G1 F1800 X124.868 Y87.657 E44.12138
G1 X125.227 Y88.171 E44.15715
G1 X125.708 Y88.575 E44.19299
G1 X126.278 Y88.84 E44.22886
G1 X126.895 Y88.949 E44.26461
G1 X127.52 Y88.894 E44.30041
G1 X128.109 Y88.68 E44.33617
G1 X128.624 Y88.319 E44.37205
G1 X129.027 Y87.839 E44.40781
G1 X129.292 Y87.27 E44.44363
G1 X129.401 Y86.653 E44.47938
G1 X129.347 Y86.028 E44.51517
G1 X129.132 Y85.438 E44.551
G1 X128.773 Y84.925 E44.58673
G1 X128.292 Y84.521 E44.62257
G1 X127.722 Y84.255 E44.65846
G1 X127.105 Y84.147 E44.6942
G1 X126.48 Y84.201 E44.73
G1 X125.89 Y84.416 E44.76583
G1 X125.377 Y84.775 E44.80155
G1 X124.973 Y85.256 E44.83739
G1 X124.708 Y85.825 E44.87321
G1 X124.599 Y86.443 E44.90902
G1 X124.653 Y87.068 E44.94481
G0 F3600 X124.79 Y87.443
G0 X124.066 Y87.706
G0 X113.945 Y91.737
G0 X112.63 Y92.658
G0 X111.999 Y93.957
G0 X111.952 Y94.91
;TYPE:WALL-INNER
