;FLAVOR:Marlin
;TIME:7829
;Filament used: 4.20994m
;Layer height: 0.4
;MINX:59.33
;MINY:65.191
;MINZ:0.52
;MAXX:130.67
;MAXY:104.794
;MAXZ:37.72
;Generated with Cura_SteamEngine 4.1.0
M82 ;absolute extrusion mode
M98 P0:/sys/startprint.g

G92 E0
G92 E0
G10
;LAYER_COUNT:94
;LAYER:0
M107
G0 F3600 X62.274 Y66.446 Z0.52
;TYPE:SKIRT
G11
G1 F1800 X62.73 Y66.105 E0.03249
G1 X63.228 Y65.831 E0.06492
G1 X63.76 Y65.63 E0.09737
G1 X64.038 Y65.558 E0.11376
G1 X64.588 Y65.435 E0.14591
G1 X64.901 Y65.377 E0.16408
G1 X65.526 Y65.288 E0.2001
G1 X65.766 Y65.262 E0.21387
G1 X66.083 Y65.236 E0.23202
G1 X66.214 Y65.227 E0.23951
G1 X66.436 Y65.216 E0.2522
G1 X66.568 Y65.212 E0.25973
G1 X67.58 Y65.195 E0.31748
G1 X67.647 Y65.194 E0.32131
G1 X79.995 Y65.191 E1.02587
G1 X80.053 Y65.191 E1.02918
G1 X80.694 Y65.2 E1.06575
G1 X81.144 Y65.232 E1.0915
G1 X82.34 Y65.383 E1.16028
G1 X82.399 Y65.391 E1.16368
G1 X82.9 Y65.462 E1.19255
G1 X85.568 Y65.764 E1.34575
G1 X88.301 Y65.994 E1.50225
G1 X91.034 Y66.147 E1.65843
G1 X93.706 Y66.222 E1.81095
G1 X96.447 Y66.22 E1.96735
G1 X99.147 Y66.143 E2.12147
G1 X101.854 Y65.987 E2.27619
G1 X104.544 Y65.757 E2.43023
G1 X107.281 Y65.445 E2.58742
G1 X108.646 Y65.259 E2.66602
G1 X108.929 Y65.231 E2.68225
G1 X109.406 Y65.2 E2.70952
G1 X109.669 Y65.191 E2.72454
G1 X122.169 Y65.191 E3.43777
G1 X122.241 Y65.192 E3.44188
G1 X123.537 Y65.215 E3.51584
G1 X123.75 Y65.224 E3.528
G1 X124.147 Y65.252 E3.55071
G1 X124.299 Y65.266 E3.55942
G1 X124.511 Y65.289 E3.57159
G1 X124.682 Y65.311 E3.58143
G1 X124.952 Y65.352 E3.59701
G1 X125.099 Y65.377 E3.60552
G1 X125.373 Y65.429 E3.62143
G1 X125.5 Y65.455 E3.62883
G1 X125.957 Y65.557 E3.65554
G1 X126.502 Y65.72 E3.688
G1 X127.019 Y65.957 E3.72045
G1 X127.498 Y66.265 E3.75295
G1 X127.929 Y66.636 E3.78539
G1 X128.303 Y67.064 E3.81783
G1 X128.614 Y67.541 E3.85032
G1 X128.855 Y68.056 E3.88276
G1 X129.021 Y68.6 E3.91521
G1 X129.124 Y69.441 E3.96356
G1 X129.137 Y70.199 E4.00681
G1 X129.138 Y70.266 E4.01064
G1 X129.142 Y77.504 E4.42363
G1 X129.142 Y77.561 E4.42688
G1 X129.133 Y78.224 E4.46471
G1 X129.085 Y78.791 E4.49718
G1 X128.958 Y79.345 E4.52961
G1 X128.755 Y79.877 E4.5621
G1 X128.32 Y80.603 E4.61039
G1 X128.132 Y80.853 E4.62824
G1 X128.019 Y80.997 E4.63869
G1 X127.608 Y81.495 E4.67553
G1 X127.538 Y81.577 E4.68168
G1 X127.227 Y81.934 E4.7087
G1 X127.155 Y82.015 E4.71488
G1 X126.859 Y82.337 E4.73984
G1 X126.774 Y82.426 E4.74686
G1 X125.927 Y83.293 E4.81602
G1 X125.894 Y83.327 E4.81872
G1 X111.434 Y97.786 E5.9855
G1 X111.404 Y97.816 E5.98792
G1 X110.823 Y98.385 E6.03433
G1 X110.75 Y98.454 E6.04006
G1 X110.31 Y98.864 E6.07437
G1 X110.158 Y98.998 E6.08594
G1 X109.117 Y99.875 E6.1636
G1 X109.013 Y99.96 E6.17127
G1 X108.731 Y100.182 E6.19174
G1 X108.586 Y100.291 E6.2021
G1 X108.038 Y100.684 E6.24057
G1 X107.877 Y100.794 E6.2517
G1 X106.748 Y101.524 E6.32841
G1 X106.62 Y101.604 E6.33702
G1 X106.304 Y101.792 E6.358
G1 X106.158 Y101.874 E6.36756
G1 X105.551 Y102.202 E6.40693
G1 X105.371 Y102.294 E6.41846
G1 X104.223 Y102.842 E6.49104
G1 X104.092 Y102.901 E6.49924
G1 X103.855 Y103.004 E6.51399
G1 X103.673 Y103.078 E6.5252
G1 X102.649 Y103.465 E6.58766
G1 X102.481 Y103.525 E6.59784
G1 X101.735 Y103.77 E6.64264
G1 X101.577 Y103.818 E6.65206
G1 X100.531 Y104.115 E6.7141
G1 X100.39 Y104.152 E6.72242
G1 X100.17 Y104.206 E6.73535
G1 X99.972 Y104.25 E6.74692
G1 X98.951 Y104.447 E6.80625
G1 X98.784 Y104.475 E6.81591
G1 X97.969 Y104.597 E6.86294
G1 X97.802 Y104.619 E6.87255
G1 X96.751 Y104.732 E6.93286
G1 X96.61 Y104.744 E6.94094
G1 X96.375 Y104.761 E6.95438
G1 X96.169 Y104.771 E6.96615
G1 X95.086 Y104.794 E7.02796
G1 X94.914 Y104.794 E7.03777
G1 X93.878 Y104.772 E7.0969
G1 X93.747 Y104.767 E7.10438
G1 X93.505 Y104.754 E7.1182
G1 X93.287 Y104.737 E7.13068
G1 X92.195 Y104.619 E7.19335
G1 X92.029 Y104.597 E7.20291
G1 X91.216 Y104.475 E7.24981
G1 X91.05 Y104.447 E7.25942
G1 X90.07 Y104.258 E7.31637
G1 X89.917 Y104.225 E7.3253
G1 X89.694 Y104.173 E7.33836
G1 X89.512 Y104.126 E7.34909
G1 X88.426 Y103.819 E7.41348
G1 X88.266 Y103.77 E7.42303
G1 X87.522 Y103.526 E7.46771
G1 X87.351 Y103.466 E7.47805
G1 X86.362 Y103.092 E7.53838
G1 X86.22 Y103.035 E7.54711
G1 X85.995 Y102.94 E7.56105
G1 X85.826 Y102.864 E7.57162
G1 X84.671 Y102.313 E7.64464
G1 X84.549 Y102.253 E7.65239
G1 X84.156 Y102.049 E7.67766
G1 X83.995 Y101.96 E7.68816
G1 X83.452 Y101.646 E7.72395
G1 X83.285 Y101.544 E7.73511
G1 X82.146 Y100.81 E7.81243
G1 X82.019 Y100.725 E7.82115
G1 X81.703 Y100.504 E7.84315
G1 X81.572 Y100.408 E7.85242
G1 X81.058 Y100.017 E7.88927
G1 X80.898 Y99.889 E7.90096
G1 X79.879 Y99.029 E7.97704
G1 X79.78 Y98.943 E7.98452
G1 X79.427 Y98.625 E8.01163
G1 X79.303 Y98.508 E8.02136
G1 X78.595 Y97.814 E8.07793
G1 X78.567 Y97.786 E8.08019
G1 X64.01 Y83.235 E9.25459
G1 X63.969 Y83.194 E9.2579
G1 X63.306 Y82.512 E9.31217
G1 X63.23 Y82.432 E9.31847
G1 X62.813 Y81.979 E9.3536
G1 X62.734 Y81.89 E9.36039
G1 X62.373 Y81.474 E9.39182
G1 X62.264 Y81.343 E9.40154
G1 X61.751 Y80.699 E9.44852
G1 X61.429 Y80.231 E9.48094
G1 X61.175 Y79.721 E9.51345
G1 X60.996 Y79.182 E9.54585
G1 X60.894 Y78.622 E9.57833
G1 X60.869 Y78.227 E9.60091
G1 X60.86 Y77.515 E9.64154
G1 X60.86 Y77.459 E9.64474
G1 X60.862 Y75.716 E9.74419
G1 X60.862 Y70.129 E10.06298
G1 X60.872 Y69.45 E10.10173
G1 X60.921 Y68.884 E10.13414
G1 X61.048 Y68.329 E10.16663
G1 X61.252 Y67.798 E10.19909
G1 X61.528 Y67.301 E10.23152
G1 X61.871 Y66.847 E10.26399
G1 X62.274 Y66.446 E10.29643
G0 F3600 X62.558 Y67.136
G1 F1800 X62.952 Y66.8 E10.32597
G1 X63.393 Y66.529 E10.35551
G1 X63.87 Y66.33 E10.385
G1 X64.191 Y66.241 E10.40401
G1 X64.741 Y66.118 E10.43616
G1 X65 Y66.07 E10.45119
G1 X65.625 Y65.981 E10.48721
G1 X65.823 Y65.959 E10.49858
G1 X66.14 Y65.933 E10.51673
G1 X66.248 Y65.926 E10.52291
G1 X66.47 Y65.915 E10.53559
G1 X66.58 Y65.911 E10.54187
G1 X67.592 Y65.894 E10.59962
G1 X67.647 Y65.894 E10.60276
G1 X79.995 Y65.891 E11.30732
G1 X80.043 Y65.891 E11.31006
G1 X80.684 Y65.9 E11.34664
G1 X81.057 Y65.926 E11.36797
G1 X82.253 Y66.077 E11.43675
G1 X82.301 Y66.084 E11.43952
G1 X82.793 Y66.153 E11.46787
G1 X85.539 Y66.464 E11.62555
G1 X88.238 Y66.692 E11.7801
G1 X90.975 Y66.845 E11.93652
G1 X93.723 Y66.922 E12.09338
G1 X96.431 Y66.92 E12.24789
G1 X99.173 Y66.842 E12.40441
G1 X101.919 Y66.684 E12.56135
G1 X104.648 Y66.451 E12.71763
G1 X107.363 Y66.14 E12.87356
G1 X108.741 Y65.953 E12.95291
G1 X108.975 Y65.929 E12.96633
G1 X109.452 Y65.898 E12.9936
G1 X109.669 Y65.891 E13.00599
G1 X122.169 Y65.891 E13.71922
G1 X122.228 Y65.892 E13.72259
G1 X123.524 Y65.915 E13.79655
G1 X123.701 Y65.922 E13.80666
G1 X124.098 Y65.95 E13.82937
G1 X124.223 Y65.962 E13.83653
G1 X124.435 Y65.985 E13.8487
G1 X124.577 Y66.003 E13.85687
G1 X124.847 Y66.044 E13.87245
G1 X124.969 Y66.065 E13.87951
G1 X125.243 Y66.117 E13.89543
G1 X125.348 Y66.138 E13.90154
G1 X125.805 Y66.24 E13.92825
G1 X126.299 Y66.392 E13.95774
G1 X126.765 Y66.617 E13.98727
G1 X127.19 Y66.912 E14.01679
G1 X127.565 Y67.269 E14.04633
G1 X127.88 Y67.679 E14.07583
G1 X128.129 Y68.132 E14.10533
G1 X128.304 Y68.619 E14.13486
G1 X128.403 Y69.127 E14.16439
G1 X128.425 Y69.453 E14.18303
G1 X128.438 Y70.211 E14.22629
G1 X128.438 Y70.266 E14.22943
G1 X128.442 Y77.504 E14.64242
G1 X128.442 Y77.551 E14.6451
G1 X128.433 Y78.214 E14.68293
G1 X128.386 Y78.73 E14.7125
G1 X128.26 Y79.231 E14.74197
G1 X128.059 Y79.708 E14.77151
G1 X127.76 Y80.182 E14.80348
G1 X127.572 Y80.432 E14.82133
G1 X127.479 Y80.551 E14.82995
G1 X127.068 Y81.049 E14.86679
G1 X127.01 Y81.117 E14.87189
G1 X126.699 Y81.474 E14.89891
G1 X126.639 Y81.541 E14.90404
G1 X126.343 Y81.863 E14.929
G1 X126.273 Y81.937 E14.93481
G1 X125.426 Y82.804 E15.00397
G1 X125.399 Y82.832 E15.00619
G1 X110.939 Y97.291 E16.17297
G1 X110.914 Y97.315 E16.17495
G1 X110.333 Y97.884 E16.22135
G1 X110.273 Y97.942 E16.22611
G1 X109.833 Y98.352 E16.26042
G1 X109.707 Y98.463 E16.27001
G1 X108.666 Y99.34 E16.34767
G1 X108.58 Y99.41 E16.354
G1 X108.298 Y99.632 E16.37448
G1 X108.178 Y99.722 E16.38304
G1 X107.63 Y100.115 E16.42152
G1 X107.497 Y100.206 E16.43071
G1 X106.368 Y100.936 E16.50742
G1 X106.262 Y101.002 E16.51455
G1 X105.946 Y101.19 E16.53553
G1 X105.826 Y101.258 E16.5434
G1 X105.219 Y101.586 E16.58277
G1 X105.069 Y101.662 E16.59236
G1 X103.921 Y102.21 E16.66494
G1 X103.813 Y102.259 E16.67171
G1 X103.576 Y102.362 E16.68646
G1 X103.425 Y102.424 E16.69577
G1 X102.401 Y102.811 E16.75823
G1 X102.262 Y102.86 E16.76664
G1 X101.516 Y103.105 E16.81144
G1 X101.386 Y103.145 E16.8192
G1 X100.34 Y103.442 E16.88125
G1 X100.224 Y103.472 E16.88808
G1 X100.004 Y103.526 E16.90101
G1 X99.84 Y103.562 E16.91059
G1 X98.819 Y103.759 E16.96992
G1 X98.68 Y103.783 E16.97797
G1 X97.865 Y103.905 E17.02499
G1 X97.727 Y103.923 E17.03293
G1 X96.676 Y104.036 E17.09325
G1 X96.56 Y104.046 E17.09989
G1 X96.325 Y104.063 E17.11333
G1 X96.154 Y104.071 E17.1231
G1 X95.071 Y104.094 E17.18491
G1 X94.929 Y104.094 E17.19301
G1 X93.893 Y104.072 E17.25214
G1 X93.784 Y104.068 E17.25836
G1 X93.542 Y104.055 E17.27219
G1 X93.362 Y104.041 E17.28249
G1 X92.27 Y103.923 E17.34516
G1 X92.133 Y103.905 E17.35305
G1 X91.32 Y103.783 E17.39995
G1 X91.183 Y103.759 E17.40789
G1 X90.203 Y103.57 E17.46484
G1 X90.076 Y103.543 E17.47225
G1 X89.853 Y103.491 E17.48531
G1 X89.703 Y103.453 E17.49414
G1 X88.617 Y103.146 E17.55853
G1 X88.484 Y103.105 E17.56648
G1 X87.74 Y102.861 E17.61115
G1 X87.599 Y102.811 E17.61969
G1 X86.61 Y102.437 E17.68002
G1 X86.492 Y102.39 E17.68727
G1 X86.267 Y102.295 E17.7012
G1 X86.128 Y102.233 E17.70989
G1 X84.973 Y101.682 E17.7829
G1 X84.872 Y101.631 E17.78936
G1 X84.479 Y101.427 E17.81463
G1 X84.345 Y101.354 E17.82333
G1 X83.802 Y101.04 E17.85912
G1 X83.664 Y100.956 E17.86834
G1 X82.525 Y100.222 E17.94566
G1 X82.42 Y100.151 E17.95289
G1 X82.104 Y99.93 E17.97489
G1 X81.996 Y99.851 E17.98253
G1 X81.482 Y99.46 E18.01938
G1 X81.349 Y99.354 E18.02908
G1 X80.33 Y98.494 E18.10516
G1 X80.249 Y98.423 E18.11131
G1 X79.896 Y98.105 E18.13842
G1 X79.793 Y98.008 E18.14649
G1 X79.085 Y97.314 E18.20306
G1 X79.062 Y97.291 E18.20491
G1 X64.505 Y82.74 E19.37932
G1 X64.471 Y82.706 E19.38207
G1 X63.808 Y82.024 E19.43634
G1 X63.745 Y81.958 E19.44154
G1 X63.328 Y81.505 E19.47668
G1 X63.263 Y81.432 E19.48225
G1 X62.902 Y81.016 E19.51368
G1 X62.812 Y80.907 E19.52175
G1 X62.299 Y80.263 E19.56873
G1 X62.009 Y79.835 E19.59822
G1 X61.788 Y79.367 E19.62776
G1 X61.642 Y78.871 E19.65726
G1 X61.569 Y78.218 E19.69475
G1 X61.56 Y77.506 E19.73538
G1 X61.56 Y77.46 E19.738
G1 X61.562 Y75.717 E19.83746
G1 X61.562 Y70.14 E20.15567
G1 X61.572 Y69.461 E20.19442
G1 X61.62 Y68.946 E20.22393
G1 X61.746 Y68.444 E20.25346
G1 X61.948 Y67.968 E20.28297
G1 X62.221 Y67.528 E20.31251
G1 X62.558 Y67.136 E20.34201
G10
;MESH:zbearingholder_24mmdia_0p8mmgap.stl
G0 F3600 X65.529 Y69.795
G0 X84.105 Y92.086
G0 X85.501 Y93.422
G0 X87.06 Y94.566
G0 X88.756 Y95.496
G0 X90.557 Y96.197
G0 X91.621 Y96.456
G0 X93.709 Y96.885
G0 X93.717 Y96.786
;TYPE:WALL-OUTER
G11
G1 F1800 X94.358 Y96.827 E20.37866
G1 X95 Y96.841 E20.4153
G1 X95.642 Y96.827 E20.45194
G1 X96.283 Y96.786 E20.48859
G1 X96.923 Y96.715 E20.52533
G1 X97.558 Y96.617 E20.56199
G1 X98.189 Y96.492 E20.5987
G1 X98.814 Y96.339 E20.63541
G1 X99.431 Y96.159 E20.67208
G1 X100.04 Y95.953 E20.70877
G1 X100.64 Y95.72 E20.74549
G1 X101.228 Y95.46 E20.78218
G1 X101.806 Y95.176 E20.81892
G1 X102.369 Y94.867 E20.85557
G1 X102.919 Y94.533 E20.89228
G1 X103.454 Y94.176 E20.92898
G1 X103.973 Y93.795 E20.96572
G1 X104.474 Y93.392 E21.0024
G1 X104.957 Y92.968 E21.03908
G1 X105.422 Y92.524 E21.07576
G1 X105.866 Y92.059 E21.11245
G1 X106.29 Y91.576 E21.14912
G1 X106.693 Y91.075 E21.1858
G1 X107.074 Y90.555 E21.22259
G1 X107.43 Y90.021 E21.25921
G1 X107.765 Y89.471 E21.29595
G1 X108.073 Y88.908 E21.33257
G1 X108.357 Y88.33 E21.36931
G1 X108.617 Y87.743 E21.40595
G1 X108.851 Y87.143 E21.44269
G1 X109.057 Y86.533 E21.47943
G1 X109.237 Y85.917 E21.51605
G1 X109.39 Y85.291 E21.55282
G1 X109.515 Y84.66 E21.58952
G1 X109.613 Y84.025 E21.62618
G1 X109.683 Y83.386 E21.66286
G1 X109.725 Y82.745 E21.69952
G1 X109.739 Y82.106 E21.73598
G1 X109.739 Y69.641 E22.44722
G1 X123.056 Y69.641 E23.20707
G1 X123.557 Y69.659 E23.23568
G1 X124.031 Y69.703 E23.26284
G1 X124.688 Y69.818 E23.3009
G1 X124.692 Y78.043 E23.7702
G1 X124.391 Y78.417 E23.7976
G1 X124.032 Y78.84 E23.82925
G1 X123.692 Y79.22 E23.85835
G1 X123.34 Y79.592 E23.88757
G1 X122.973 Y79.955 E23.91702
G1 X120.964 Y81.962 E24.07905
G1 X107.918 Y95.008 E25.13178
G1 X107.346 Y95.556 E25.17698
G1 X106.777 Y96.057 E25.22023
G1 X106.174 Y96.544 E25.26446
G1 X105.537 Y97.015 E25.30966
G1 X104.909 Y97.439 E25.3529
G1 X104.234 Y97.855 E25.39814
G1 X103.566 Y98.228 E25.44179
G1 X102.869 Y98.579 E25.48632
G1 X102.169 Y98.896 E25.53017
G1 X101.446 Y99.186 E25.57462
G1 X100.71 Y99.446 E25.61916
G1 X99.983 Y99.669 E25.66254
G1 X99.224 Y99.867 E25.7073
G1 X98.465 Y100.03 E25.7516
G1 X97.712 Y100.159 E25.79519
G1 X96.939 Y100.258 E25.83965
G1 X96.16 Y100.325 E25.88427
G1 X95.379 Y100.358 E25.92887
G1 X94.621 Y100.358 E25.97212
G1 X93.84 Y100.325 E26.01672
G1 X93.061 Y100.258 E26.06134
G1 X92.288 Y100.159 E26.1058
G1 X91.535 Y100.03 E26.14939
G1 X90.776 Y99.867 E26.19369
G1 X90.017 Y99.669 E26.23845
G1 X89.29 Y99.446 E26.28183
G1 X88.554 Y99.186 E26.32637
G1 X87.831 Y98.896 E26.37082
G1 X87.131 Y98.579 E26.41467
G1 X86.434 Y98.228 E26.4592
G1 X85.766 Y97.855 E26.50285
G1 X85.091 Y97.439 E26.54809
G1 X84.463 Y97.015 E26.59133
G1 X83.826 Y96.544 E26.63653
G1 X83.223 Y96.057 E26.68076
G1 X82.654 Y95.556 E26.72401
G1 X82.082 Y95.008 E26.76921
G1 X66.652 Y79.584 E28.01407
G1 X66.308 Y79.22 E28.04264
G1 X65.962 Y78.833 E28.07226
G1 X65.618 Y78.428 E28.10258
G1 X65.309 Y78.049 E28.13048
G1 X65.312 Y75.721 E28.26332
G1 X65.312 Y69.822 E28.59991
G1 X65.525 Y69.775 E28.61235
G1 X66.145 Y69.685 E28.6481
G1 X66.8 Y69.644 E28.68555
G1 X79.911 Y69.641 E29.43364
G1 X80.261 Y69.641 E29.45361
G1 X80.261 Y69.991 E29.46654
G1 X80.261 Y82.106 E30.1578
G1 X80.275 Y82.745 E30.19427
G1 X80.317 Y83.386 E30.23092
G1 X80.387 Y84.025 E30.2676
G1 X80.485 Y84.66 E30.30426
G1 X80.61 Y85.291 E30.34097
G1 X80.763 Y85.917 E30.37774
G1 X80.943 Y86.533 E30.41436
G1 X81.149 Y87.143 E30.45109
G1 X81.383 Y87.743 E30.48784
G1 X81.643 Y88.33 E30.52447
G1 X81.927 Y88.908 E30.56122
G1 X82.235 Y89.471 E30.59784
G1 X82.57 Y90.021 E30.63458
G1 X82.926 Y90.555 E30.6712
G1 X83.307 Y91.075 E30.70798
G1 X83.71 Y91.576 E30.74467
G1 X84.134 Y92.059 E30.78134
G1 X84.578 Y92.524 E30.81803
G1 X85.043 Y92.968 E30.85471
G1 X85.526 Y93.392 E30.89138
G1 X86.027 Y93.795 E30.92807
G1 X86.546 Y94.176 E30.96481
G1 X87.081 Y94.533 E31.0015
G1 X87.631 Y94.867 E31.03822
G1 X88.194 Y95.176 E31.07486
G1 X88.772 Y95.46 E31.11161
G1 X89.36 Y95.72 E31.14829
G1 X89.96 Y95.953 E31.18502
G1 X90.569 Y96.159 E31.2217
G1 X91.186 Y96.339 E31.25838
G1 X91.811 Y96.492 E31.29509
G1 X92.442 Y96.617 E31.33179
G1 X93.077 Y96.715 E31.36846
G1 X93.717 Y96.786 E31.4052
G0 F3600 X94.116 Y96.811
G0 X94.329 Y97.517
;TYPE:SKIN
G1 F1800 X95 Y97.531 E31.44349
G1 X95.671 Y97.517 E31.48179
G1 X96.343 Y97.474 E31.52021
G1 X97.014 Y97.399 E31.55873
G1 X97.678 Y97.297 E31.59706
G1 X98.339 Y97.166 E31.63551
G1 X98.993 Y97.005 E31.67394
G1 X99.638 Y96.817 E31.71228
G1 X100.275 Y96.602 E31.75064
G1 X100.904 Y96.357 E31.78916
G1 X101.52 Y96.085 E31.82758
G1 X102.124 Y95.789 E31.86596
G1 X102.714 Y95.464 E31.90439
G1 X103.29 Y95.115 E31.94282
G1 X103.85 Y94.742 E31.98121
G1 X104.393 Y94.343 E32.01966
G1 X104.918 Y93.92 E32.05813
G1 X105.422 Y93.477 E32.09642
G1 X105.91 Y93.012 E32.13488
G1 X106.375 Y92.524 E32.17334
G1 X106.818 Y92.02 E32.21163
G1 X107.241 Y91.495 E32.2501
G1 X107.64 Y90.951 E32.28859
G1 X108.012 Y90.392 E32.3269
G1 X108.362 Y89.816 E32.36536
G1 X108.686 Y89.226 E32.40377
G1 X108.982 Y88.622 E32.44215
G1 X109.254 Y88.009 E32.48041
G1 X109.5 Y87.379 E32.519
G1 X109.715 Y86.74 E32.55747
G1 X109.903 Y86.096 E32.59575
G1 X110.064 Y85.441 E32.63424
G1 X110.195 Y84.78 E32.67269
G1 X110.297 Y84.115 E32.71107
G1 X110.371 Y83.447 E32.74942
G1 X110.415 Y82.775 E32.78785
G1 X110.429 Y82.114 E32.82557
G1 X110.429 Y70.331 E33.49789
