;FLAVOR:Marlin
;TIME:16062
;Filament used: 8.38673m
;Layer height: 0.4
;MINX:59.33
;MINY:41.945
;MINZ:0.52
;MAXX:130.67
;MAXY:117.319
;MAXZ:37.72
;Generated with Cura_SteamEngine 4.1.0
M82 ;absolute extrusion mode
M98 P0:/sys/startprint.g

G92 E0
G92 E0
G10
;LAYER_COUNT:94
;LAYER:0
M107
G0 F3600 X62.221 Y43.582 Z0.52
;TYPE:SKIRT
G11
G1 F1800 X62.558 Y43.19 E0.0295
G1 X62.952 Y42.854 E0.05904
G1 X63.393 Y42.583 E0.08858
G1 X63.87 Y42.384 E0.11807
G1 X64.191 Y42.295 E0.13707
G1 X64.741 Y42.172 E0.16923
G1 X65 Y42.124 E0.18426
G1 X65.625 Y42.035 E0.22028
G1 X65.823 Y42.013 E0.23165
G1 X66.14 Y41.987 E0.2498
G1 X66.248 Y41.98 E0.25597
G1 X66.47 Y41.969 E0.26866
G1 X66.58 Y41.965 E0.27494
G1 X67.592 Y41.948 E0.33269
G1 X67.647 Y41.948 E0.33583
G1 X79.995 Y41.945 E1.04039
G1 X80.043 Y41.945 E1.04313
G1 X80.684 Y41.954 E1.0797
G1 X81.057 Y41.98 E1.10104
G1 X82.253 Y42.131 E1.16982
G1 X82.301 Y42.138 E1.17259
G1 X82.793 Y42.207 E1.20094
G1 X85.539 Y42.518 E1.35862
G1 X88.238 Y42.746 E1.51317
G1 X90.975 Y42.899 E1.66959
G1 X93.723 Y42.976 E1.82644
G1 X96.431 Y42.974 E1.98096
G1 X99.173 Y42.896 E2.13748
G1 X101.919 Y42.738 E2.29442
G1 X104.648 Y42.505 E2.4507
G1 X107.363 Y42.194 E2.60663
G1 X108.741 Y42.007 E2.68597
G1 X108.975 Y41.983 E2.6994
G1 X109.452 Y41.952 E2.72667
G1 X109.669 Y41.945 E2.73906
G1 X122.169 Y41.945 E3.45229
G1 X122.228 Y41.946 E3.45566
G1 X123.524 Y41.969 E3.52962
G1 X123.701 Y41.976 E3.53973
G1 X124.098 Y42.004 E3.56244
G1 X124.223 Y42.016 E3.5696
G1 X124.435 Y42.039 E3.58177
G1 X124.577 Y42.057 E3.58994
G1 X124.847 Y42.098 E3.60552
G1 X124.969 Y42.119 E3.61258
G1 X125.243 Y42.171 E3.62849
G1 X125.348 Y42.192 E3.6346
G1 X125.805 Y42.294 E3.66132
G1 X126.299 Y42.446 E3.69081
G1 X126.765 Y42.671 E3.72034
G1 X127.19 Y42.966 E3.74986
G1 X127.565 Y43.323 E3.7794
G1 X127.88 Y43.733 E3.8089
G1 X128.129 Y44.186 E3.8384
G1 X128.304 Y44.673 E3.86792
G1 X128.403 Y45.181 E3.89746
G1 X128.425 Y45.507 E3.9161
G1 X128.438 Y46.265 E3.95936
G1 X128.438 Y46.32 E3.96249
G1 X128.442 Y53.558 E4.37548
G1 X128.442 Y53.606 E4.37822
G1 X128.433 Y54.268 E4.416
G1 X128.339 Y55.012 E4.45879
G1 X128.083 Y56.067 E4.52073
G1 X128.068 Y56.123 E4.52404
G1 X127.95 Y56.574 E4.55064
G1 X127.336 Y59.238 E4.70663
G1 X126.791 Y61.94 E4.86391
G1 X126.332 Y64.625 E5.01933
G1 X125.946 Y67.325 E5.17496
G1 X125.638 Y70.02 E5.32973
G1 X125.405 Y72.75 E5.48607
G1 X125.249 Y75.493 E5.64283
G1 X125.17 Y78.237 E5.79947
G1 X125.168 Y80.946 E5.95404
G1 X125.245 Y83.691 E6.11073
G1 X125.399 Y86.433 E6.26743
G1 X125.627 Y89.129 E6.42181
G1 X125.936 Y91.865 E6.57891
G1 X126.32 Y94.57 E6.7348
G1 X126.78 Y97.258 E6.89041
G1 X127.313 Y99.926 E7.04565
G1 X127.93 Y102.614 E7.20301
G1 X128.097 Y103.256 E7.24086
G1 X128.11 Y103.307 E7.24386
G1 X128.335 Y104.233 E7.29824
G1 X128.43 Y104.978 E7.34109
G1 X128.44 Y105.7 E7.38229
G1 X128.44 Y105.75 E7.38514
G1 X128.438 Y107.493 E7.4846
G1 X128.438 Y113.018 E7.79985
G1 X128.428 Y113.745 E7.84133
G1 X128.381 Y114.26 E7.87084
G1 X128.255 Y114.762 E7.90037
G1 X128.053 Y115.238 E7.92988
G1 X127.781 Y115.678 E7.95939
G1 X127.444 Y116.071 E7.98893
G1 X127.051 Y116.407 E8.01843
G1 X126.61 Y116.678 E8.04797
G1 X126.133 Y116.878 E8.07748
G1 X125.815 Y116.967 E8.09632
G1 X125.265 Y117.091 E8.12849
G1 X125 Y117.14 E8.14387
G1 X124.375 Y117.229 E8.17989
G1 X124.177 Y117.251 E8.19126
G1 X123.86 Y117.277 E8.20941
G1 X123.752 Y117.284 E8.21558
G1 X123.53 Y117.295 E8.22826
G1 X123.42 Y117.299 E8.23454
G1 X122.408 Y117.316 E8.2923
G1 X122.353 Y117.316 E8.29543
G1 X110.005 Y117.319 E8.99999
G1 X109.957 Y117.319 E9.00273
G1 X109.316 Y117.31 E9.03931
G1 X108.943 Y117.284 E9.06065
G1 X107.747 Y117.133 E9.12943
G1 X107.699 Y117.126 E9.1322
G1 X107.207 Y117.057 E9.16055
G1 X104.461 Y116.746 E9.31823
G1 X101.762 Y116.518 E9.47278
G1 X99.025 Y116.365 E9.62919
G1 X96.277 Y116.288 E9.78605
G1 X93.569 Y116.29 E9.94057
G1 X90.827 Y116.368 E10.09709
G1 X88.081 Y116.526 E10.25403
G1 X85.352 Y116.759 E10.41031
G1 X82.637 Y117.07 E10.56623
G1 X81.259 Y117.257 E10.64558
G1 X81.025 Y117.281 E10.659
G1 X80.548 Y117.312 E10.68628
G1 X80.331 Y117.319 E10.69867
G1 X67.831 Y117.319 E11.4119
G1 X67.772 Y117.318 E11.41527
G1 X66.477 Y117.295 E11.48917
G1 X66.301 Y117.288 E11.49922
G1 X65.903 Y117.26 E11.52199
G1 X65.778 Y117.249 E11.52915
G1 X65.565 Y117.226 E11.54137
G1 X65.422 Y117.207 E11.5496
G1 X65.152 Y117.166 E11.56518
G1 X65.028 Y117.145 E11.57236
G1 X64.755 Y117.093 E11.58822
G1 X64.652 Y117.072 E11.59421
G1 X64.195 Y116.97 E11.62093
G1 X63.701 Y116.818 E11.65042
G1 X63.235 Y116.593 E11.67995
G1 X62.81 Y116.298 E11.70947
G1 X62.435 Y115.941 E11.73901
G1 X62.12 Y115.531 E11.76851
G1 X61.871 Y115.078 E11.79801
G1 X61.696 Y114.591 E11.82753
G1 X61.597 Y114.083 E11.85707
G1 X61.575 Y113.754 E11.87588
G1 X61.562 Y112.945 E11.92205
G1 X61.562 Y112.893 E11.92501
G1 X61.558 Y105.706 E12.33509
G1 X61.558 Y105.654 E12.33806
G1 X61.568 Y104.983 E12.37635
G1 X61.663 Y104.24 E12.41909
G1 X61.918 Y103.194 E12.48052
G1 X61.932 Y103.141 E12.48365
G1 X62.05 Y102.69 E12.51025
G1 X62.663 Y100.033 E12.66584
G1 X63.213 Y97.306 E12.82457
G1 X63.667 Y94.646 E12.97854
G1 X64.054 Y91.939 E13.13457
G1 X64.362 Y89.244 E13.28934
G1 X64.595 Y86.514 E13.44568
G1 X64.751 Y83.771 E13.60245
G1 X64.83 Y81.027 E13.75908
G1 X64.832 Y78.318 E13.91365
G1 X64.755 Y75.573 E14.07034
G1 X64.601 Y72.831 E14.22704
G1 X64.373 Y70.134 E14.38148
G1 X64.064 Y67.399 E14.53852
G1 X63.68 Y64.693 E14.69447
G1 X63.22 Y62.007 E14.84996
G1 X62.687 Y59.338 E15.00526
G1 X62.07 Y56.65 E15.16262
G1 X61.903 Y56.008 E15.20047
G1 X61.89 Y55.959 E15.20337
G1 X61.664 Y55.032 E15.25781
G1 X61.569 Y54.281 E15.301
G1 X61.56 Y53.56 E15.34214
G1 X61.56 Y53.514 E15.34477
G1 X61.562 Y51.771 E15.44422
G1 X61.562 Y46.194 E15.76244
G1 X61.572 Y45.515 E15.80118
G1 X61.62 Y45 E15.8307
G1 X61.746 Y44.498 E15.86023
G1 X61.948 Y44.022 E15.88973
G1 X62.221 Y43.582 E15.91928
G10
;MESH:zbearingholder_24mmdia_0p8mmgap.stl
G0 F3600 X65.529 Y45.849
G0 X84.105 Y68.14
G0 X85.501 Y69.476
G0 X87.06 Y70.62
G0 X89.322 Y71.866
G0 X89.36 Y71.774
;TYPE:WALL-OUTER
G11
G1 F1800 X89.96 Y72.007 E15.95601
G1 X90.569 Y72.213 E15.99269
G1 X91.186 Y72.393 E16.02936
G1 X91.811 Y72.546 E16.06608
G1 X92.442 Y72.671 E16.10278
G1 X93.077 Y72.769 E16.13944
G1 X93.717 Y72.84 E16.17618
G1 X94.358 Y72.881 E16.21283
G1 X95 Y72.895 E16.24947
G1 X95.642 Y72.881 E16.28611
G1 X96.283 Y72.84 E16.32276
G1 X96.923 Y72.769 E16.3595
G1 X97.558 Y72.671 E16.39616
G1 X98.189 Y72.546 E16.43287
G1 X98.814 Y72.393 E16.46958
G1 X99.431 Y72.213 E16.50626
G1 X100.04 Y72.007 E16.54294
G1 X100.64 Y71.774 E16.57966
G1 X101.228 Y71.513 E16.61637
G1 X101.806 Y71.229 E16.65312
G1 X102.369 Y70.921 E16.68973
G1 X102.919 Y70.587 E16.72645
G1 X103.454 Y70.23 E16.76315
G1 X103.973 Y69.849 E16.79989
G1 X104.474 Y69.446 E16.83657
G1 X104.957 Y69.022 E16.87324
G1 X105.422 Y68.578 E16.90993
G1 X105.866 Y68.113 E16.94661
G1 X106.29 Y67.63 E16.98329
G1 X106.693 Y67.129 E17.01997
G1 X107.074 Y66.609 E17.05675
G1 X107.43 Y66.075 E17.09337
G1 X107.765 Y65.525 E17.13012
G1 X108.073 Y64.962 E17.16674
G1 X108.357 Y64.384 E17.20348
G1 X108.617 Y63.797 E17.24011
G1 X108.851 Y63.197 E17.27686
G1 X109.057 Y62.587 E17.3136
G1 X109.237 Y61.971 E17.35022
G1 X109.39 Y61.345 E17.38699
G1 X109.515 Y60.714 E17.42369
G1 X109.613 Y60.079 E17.46035
G1 X109.683 Y59.44 E17.49703
G1 X109.725 Y58.799 E17.53368
G1 X109.739 Y58.16 E17.57015
G1 X109.739 Y45.695 E18.28139
G1 X123.056 Y45.695 E19.04124
G1 X123.557 Y45.713 E19.06984
G1 X124.031 Y45.757 E19.09701
G1 X124.688 Y45.872 E19.13506
G1 X124.692 Y54.097 E19.60437
G1 X124.391 Y54.471 E19.63176
G1 X124.032 Y54.894 E19.66342
G1 X123.692 Y55.274 E19.69251
G1 X123.34 Y55.646 E19.72174
G1 X122.973 Y56.009 E19.75119
G1 X120.964 Y58.016 E19.91322
G1 X107.918 Y71.062 E20.96595
G1 X107.346 Y71.61 E21.01114
G1 X106.777 Y72.111 E21.0544
G1 X106.174 Y72.598 E21.09863
G1 X105.537 Y73.069 E21.14383
G1 X104.91 Y73.493 E21.18702
G1 X104.238 Y73.906 E21.23203
G1 X103.566 Y74.283 E21.27599
G1 X102.869 Y74.633 E21.32049
G1 X102.169 Y74.95 E21.36434
G1 X101.446 Y75.24 E21.40879
G1 X100.71 Y75.5 E21.45333
G1 X99.983 Y75.723 E21.49671
G1 X99.224 Y75.921 E21.54147
G1 X98.465 Y76.084 E21.58577
G1 X97.712 Y76.213 E21.62936
G1 X96.939 Y76.312 E21.67382
G1 X96.16 Y76.379 E21.71844
G1 X95.379 Y76.412 E21.76304
G1 X94.621 Y76.412 E21.80629
G1 X93.84 Y76.379 E21.85089
G1 X93.061 Y76.312 E21.89551
G1 X92.288 Y76.213 E21.93997
G1 X91.535 Y76.084 E21.98356
G1 X90.776 Y75.921 E22.02786
G1 X90.017 Y75.723 E22.07262
G1 X89.29 Y75.5 E22.116
G1 X88.554 Y75.24 E22.16054
G1 X87.831 Y74.95 E22.20499
G1 X87.131 Y74.633 E22.24884
G1 X86.434 Y74.283 E22.29334
G1 X85.762 Y73.906 E22.3373
G1 X85.09 Y73.493 E22.38231
G1 X84.463 Y73.069 E22.4255
G1 X83.826 Y72.598 E22.4707
G1 X83.223 Y72.111 E22.51493
G1 X82.654 Y71.61 E22.55819
G1 X82.082 Y71.062 E22.60338
G1 X66.652 Y55.638 E23.84824
G1 X66.308 Y55.274 E23.87681
G1 X65.962 Y54.887 E23.90643
G1 X65.618 Y54.482 E23.93675
G1 X65.309 Y54.103 E23.96466
G1 X65.312 Y51.775 E24.09749
G1 X65.312 Y45.876 E24.43408
G1 X65.525 Y45.829 E24.44652
G1 X66.145 Y45.739 E24.48227
G1 X66.8 Y45.698 E24.51972
G1 X79.911 Y45.695 E25.26781
G1 X80.261 Y45.695 E25.28778
G1 X80.261 Y46.045 E25.30071
G1 X80.261 Y58.16 E25.99197
G1 X80.275 Y58.799 E26.02844
G1 X80.317 Y59.44 E26.0651
G1 X80.387 Y60.079 E26.10178
G1 X80.485 Y60.714 E26.13844
G1 X80.61 Y61.345 E26.17514
G1 X80.763 Y61.971 E26.21191
G1 X80.943 Y62.587 E26.24853
G1 X81.149 Y63.197 E26.28527
G1 X81.383 Y63.797 E26.32201
G1 X81.643 Y64.384 E26.35864
G1 X81.927 Y64.962 E26.39539
G1 X82.235 Y65.525 E26.43201
G1 X82.57 Y66.075 E26.46875
G1 X82.926 Y66.609 E26.50537
G1 X83.307 Y67.129 E26.54215
G1 X83.71 Y67.63 E26.57884
G1 X84.134 Y68.113 E26.61551
G1 X84.578 Y68.578 E26.6522
G1 X85.043 Y69.022 E26.68888
G1 X85.526 Y69.446 E26.72555
G1 X86.027 Y69.849 E26.76224
G1 X86.546 Y70.23 E26.79898
G1 X87.081 Y70.587 E26.83568
G1 X87.631 Y70.921 E26.87239
G1 X88.194 Y71.229 E26.90901
G1 X88.772 Y71.513 E26.94576
G1 X89.36 Y71.774 E26.98246
G0 F3600 X89.733 Y71.918
G0 X89.725 Y72.656
;TYPE:SKIN
G1 F1800 X90.362 Y72.871 E27.02082
G1 X91.007 Y73.059 E27.05916
G1 X91.661 Y73.22 E27.09759
G1 X92.322 Y73.351 E27.13604
G1 X92.986 Y73.453 E27.17437
G1 X93.657 Y73.528 E27.21289
G1 X94.329 Y73.571 E27.25132
G1 X95 Y73.585 E27.28961
G1 X95.671 Y73.571 E27.3279
G1 X96.343 Y73.528 E27.36633
G1 X97.014 Y73.453 E27.40485
G1 X97.678 Y73.351 E27.44318
G1 X98.339 Y73.22 E27.48163
G1 X98.993 Y73.059 E27.52006
G1 X99.638 Y72.871 E27.5584
G1 X100.275 Y72.656 E27.59676
G1 X100.905 Y72.411 E27.63533
G1 X101.52 Y72.138 E27.67372
G1 X102.124 Y71.842 E27.7121
G1 X102.714 Y71.519 E27.75048
G1 X103.29 Y71.169 E27.78894
G1 X103.85 Y70.796 E27.82733
G1 X104.393 Y70.397 E27.86578
G1 X104.918 Y69.974 E27.90425
G1 X105.422 Y69.531 E27.94253
G1 X105.91 Y69.066 E27.98099
G1 X106.375 Y68.578 E28.01946
G1 X106.818 Y68.074 E28.05774
G1 X107.241 Y67.549 E28.09621
G1 X107.64 Y67.005 E28.13471
G1 X108.012 Y66.446 E28.17302
G1 X108.362 Y65.87 E28.21148
G1 X108.686 Y65.28 E28.24988
G1 X108.982 Y64.676 E28.28826
G1 X109.254 Y64.063 E28.32653
G1 X109.5 Y63.433 E28.36512
G1 X109.715 Y62.794 E28.40359
G1 X109.903 Y62.15 E28.44187
G1 X110.064 Y61.495 E28.48035
G1 X110.195 Y60.834 E28.5188
G1 X110.297 Y60.169 E28.55719
G1 X110.371 Y59.501 E28.59554
G1 X110.415 Y58.829 E28.63396
G1 X110.429 Y58.168 E28.67169
G1 X110.429 Y46.385 E29.34401
G1 X123.03 Y46.385 E30.06301
G1 X123.506 Y46.403 E30.09019
G1 X123.998 Y46.452 E30.1184
G1 X124.002 Y53.854 E30.54075
G1 X123.865 Y54.025 E30.55325
G1 X123.518 Y54.434 E30.58385
G1 X123.191 Y54.799 E30.61182
G1 X122.855 Y55.155 E30.63975
G1 X122.486 Y55.52 E30.66936
G1 X120.477 Y57.527 E30.83139
G1 X107.441 Y70.563 E31.88331
G1 X106.875 Y71.105 E31.92803
G1 X106.327 Y71.588 E31.96971
G1 X105.743 Y72.059 E32.01251
G1 X105.151 Y72.497 E32.05453
G1 X104.536 Y72.913 E32.0969
G1 X103.887 Y73.312 E32.14037
G1 X103.251 Y73.668 E32.18196
G1 X102.563 Y74.014 E32.2259
G1 X101.892 Y74.318 E32.26793
G1 X101.212 Y74.591 E32.30974
G1 X100.494 Y74.844 E32.35318
G1 X99.79 Y75.06 E32.39519
G1 X99.05 Y75.253 E32.43883
G1 X98.348 Y75.404 E32.4798
G1 X97.599 Y75.533 E32.52317
G1 X96.88 Y75.624 E32.56452
G1 X96.117 Y75.689 E32.60821
G1 X95.35 Y75.722 E32.65202
G1 X94.65 Y75.722 E32.69196
G1 X93.883 Y75.689 E32.73576
G1 X93.12 Y75.624 E32.77946
G1 X92.401 Y75.533 E32.82081
G1 X91.652 Y75.404 E32.86418
G1 X90.95 Y75.253 E32.90515
G1 X90.21 Y75.06 E32.94878
G1 X89.506 Y74.844 E32.9908
G1 X88.788 Y74.591 E33.03424
G1 X88.108 Y74.318 E33.07605
G1 X87.437 Y74.014 E33.11808
G1 X86.749 Y73.668 E33.16202
G1 X86.113 Y73.312 E33.20361
G1 X85.464 Y72.913 E33.24708
G1 X84.849 Y72.497 E33.28944
G1 X84.257 Y72.059 E33.33146
G1 X83.673 Y71.588 E33.37427
G1 X83.125 Y71.105 E33.41595
G1 X82.559 Y70.563 E33.46067
G1 X67.145 Y55.156 E34.70419
G1 X66.816 Y54.807 E34.73155
G1 X66.483 Y54.434 E34.76008
G1 X66.141 Y54.032 E34.7902
G1 X65.999 Y53.857 E34.80306
G1 X66.002 Y51.775 E34.92186
G1 X66.002 Y46.456 E35.22535
G1 X66.214 Y46.425 E35.23758
G1 X66.811 Y46.388 E35.27171
G1 X79.571 Y46.385 E35.99977
G1 X79.571 Y58.168 E36.6721
G1 X79.585 Y58.829 E36.70982
G1 X79.629 Y59.501 E36.74825
G1 X79.703 Y60.169 E36.78659
G1 X79.805 Y60.834 E36.82498
G1 X79.936 Y61.495 E36.86343
G1 X80.097 Y62.15 E36.90192
G1 X80.285 Y62.794 E36.9402
G1 X80.5 Y63.433 E36.97867
G1 X80.746 Y64.063 E37.01726
G1 X81.018 Y64.676 E37.05552
G1 X81.314 Y65.28 E37.0939
G1 X81.638 Y65.87 E37.13231
G1 X81.988 Y66.446 E37.17077
G1 X82.36 Y67.005 E37.20908
G1 X82.759 Y67.549 E37.24757
G1 X83.182 Y68.074 E37.28604
G1 X83.625 Y68.578 E37.32433
G1 X84.09 Y69.066 E37.36279
G1 X84.578 Y69.531 E37.40125
G1 X85.082 Y69.974 E37.43954
G1 X85.607 Y70.397 E37.47801
G1 X86.15 Y70.796 E37.51646
G1 X86.71 Y71.169 E37.55485
G1 X87.286 Y71.519 E37.59331
G1 X87.876 Y71.842 E37.63169
G1 X88.48 Y72.138 E37.67007
G1 X89.095 Y72.411 E37.70846
G1 X89.725 Y72.656 E37.74703
G0 F3600 X82.283 Y67.433
G1 F1800 X66.316 Y51.467 E39.03542
G0 F3600 X66.315 Y52.456
G1 F1800 X87.604 Y73.744 E40.75325
G1 X87.727 Y73.867
G0 F3600 X88.182 Y72.343
G1 F1800 X90.702 Y74.862 E40.95656
G0 F3600 X91.967 Y75.138
G1 F1800 X89.866 Y73.037 E41.12609
G1 X89.743 Y72.914
G0 F3600 X91.266 Y73.447
G1 F1800 X93.126 Y75.307 E41.27618
G0 F3600 X94.195 Y75.386
G1 F1800 X92.507 Y73.698 E41.41239
G0 F3600 X93.642 Y73.843
G1 F1800 X95.206 Y75.407 E41.5386
G0 F3600 X96.157 Y75.368
G1 F1800 X94.683 Y73.894 E41.65754
G0 F3600 X95.665 Y73.887
G1 F1800 X97.062 Y75.283 E41.77023
G0 F3600 X97.925 Y75.156
G1 F1800 X96.587 Y73.818 E41.8782
G0 F3600 X97.461 Y73.702
G1 F1800 X98.752 Y74.993 E41.98237
G0 F3600 X99.545 Y74.797
G1 F1800 X98.298 Y73.549 E42.08304
G0 F3600 X99.095 Y73.356
G1 F1800 X100.308 Y74.57 E42.18096
G0 F3600 X101.044 Y74.315
G1 F1800 X99.858 Y73.129 E42.27666
G0 F3600 X100.589 Y72.87
G1 F1800 X101.752 Y74.034 E42.37055
G0 F3600 X102.434 Y73.725
G1 F1800 X101.292 Y72.583 E42.4627
G0 F3600 X101.968 Y72.269
G1 F1800 X103.092 Y73.394 E42.55344
G0 F3600 X103.727 Y73.039
G1 F1800 X102.618 Y71.93 E42.64292
G0 F3600 X103.243 Y71.565
G1 F1800 X104.34 Y72.662 E42.73145
G0 F3600 X104.932 Y72.264
G1 F1800 X103.845 Y71.177 E42.81916
G0 F3600 X104.423 Y70.765
G1 F1800 X105.503 Y71.844 E42.90627
G0 F3600 X106.051 Y71.403
G1 F1800 X104.978 Y70.33 E42.99285
G0 F3600 X105.51 Y69.872
G1 F1800 X106.581 Y70.943 E43.07927
G0 F3600 X107.089 Y70.461
G1 F1800 X106.022 Y69.394 E43.16537
G0 F3600 X106.51 Y68.891
G1 F1800 X107.588 Y69.97 E43.2524
G0 F3600 X108.083 Y69.475
G1 F1800 X106.976 Y68.368 E43.34173
G0 F3600 X107.422 Y67.824
G1 F1800 X108.578 Y68.98 E43.43501
G0 F3600 X109.073 Y68.485
G1 F1800 X107.845 Y67.257 E43.5341
G0 F3600 X108.243 Y66.666
G1 F1800 X109.568 Y67.99 E43.64098
G0 F3600 X110.063 Y67.495
G1 F1800 X108.618 Y66.05 E43.75758
G0 F3600 X108.971 Y65.413
G1 F1800 X110.558 Y67 E43.88564
G0 F3600 X111.053 Y66.505
G1 F1800 X109.293 Y64.746 E44.02762
G0 F3600 X109.593 Y64.055
G1 F1800 X111.548 Y66.01 E44.18537
G0 F3600 X112.043 Y65.515
G1 F1800 X109.863 Y63.336 E44.36125
