;FLAVOR:Marlin
;TIME:3982
;Filament used: 2.08797m
;Layer height: 0.4
;MINX:76.964
;MINY:57.289
;MINZ:0.52
;MAXX:113.036
;MAXY:112.711
;MAXZ:23.72
;Generated with Cura_SteamEngine 4.1.0
M82 ;absolute extrusion mode
M98 P0:/sys/startprint.g

G92 E0
G92 E0
G10
;LAYER_COUNT:59
;LAYER:0
M107
G0 F3600 X78.274 Y59.403 Z0.52
;TYPE:SKIRT
G11
G1 F1800 X78.622 Y59.014 E0.02978
G1 X79.03 Y58.617 E0.06226
G1 X79.603 Y58.213 E0.10227
G1 X80.031 Y57.964 E0.13052
G1 X80.542 Y57.714 E0.16298
G1 X81.077 Y57.538 E0.19512
G1 X81.279 Y57.487 E0.207
G1 X81.442 Y57.449 E0.21655
G1 X81.739 Y57.387 E0.23387
G1 X82.436 Y57.304 E0.27392
G1 X82.652 Y57.297 E0.28625
G1 X82.749 Y57.295 E0.29178
G1 X82.987 Y57.293 E0.30536
G1 X83.02 Y57.293 E0.30725
G1 X106.609 Y57.289 E1.6532
G1 X106.667 Y57.289 E1.65651
G1 X107.373 Y57.299 E1.6968
G1 X107.882 Y57.339 E1.72593
G1 X108.321 Y57.401 E1.75123
G1 X108.878 Y57.52 E1.78373
G1 X109.39 Y57.705 E1.81479
G1 X109.857 Y57.911 E1.84392
G1 X110.36 Y58.177 E1.87638
G1 X110.927 Y58.603 E1.91685
G1 X111.317 Y58.953 E1.94675
G1 X111.713 Y59.362 E1.97923
G1 X112.113 Y59.931 E2.01892
G1 X112.359 Y60.354 E2.04684
G1 X112.61 Y60.865 E2.07932
G1 X112.807 Y61.493 E2.11688
G1 X112.921 Y61.995 E2.14625
G1 X113.019 Y62.742 E2.18924
G1 X113.027 Y62.958 E2.20157
G1 X113.03 Y63.07 E2.20796
G1 X113.032 Y63.282 E2.22006
G1 X113.032 Y63.32 E2.22223
G1 X113.036 Y107.91 E4.76648
G1 X113.036 Y107.965 E4.76961
G1 X113.026 Y108.706 E4.8119
G1 X112.978 Y109.273 E4.84437
G1 X112.851 Y109.827 E4.8768
G1 X112.648 Y110.359 E4.90929
G1 X112.373 Y110.856 E4.9417
G1 X112.03 Y111.31 E4.97416
G1 X111.628 Y111.712 E5.0066
G1 X111.173 Y112.054 E5.03908
G1 X110.674 Y112.328 E5.07156
G1 X110.142 Y112.529 E5.10401
G1 X109.587 Y112.655 E5.13649
G1 X109.088 Y112.699 E5.16507
G1 X108.762 Y112.708 E5.18368
G1 X108.651 Y112.71 E5.19001
G1 X101.541 Y112.711 E5.5957
G1 X101.482 Y112.711 E5.59906
G1 X100.781 Y112.701 E5.63907
G1 X100.214 Y112.653 E5.67153
G1 X99.66 Y112.526 E5.70397
G1 X99.129 Y112.322 E5.73642
G1 X98.631 Y112.046 E5.76891
G1 X98.177 Y111.703 E5.80138
G1 X97.77 Y111.294 E5.8343
G1 X97.323 Y110.775 E5.87338
G1 X97.281 Y110.725 E5.87711
G1 X78.369 Y88.03 E7.56273
G1 X78.332 Y87.985 E7.56606
G1 X77.877 Y87.423 E7.60732
G1 X77.551 Y86.957 E7.63977
G1 X77.294 Y86.45 E7.6722
G1 X77.11 Y85.912 E7.70464
G1 X77.003 Y85.353 E7.73712
G1 X76.977 Y85.006 E7.75697
G1 X76.967 Y84.697 E7.77461
G1 X76.965 Y84.566 E7.78209
G1 X76.964 Y63.679 E8.97387
G1 X76.964 Y63.618 E8.97735
G1 X76.974 Y62.949 E9.01553
G1 X77.005 Y62.508 E9.04075
G1 X77.034 Y62.276 E9.0541
G1 X77.053 Y62.143 E9.06176
G1 X77.086 Y61.935 E9.07378
G1 X77.214 Y61.381 E9.10622
G1 X77.38 Y60.935 E9.13338
G1 X77.586 Y60.468 E9.1625
G1 X77.852 Y59.965 E9.19497
G1 X78.274 Y59.403 E9.23507
G0 F3600 X78.795 Y59.869
G1 F1800 X79.143 Y59.48 E9.26485
G1 X79.517 Y59.123 E9.29435
G1 X79.955 Y58.818 E9.3248
G1 X80.383 Y58.569 E9.35306
G1 X80.849 Y58.345 E9.38256
G1 X81.248 Y58.217 E9.40647
G1 X81.45 Y58.166 E9.41835
G1 X81.585 Y58.135 E9.42626
G1 X81.882 Y58.073 E9.44357
G1 X82.458 Y58.004 E9.47667
G1 X82.674 Y57.997 E9.489
G1 X82.755 Y57.995 E9.49362
G1 X82.993 Y57.993 E9.50721
G1 X83.02 Y57.993 E9.50875
G1 X106.609 Y57.989 E10.8547
G1 X106.657 Y57.989 E10.85744
G1 X107.363 Y57.999 E10.89773
G1 X107.784 Y58.032 E10.92183
G1 X108.223 Y58.094 E10.94712
G1 X108.729 Y58.206 E10.97669
G1 X109.107 Y58.346 E10.99969
G1 X109.574 Y58.552 E11.02882
G1 X110.03 Y58.797 E11.05835
G1 X110.459 Y59.124 E11.08913
G1 X110.849 Y59.474 E11.11903
G1 X111.207 Y59.848 E11.14857
G1 X111.508 Y60.283 E11.17876
G1 X111.754 Y60.706 E11.20668
G1 X111.979 Y61.172 E11.2362
G1 X112.125 Y61.648 E11.26461
G1 X112.239 Y62.15 E11.29398
G1 X112.32 Y62.768 E11.32955
G1 X112.328 Y62.984 E11.34188
G1 X112.33 Y63.076 E11.34713
G1 X112.332 Y63.288 E11.35923
G1 X112.332 Y63.32 E11.36105
G1 X112.336 Y107.91 E13.9053
G1 X112.336 Y107.955 E13.90787
G1 X112.326 Y108.696 E13.95015
G1 X112.279 Y109.211 E13.97966
G1 X112.153 Y109.713 E14.00919
G1 X111.952 Y110.19 E14.03873
G1 X111.679 Y110.629 E14.06822
G1 X111.343 Y111.022 E14.09773
G1 X110.949 Y111.358 E14.12727
G1 X110.509 Y111.63 E14.15679
G1 X110.032 Y111.83 E14.1863
G1 X109.53 Y111.955 E14.21582
G1 X109.068 Y112 E14.24231
G1 X108.742 Y112.009 E14.26091
G1 X108.65 Y112.01 E14.26616
G1 X101.54 Y112.011 E14.67185
G1 X101.492 Y112.011 E14.67459
G1 X100.791 Y112.001 E14.71459
G1 X100.276 Y111.953 E14.7441
G1 X99.774 Y111.827 E14.77364
G1 X99.298 Y111.626 E14.80312
G1 X98.858 Y111.353 E14.83266
G1 X98.301 Y110.837 E14.87599
G1 X97.854 Y110.318 E14.91507
G1 X97.818 Y110.277 E14.91818
G1 X78.906 Y87.582 E16.60381
G1 X78.876 Y87.545 E16.60653
G1 X78.421 Y86.983 E16.64778
G1 X78.128 Y86.557 E16.67729
G1 X77.903 Y86.091 E16.70681
G1 X77.753 Y85.596 E16.73633
G1 X77.677 Y84.983 E16.77157
G1 X77.667 Y84.674 E16.78921
G1 X77.665 Y84.566 E16.79537
G1 X77.664 Y63.679 E17.98716
G1 X77.664 Y63.629 E17.99001
G1 X77.674 Y62.96 E18.02819
G1 X77.7 Y62.594 E18.04912
G1 X77.729 Y62.362 E18.06246
G1 X77.744 Y62.253 E18.06874
G1 X77.777 Y62.045 E18.08076
G1 X77.898 Y61.542 E18.11028
G1 X78.021 Y61.218 E18.13005
G1 X78.227 Y60.751 E18.15918
G1 X78.472 Y60.295 E18.18871
G1 X78.795 Y59.869 E18.21922
G10
;MESH:zlimitactuator_28mmtall.stl
G0 F3600 X81.647 Y62.312
G0 X93.163 Y68.377
G0 X93.22 Y68.458
;TYPE:WALL-OUTER
G11
G1 F1800 X92.712 Y68.904 E18.25779
G1 X92.314 Y69.449 E18.2963
G1 X92.041 Y70.067 E18.33484
G1 X91.909 Y70.73 E18.37342
G1 X91.924 Y71.405 E18.41194
G1 X92.085 Y72.061 E18.45048
G1 X92.384 Y72.667 E18.48904
G1 X92.806 Y73.194 E18.52756
G1 X93.333 Y73.616 E18.56609
G1 X93.939 Y73.915 E18.60464
G1 X94.595 Y74.076 E18.64318
G1 X95.27 Y74.091 E18.68171
G1 X95.933 Y73.959 E18.72028
G1 X96.551 Y73.686 E18.75883
G1 X97.096 Y73.288 E18.79734
G1 X97.542 Y72.78 E18.83591
G1 X97.866 Y72.187 E18.87446
G1 X98.055 Y71.539 E18.91298
G1 X98.099 Y70.864 E18.95158
G1 X97.997 Y70.197 E18.99008
G1 X97.752 Y69.567 E19.02865
G1 X97.376 Y69.005 E19.06723
G1 X96.889 Y68.539 E19.10569
G1 X96.311 Y68.188 E19.14427
G1 X95.675 Y67.972 E19.1826
G1 X95.121 Y67.901 E19.21447
G1 X94.461 Y67.945 E19.25221
G1 X93.813 Y68.134 E19.29072
G1 X93.22 Y68.458 E19.32928
G0 F3600 X92.92 Y68.721
G0 X92.413 Y68.142
G0 X107.969 Y62.039
G0 X108.024 Y61.956
G1 F1800 X108.303 Y62.212 E19.35089
G1 X108.495 Y62.543 E19.37272
G1 X108.582 Y62.934 E19.39557
G1 X108.586 Y107.911 E21.9619
G1 X108.586 Y108.261 E21.98187
G1 X108.236 Y108.261 E21.9948
G1 X101.02 Y108.261 E22.40653
G1 X81.414 Y84.734 E24.15398
G1 X81.414 Y63.028 E25.39249
G1 X81.467 Y62.653 E25.4141
G1 X81.631 Y62.301 E25.43626
G1 X81.887 Y62.022 E25.45787
G1 X82.218 Y61.83 E25.4797
G1 X82.609 Y61.743 E25.50256
G1 X107.297 Y61.739 E26.91122
G1 X107.672 Y61.792 E26.93283
G1 X108.024 Y61.956 E26.95499
G0 F3600 X108.303 Y62.212
G0 X108.314 Y62.231
G0 X107.646 Y62.617
G0 X107.634 Y62.535
;TYPE:SKIN
G1 F1800 X107.759 Y62.651 E26.96472
G1 X107.844 Y62.797 E26.97436
G1 X107.892 Y63.012 E26.98693
G1 X107.896 Y107.571 E29.52941
G1 X101.343 Y107.571 E29.90331
G1 X82.104 Y84.484 E31.61806
G1 X82.104 Y63.083 E32.83918
G1 X82.137 Y62.849 E32.85266
G1 X82.21 Y62.691 E32.86259
G1 X82.326 Y62.566 E32.87232
G1 X82.472 Y62.481 E32.88196
G1 X82.687 Y62.433 E32.89453
G1 X107.242 Y62.429 E34.29561
G1 X107.476 Y62.462 E34.30909
G1 X107.634 Y62.535 E34.31902
G0 F3600 X98.367 Y69.246
G1 F1800 X97.908 Y68.559 E34.36617
G1 X97.311 Y67.989 E34.41326
G1 X96.605 Y67.559 E34.46043
G1 X95.831 Y67.296 E34.50707
G1 X95.142 Y67.209 E34.5467
G1 X94.34 Y67.261 E34.59256
G1 X93.548 Y67.493 E34.63965
G1 X92.822 Y67.889 E34.68683
G1 X92.199 Y68.435 E34.7341
G1 X91.713 Y69.102 E34.78119
G1 X91.379 Y69.858 E34.82835
G1 X91.217 Y70.669 E34.87554
G1 X91.236 Y71.496 E34.92274
G1 X91.433 Y72.299 E34.96991
G1 X91.799 Y73.04 E35.01707
G1 X92.315 Y73.685 E35.0642
G1 X92.96 Y74.201 E35.11133
G1 X93.701 Y74.567 E35.15849
G1 X94.504 Y74.764 E35.20566
G1 X95.331 Y74.783 E35.25286
G1 X96.142 Y74.621 E35.30005
G1 X96.898 Y74.287 E35.34721
G1 X97.565 Y73.801 E35.3943
G1 X98.111 Y73.178 E35.44157
G1 X98.507 Y72.452 E35.48875
G1 X98.739 Y71.66 E35.53584
G1 X98.793 Y70.834 E35.58307
G1 X98.667 Y70.018 E35.63019
G1 X98.367 Y69.246 E35.67744
G0 F3600 X107.57 Y63.023
G1 F1800 X107.304 Y62.757 E35.69891
G0 F3600 X106.302 Y62.744
G1 F1800 X107.577 Y64.019 E35.80179
G0 F3600 X107.577 Y65.009
G1 F1800 X105.312 Y62.744 E35.98456
G0 F3600 X104.322 Y62.744
G1 F1800 X107.577 Y65.999 E36.24722
G0 F3600 X107.577 Y66.989
G1 F1800 X103.332 Y62.744 E36.58976
G0 F3600 X102.343 Y62.745
G1 F1800 X107.577 Y67.979 E37.01211
G0 F3600 X107.577 Y68.969
G1 F1800 X101.353 Y62.745 E37.51434
G0 F3600 X100.363 Y62.745
G1 F1800 X107.577 Y69.959 E38.09646
G0 F3600 X107.577 Y70.948
G1 F1800 X99.373 Y62.745 E38.75843
G0 F3600 X98.384 Y62.745
G1 F1800 X107.577 Y71.939 E39.50028
G0 F3600 X107.577 Y72.929
G1 F1800 X97.394 Y62.745 E40.32202
G0 F3600 X96.404 Y62.745
G1 F1800 X107.577 Y73.919 E41.22365
G0 F3600 X107.577 Y74.909
G1 F1800 X95.414 Y62.745 E42.20516
G0 F3600 X94.424 Y62.746
G1 F1800 X107.577 Y75.899 E43.26652
G0 F3600 X107.577 Y76.889
G1 F1800 X93.434 Y62.746 E44.40776
G0 F3600 X92.445 Y62.746
G1 F1800 X97.333 Y67.634 E44.80219
G1 X97.456 Y67.757
G0 F3600 X98.345 Y68.647
G1 F1800 X107.577 Y77.879 E45.54715
G0 F3600 X107.577 Y78.869
G1 F1800 X99.031 Y70.323 E46.23675
G0 F3600 X99.074 Y71.355
G1 F1800 X107.577 Y79.859 E46.92293
G0 F3600 X107.578 Y80.849
G1 F1800 X98.912 Y72.183 E47.62221
G0 F3600 X98.626 Y72.887
G1 F1800 X107.578 Y81.839 E48.34458
G0 F3600 X107.578 Y82.829
G1 F1800 X98.247 Y73.498 E49.09753
G0 F3600 X97.785 Y74.026
G1 F1800 X107.578 Y83.819 E49.88775
G0 F3600 X107.578 Y84.809
G1 F1800 X97.215 Y74.446 E50.72398
G0 F3600 X96.56 Y74.781
G1 F1800 X107.578 Y85.799 E51.61306
G0 F3600 X107.578 Y86.789
G1 F1800 X95.8 Y75.011 E52.56346
G0 F3600 X94.887 Y75.088
G1 F1800 X107.578 Y87.779 E53.58754
G0 F3600 X107.578 Y88.769
G1 F1800 X93.702 Y74.893 E54.70723
G1 X93.579 Y74.77
G0 F3600 X91.107 Y72.298
G1 F1800 X82.418 Y63.609 E55.40838
G0 F3600 X82.58 Y62.781
G1 F1800 X90.912 Y71.113 E56.08071
G0 F3600 X90.988 Y70.199
G1 F1800 X83.536 Y62.747 E56.68204
G0 F3600 X84.526 Y62.747
G1 F1800 X91.218 Y69.44 E57.22208
G0 F3600 X91.554 Y68.785
G1 F1800 X85.516 Y62.747 E57.7093
G0 F3600 X86.506 Y62.747
G1 F1800 X91.971 Y68.213 E58.15033
G0 F3600 X92.499 Y67.75
G1 F1800 X87.495 Y62.747 E58.55408
G0 F3600 X88.485 Y62.747
G1 F1800 X93.11 Y67.371 E58.92725
G0 F3600 X93.815 Y67.086
G1 F1800 X89.475 Y62.747 E59.27741
G0 F3600 X90.465 Y62.747
G1 F1800 X94.644 Y66.925 E59.61459
G0 F3600 X95.666 Y66.958
G1 F1800 X91.455 Y62.746 E59.95443
G1 X91.332 Y62.623
G0 F3600 X82.418 Y64.599
G1 F1800 X107.579 Y89.76 E61.98475
G0 F3600 X107.579 Y90.75
G1 F1800 X82.418 Y65.589 E64.01507
G0 F3600 X82.418 Y66.579
G1 F1800 X107.579 Y91.74 E66.04539
G0 F3600 X107.579 Y92.729
G1 F1800 X82.418 Y67.569 E68.07567
G0 F3600 X82.418 Y68.558
G1 F1800 X107.579 Y93.719 E70.10599
G0 F3600 X107.579 Y94.709
G1 F1800 X82.418 Y69.548 E72.13631
G0 F3600 X82.418 Y70.538
G1 F1800 X107.579 Y95.699 E74.16663
G0 F3600 X107.579 Y96.689
G1 F1800 X82.418 Y71.528 E76.19696
G0 F3600 X82.418 Y72.518
G1 F1800 X107.579 Y97.679 E78.22728
G0 F3600 X107.579 Y98.67
G1 F1800 X82.418 Y73.508 E80.25764
G0 F3600 X82.418 Y74.498
G1 F1800 X107.579 Y99.66 E82.288
G0 F3600 X107.579 Y100.65
G1 F1800 X82.418 Y75.488 E84.31836
G0 F3600 X82.418 Y76.478
G1 F1800 X107.579 Y101.64 E86.34872
G0 F3600 X107.579 Y102.63
G1 F1800 X82.418 Y77.468 E88.37908
G0 F3600 X82.418 Y78.458
G1 F1800 X107.579 Y103.62 E90.40944
G0 F3600 X107.579 Y104.61
G1 F1800 X82.418 Y79.448 E92.43981
G0 F3600 X82.418 Y80.438
G1 F1800 X107.579 Y105.6 E94.47017
G0 F3600 X107.579 Y106.589
G1 F1800 X82.418 Y81.428 E96.50049
G0 F3600 X82.418 Y82.418
G1 F1800 X107.255 Y107.255 E98.50466
G0 F3600 X106.265 Y107.255
G1 F1800 X82.418 Y83.408 E100.42895
G0 F3600 X82.567 Y84.547
G1 F1800 X105.275 Y107.255 E102.26133
G0 F3600 X104.285 Y107.255
G1 F1800 X87.517 Y90.487 E103.6144
G1 X87.394 Y90.364
G0 F3600 X92.467 Y96.427
G1 F1800 X103.295 Y107.255 E104.48814
G0 F3600 X102.305 Y107.255
G1 F1800 X97.417 Y102.367 E104.88257
G1 X97.294 Y102.244
;MESH:NONMESH
G0 F3600 X91.885 Y71.41
G0 X91.977 Y70.184
G0 X92.845 Y67.922
;TIME_ELAPSED:122.929134
;LAYER:1
M106 S255
;MESH:zlimitactuator_28mmtall.stl
G0 F5400 X92.845 Y67.922 Z0.92
;TYPE:WALL-INNER
G1 F2700 X92.229 Y68.463 E104.91855
G1 X91.748 Y69.122 E104.95436
G1 X91.417 Y69.87 E104.99027
G1 X91.258 Y70.673 E105.02619
G1 X91.276 Y71.491 E105.06211
G1 X91.471 Y72.285 E105.09799
G1 X91.832 Y73.018 E105.13385
G1 X92.344 Y73.656 E105.16976
G1 X92.982 Y74.168 E105.20566
G1 X93.715 Y74.529 E105.24153
G1 X94.509 Y74.724 E105.27741
G1 X95.327 Y74.742 E105.31332
G1 X96.13 Y74.583 E105.34925
G1 X96.878 Y74.252 E105.38515
G1 X97.537 Y73.771 E105.42096
G1 X98.078 Y73.155 E105.45695
G1 X98.47 Y72.437 E105.49285
G1 X98.699 Y71.652 E105.52874
G1 X98.752 Y70.836 E105.56463
G1 X98.629 Y70.028 E105.60051
G1 X98.332 Y69.265 E105.63644
G1 X97.877 Y68.584 E105.67239
G1 X97.287 Y68.02 E105.70822
G1 X96.587 Y67.595 E105.74416
G1 X95.821 Y67.335 E105.77966
G1 X95.122 Y67.247 E105.81059
G1 X94.345 Y67.301 E105.84477
G1 X93.563 Y67.53 E105.88054
G1 X92.845 Y67.922 E105.91644
G0 F5400 X93.22 Y68.458
;TYPE:WALL-OUTER
G1 F1800 X92.712 Y68.904 E105.94611
G1 X92.314 Y69.449 E105.97573
G1 X92.041 Y70.067 E106.00538
G1 X91.909 Y70.73 E106.03506
G1 X91.924 Y71.405 E106.06469
G1 X92.085 Y72.061 E106.09434
G1 X92.384 Y72.667 E106.124
G1 X92.806 Y73.194 E106.15363
G1 X93.333 Y73.616 E106.18326
G1 X93.939 Y73.915 E106.21292
G1 X94.595 Y74.076 E106.24257
G1 X95.27 Y74.091 E106.2722
G1 X95.933 Y73.959 E106.30187
G1 X96.551 Y73.686 E106.33153
G1 X97.096 Y73.288 E106.36115
G1 X97.542 Y72.78 E106.39082
G1 X97.866 Y72.187 E106.42048
G1 X98.055 Y71.539 E106.4501
G1 X98.099 Y70.864 E106.47979
G1 X97.997 Y70.197 E106.50941
G1 X97.752 Y69.567 E106.53908
G1 X97.376 Y69.005 E106.56876
G1 X96.889 Y68.539 E106.59834
G1 X96.311 Y68.188 E106.62802
G1 X95.674 Y67.972 E106.65754
G1 X95.104 Y67.9 E106.68276
G1 X94.46 Y67.945 E106.7111
G1 X93.813 Y68.134 E106.74068
G1 X93.22 Y68.458 E106.77034
G0 F5400 X92.92 Y68.721
G0 X92.413 Y68.142
G0 X93.434 Y67.559
G0 X107.743 Y62.268
G0 X107.792 Y62.182
;TYPE:WALL-INNER
G1 F2700 X107.987 Y62.331 E106.78111
G1 X108.139 Y62.529 E106.79207
G1 X108.233 Y62.755 E106.80281
G1 X108.274 Y63.059 E106.81627
G1 X108.275 Y63.773 E106.84761
G1 X108.275 Y107.95 E108.7866
G1 X101.166 Y107.95 E109.09862
G1 X81.725 Y84.621 E110.4315
G1 X81.725 Y63.072 E111.37731
G1 X81.766 Y62.757 E111.39125
G1 X81.858 Y62.533 E111.40188
G1 X82.01 Y62.334 E111.41287
G1 X82.204 Y62.185 E111.42361
G1 X82.431 Y62.091 E111.43439
G1 X82.744 Y62.05 E111.44825
G1 X107.254 Y62.05 E112.52402
G1 X107.569 Y62.09 E112.53796
G1 X107.792 Y62.182 E112.54855
G0 F5400 X108.119 Y61.614
;TYPE:WALL-OUTER
G1 F1800 X108.451 Y61.868 E112.5669
G1 X108.706 Y62.199 E112.58524
G1 X108.866 Y62.583 E112.60349
G1 X108.924 Y63.018 E112.62276
G1 X108.925 Y63.772 E112.65585
G1 X108.925 Y108.6 E114.62341
G1 X100.862 Y108.6 E114.9773
G1 X81.075 Y84.856 E116.3339
G1 X81.075 Y63.028 E117.29195
G1 X81.132 Y62.587 E117.31147
G1 X81.289 Y62.208 E117.32948
G1 X81.546 Y61.872 E117.34804
G1 X81.879 Y61.616 E117.36648
G1 X82.258 Y61.459 E117.38449
G1 X82.704 Y61.4 E117.40423
G1 X107.297 Y61.4 E118.48365
G1 X107.735 Y61.456 E118.50303
G1 X108.119 Y61.614 E118.52126
G0 F5400 X108.436 Y61.857
G0 X107.968 Y62.467
G0 X107.496 Y62.825
;TYPE:SKIN
G1 F1800 X107.538 Y62.879 E118.52426
G1 X107.561 Y62.933 E118.52684
G1 X107.584 Y63.107 E118.53454
G1 X107.585 Y63.773 E118.56377
G1 X107.585 Y107.26 E120.47247
G1 X101.489 Y107.26 E120.74003
G1 X82.415 Y84.371 E122.04776
G1 X82.415 Y63.115 E122.98071
G1 X82.438 Y62.939 E122.9885
G1 X82.464 Y62.875 E122.99154
G1 X82.499 Y62.829 E122.99407
G1 X82.554 Y62.787 E122.99711
G1 X82.611 Y62.763 E122.99983
G1 X82.787 Y62.74 E123.00762
G1 X107.215 Y62.74 E124.07979
G1 X107.387 Y62.762 E124.0874
G1 X107.445 Y62.786 E124.09016
G1 X107.496 Y62.825 E124.09298
G0 F5400 X98.947 Y68.944
