;FLAVOR:Marlin
;TIME:17159
;Filament used: 9.66304m
;Layer height: 0.4
;MINX:4.287
;MINY:19.588
;MINZ:0.52
;MAXX:180.303
;MAXY:162.189
;MAXZ:23.72
;Generated with Cura_SteamEngine 4.1.0
M82 ;absolute extrusion mode
M98 P0:/sys/startprint.g

G92 E0
G92 E0
G10
;LAYER_COUNT:59
;LAYER:0
M107
G0 F3600 X20.169 Y86.983 Z0.52
;TYPE:SKIRT
M220 S50
G11
G1 F1800 X22.813 Y86.334 E0.15534
G1 X25.438 Y85.61 E0.31071
G1 X28.058 Y84.807 E0.46707
G1 X30.684 Y83.92 E0.62522
G1 X33.225 Y82.981 E0.77979
G1 X35.765 Y81.96 E0.93599
G1 X38.255 Y80.876 E1.09095
G1 X40.713 Y79.721 E1.24591
G1 X43.213 Y78.461 E1.40565
G1 X45.562 Y77.192 E1.55799
G1 X47.953 Y75.811 E1.71554
G1 X50.281 Y74.376 E1.87158
G1 X52.573 Y72.875 E2.0279
G1 X54.813 Y71.313 E2.18372
G1 X56.993 Y69.701 E2.33842
G1 X59.18 Y67.985 E2.49704
G1 X61.23 Y66.281 E2.64914
G1 X63.346 Y64.419 E2.80997
G1 X65.31 Y62.59 E2.9631
G1 X67.251 Y60.676 E3.11864
G1 X69.139 Y58.707 E3.27429
G1 X70.995 Y56.657 E3.43208
G1 X72.761 Y54.593 E3.58707
G1 X74.488 Y52.456 E3.74385
G1 X76.127 Y50.304 E3.89819
G1 X77.737 Y48.061 E4.05573
G1 X79.266 Y45.801 E4.21143
G1 X80.723 Y43.511 E4.3663
G1 X82.135 Y41.142 E4.52366
G1 X83.447 Y38.796 E4.67703
G1 X84.741 Y36.318 E4.83654
G1 X85.924 Y33.887 E4.9908
G1 X87.045 Y31.409 E5.14598
G1 X88.127 Y28.828 E5.30567
G1 X89.086 Y26.339 E5.45787
G1 X90.036 Y23.649 E5.62064
G1 X90.197 Y23.173 E5.64932
G1 X90.308 Y22.886 E5.66687
G1 X90.554 Y22.331 E5.70151
G1 X90.8 Y21.875 E5.73108
G1 X91.131 Y21.442 E5.76217
G1 X91.468 Y21.069 E5.79086
G1 X91.844 Y20.713 E5.8204
G1 X92.274 Y20.416 E5.85022
G1 X92.702 Y20.168 E5.87845
G1 X93.169 Y19.944 E5.908
G1 X93.642 Y19.8 E5.93621
G1 X94.145 Y19.686 E5.96564
G1 X94.761 Y19.605 E6.00109
G1 X94.977 Y19.597 E6.01342
G1 X95.073 Y19.595 E6.0189
G1 X95.314 Y19.593 E6.03265
G1 X95.341 Y19.593 E6.03419
G1 X109.695 Y19.588 E6.85321
G1 X174.635 Y19.588 E10.55861
G1 X175.242 Y19.597 E10.59324
G1 X175.638 Y19.627 E10.6159
G1 X176.219 Y19.705 E10.64935
G1 X176.725 Y19.813 E10.67887
G1 X177.163 Y19.977 E10.70556
G1 X177.527 Y20.143 E10.72839
G1 X177.98 Y20.393 E10.75791
G1 X178.3 Y20.633 E10.78073
G1 X178.74 Y21.005 E10.81361
G1 X179.108 Y21.368 E10.8431
G1 X179.471 Y21.876 E10.87873
G1 X179.717 Y22.298 E10.9066
G1 X179.942 Y22.764 E10.93613
G1 X180.087 Y23.231 E10.96403
G1 X180.202 Y23.729 E10.99319
G1 X180.285 Y24.35 E11.02894
G1 X180.294 Y24.577 E11.0419
G1 X180.297 Y24.661 E11.0467
G1 X180.3 Y24.867 E11.05845
G1 X180.3 Y24.908 E11.06079
G1 X180.303 Y26.163 E11.1324
G1 X180.303 Y67.24 E13.4762
G1 X180.293 Y67.938 E13.51603
G1 X180.267 Y68.307 E13.53714
G1 X180.238 Y68.538 E13.55042
G1 X180.226 Y68.625 E13.55543
G1 X180.189 Y68.868 E13.56946
G1 X180.106 Y69.257 E13.59216
G1 X179.853 Y70.172 E13.64632
G1 X179.162 Y72.828 E13.80292
G1 X178.545 Y75.498 E13.95928
G1 X178.014 Y78.153 E14.11377
G1 X177.551 Y80.852 E14.27002
G1 X177.171 Y83.512 E14.42334
G1 X176.855 Y86.291 E14.58292
G1 X176.768 Y87.31 E14.64128
G1 X176.764 Y87.355 E14.64386
G1 X176.704 Y87.963 E14.67872
G1 X176.691 Y88.075 E14.68515
G1 X176.598 Y88.775 E14.72544
G1 X176.49 Y89.281 E14.75496
G1 X176.406 Y89.529 E14.7699
G1 X176.317 Y89.762 E14.78414
G1 X176.217 Y89.997 E14.79871
G1 X176.115 Y90.213 E14.81234
G1 X175.859 Y90.663 E14.84188
G1 X175.634 Y90.957 E14.863
G1 X175.413 Y91.216 E14.88243
G1 X175.054 Y91.578 E14.91152
G1 X174.813 Y91.786 E14.92968
G1 X174.341 Y92.126 E14.96288
G1 X174.078 Y92.283 E14.98035
G1 X173.615 Y92.514 E15.00988
G1 X173.238 Y92.64 E15.03256
G1 X172.766 Y92.768 E15.06046
G1 X172.319 Y92.857 E15.08647
G1 X171.291 Y92.99 E15.14561
G1 X171.235 Y92.997 E15.14883
G1 X170.39 Y93.092 E15.19735
G1 X167.68 Y93.474 E15.35351
G1 X164.986 Y93.933 E15.50944
G1 X162.364 Y94.456 E15.66199
G1 X159.636 Y95.08 E15.82167
G1 X157.01 Y95.76 E15.97645
G1 X154.38 Y96.522 E16.13269
G1 X151.759 Y97.361 E16.28971
G1 X149.186 Y98.266 E16.44534
G1 X146.693 Y99.224 E16.59773
G1 X144.122 Y100.294 E16.75662
G1 X141.619 Y101.421 E16.91325
G1 X139.157 Y102.614 E17.06935
G1 X136.732 Y103.876 E17.22534
G1 X134.346 Y105.204 E17.38114
G1 X132.032 Y106.58 E17.53476
G1 X129.675 Y108.072 E17.69393
G1 X127.431 Y109.585 E17.84835
G1 X125.204 Y111.178 E18.00458
G1 X123.023 Y112.834 E18.16083
G1 X120.885 Y114.554 E18.3174
G1 X118.831 Y116.305 E18.47141
G1 X116.786 Y118.15 E18.62856
G1 X114.825 Y120.025 E18.78337
G1 X112.879 Y121.991 E18.94121
G1 X111.029 Y123.969 E19.09574
G1 X109.199 Y126.043 E19.25356
G1 X107.458 Y128.13 E19.40864
G1 X105.768 Y130.277 E19.56454
G1 X104.145 Y132.465 E19.71998
G1 X102.569 Y134.719 E19.87691
G1 X101.065 Y137.002 E20.03291
G1 X99.637 Y139.315 E20.18801
G1 X98.262 Y141.686 E20.3444
G1 X96.965 Y144.075 E20.4995
G1 X95.723 Y146.528 E20.65639
G1 X94.565 Y148.985 E20.81137
G1 X93.456 Y151.521 E20.9693
G1 X92.434 Y154.052 E21.12505
G1 X91.496 Y156.576 E21.27869
G1 X91.225 Y157.384 E21.32732
G1 X91.208 Y157.432 E21.33022
G1 X90.742 Y158.754 E21.4102
G1 X90.657 Y158.972 E21.42355
G1 X90.569 Y159.175 E21.43618
G1 X90.525 Y159.273 E21.44231
G1 X90.424 Y159.487 E21.45581
G1 X90.167 Y159.936 E21.48533
G1 X89.944 Y160.229 E21.50634
G1 X89.691 Y160.526 E21.5286
G1 X89.253 Y160.954 E21.56354
G1 X89.029 Y161.136 E21.58001
G1 X88.632 Y161.414 E21.60766
G1 X88.387 Y161.56 E21.62394
G1 X87.923 Y161.789 E21.65346
G1 X87.566 Y161.91 E21.67497
G1 X87.075 Y162.046 E21.70404
G1 X86.568 Y162.146 E21.73353
G1 X86.234 Y162.168 E21.75262
G1 X85.543 Y162.179 E21.79206
G1 X85.492 Y162.179 E21.79497
G1 X71.296 Y162.189 E22.60497
G1 X9.957 Y162.189 E26.1049
G1 X9.26 Y162.179 E26.14467
G1 X8.892 Y162.153 E26.16572
G1 X8.66 Y162.124 E26.17906
G1 X8.551 Y162.109 E26.18534
G1 X8.343 Y162.076 E26.19735
G1 X7.84 Y161.955 E26.22687
G1 X7.515 Y161.832 E26.2467
G1 X7.046 Y161.625 E26.27595
G1 X6.591 Y161.38 E26.30544
G1 X6.159 Y161.051 E26.33642
G1 X5.771 Y160.702 E26.3662
G1 X5.414 Y160.327 E26.39574
G1 X5.113 Y159.891 E26.42597
G1 X4.862 Y159.458 E26.45453
G1 X4.638 Y158.992 E26.48403
G1 X4.507 Y158.579 E26.50875
G1 X4.459 Y158.384 E26.52021
G1 X4.431 Y158.261 E26.52741
G1 X4.37 Y157.966 E26.5446
G1 X4.303 Y157.409 E26.57661
G1 X4.295 Y157.187 E26.58928
G1 X4.293 Y157.091 E26.59476
G1 X4.291 Y156.822 E26.61011
G1 X4.291 Y156.798 E26.61148
G1 X4.287 Y142.332 E27.43689
G1 X4.287 Y94.537 E30.16401
G1 X4.297 Y93.84 E30.20379
G1 X4.323 Y93.474 E30.22472
G1 X4.353 Y93.233 E30.23858
G1 X4.369 Y93.115 E30.24537
G1 X4.405 Y92.891 E30.25832
G1 X4.527 Y92.389 E30.2878
G1 X4.642 Y92.084 E30.3064
G1 X4.758 Y91.818 E30.32295
G1 X4.88 Y91.567 E30.33888
G1 X4.997 Y91.35 E30.35294
G1 X5.412 Y90.748 E30.39466
G1 X5.662 Y90.459 E30.41647
G1 X6.03 Y90.095 E30.446
G1 X6.302 Y89.887 E30.46554
G1 X6.518 Y89.739 E30.48048
G1 X6.626 Y89.669 E30.48782
G1 X6.818 Y89.548 E30.50077
G1 X7.276 Y89.307 E30.5303
G1 X7.567 Y89.197 E30.54805
G1 X7.782 Y89.127 E30.56096
G1 X7.883 Y89.095 E30.567
G1 X8.103 Y89.031 E30.58007
G1 X8.659 Y88.92 E30.61242
G1 X9.346 Y88.841 E30.65188
G1 X12.135 Y88.482 E30.81233
G1 X14.8 Y88.063 E30.96626
G1 X17.477 Y87.564 E31.12164
G1 X20.169 Y86.983 E31.27878
G10
;MESH:zmotorholder.stl
G0 F3600 X24.001 Y91.333
G0 X24.004 Y93.287
G0 X63.744 Y99.793
G0 X65.113 Y100.535
G0 X65.919 Y101.811
G0 X65.822 Y101.834
;TYPE:WALL-INNER
G11
G1 F1800 X65.533 Y101.141 E31.32162
G1 X65.086 Y100.563 E31.36331
G1 X64.432 Y100.083 E31.4096
G1 X63.736 Y99.832 E31.45182
G1 X63.018 Y99.772 E31.49293
G1 X62.311 Y99.9 E31.53392
G1 X61.649 Y100.209 E31.57561
G1 X61.038 Y100.747 E31.62206
G1 X60.644 Y101.371 E31.66417
G1 X60.429 Y102.058 E31.70524
G1 X60.4 Y102.777 E31.7463
G1 X60.557 Y103.48 E31.7874
G1 X60.897 Y104.128 E31.82916
G1 X61.46 Y104.712 E31.87544
G1 X62.108 Y105.086 E31.91813
G1 X62.898 Y105.278 E31.96452
G1 X63.637 Y105.243 E32.00673
G1 X64.323 Y105.024 E32.04782
G1 X64.927 Y104.635 E32.08881
G1 X65.411 Y104.104 E32.12981
G1 X65.744 Y103.464 E32.17098
G1 X65.901 Y102.736 E32.21347
G1 X65.822 Y101.834 E32.26513
G0 F3600 X65.183 Y101.991
;TYPE:WALL-OUTER
G1 F1800 X64.966 Y101.47 E32.29734
G1 X64.628 Y101.033 E32.32886
G1 X64.123 Y100.663 E32.36458
G1 X63.596 Y100.473 E32.39654
G1 X63.049 Y100.427 E32.42787
G1 X62.51 Y100.525 E32.45912
G1 X62.008 Y100.759 E32.49073
G1 X61.538 Y101.173 E32.52646
G1 X61.239 Y101.646 E32.55839
G1 X61.075 Y102.17 E32.58972
G1 X61.053 Y102.718 E32.62102
G1 X61.173 Y103.254 E32.65236
G1 X61.43 Y103.744 E32.68393
G1 X61.864 Y104.195 E32.71964
G1 X62.352 Y104.476 E32.75177
G1 X62.961 Y104.624 E32.78753
G1 X63.521 Y104.598 E32.81952
G1 X64.043 Y104.431 E32.85079
G1 X64.504 Y104.134 E32.88208
G1 X64.874 Y103.729 E32.91338
G1 X65.127 Y103.242 E32.9447
G1 X65.245 Y102.695 E32.97662
G1 X65.183 Y101.991 E33.01695
G0 F3600 X65.03 Y101.622
G0 X65.741 Y101.327
G0 X65.113 Y100.535
G0 X63.744 Y99.793
G0 X34.919 Y101.811
G0 X34.822 Y101.834
;TYPE:WALL-INNER
G1 F1800 X34.533 Y101.141 E33.05979
G1 X34.086 Y100.563 E33.10148
G1 X33.432 Y100.083 E33.14777
G1 X32.736 Y99.832 E33.18999
G1 X32.018 Y99.772 E33.2311
G1 X31.311 Y99.9 E33.27209
G1 X30.649 Y100.209 E33.31378
G1 X30.038 Y100.747 E33.36023
G1 X29.644 Y101.371 E33.40234
G1 X29.429 Y102.058 E33.44341
G1 X29.4 Y102.777 E33.48447
G1 X29.557 Y103.48 E33.52557
G1 X29.897 Y104.128 E33.56733
G1 X30.46 Y104.712 E33.61361
G1 X31.108 Y105.086 E33.6563
G1 X31.898 Y105.278 E33.70269
G1 X32.637 Y105.243 E33.74491
G1 X33.323 Y105.024 E33.78599
G1 X33.927 Y104.635 E33.82699
G1 X34.411 Y104.104 E33.86798
G1 X34.744 Y103.464 E33.90915
G1 X34.901 Y102.736 E33.95164
G1 X34.822 Y101.834 E34.0033
G0 F3600 X34.183 Y101.991
;TYPE:WALL-OUTER
G1 F1800 X33.966 Y101.47 E34.03551
G1 X33.628 Y101.033 E34.06703
G1 X33.123 Y100.663 E34.10275
G1 X32.596 Y100.473 E34.13472
G1 X32.049 Y100.427 E34.16604
G1 X31.51 Y100.525 E34.1973
G1 X31.008 Y100.759 E34.2289
G1 X30.538 Y101.173 E34.26464
G1 X30.239 Y101.646 E34.29657
G1 X30.075 Y102.17 E34.32789
G1 X30.053 Y102.718 E34.35919
G1 X30.173 Y103.254 E34.39053
G1 X30.43 Y103.744 E34.4221
G1 X30.864 Y104.195 E34.45781
G1 X31.352 Y104.476 E34.48994
G1 X31.961 Y104.624 E34.5257
G1 X32.521 Y104.598 E34.55769
G1 X33.043 Y104.431 E34.58896
G1 X33.504 Y104.134 E34.62025
G1 X33.874 Y103.729 E34.65155
G1 X34.127 Y103.242 E34.68287
G1 X34.245 Y102.695 E34.7148
G1 X34.183 Y101.991 E34.75512
G0 F3600 X34.03 Y101.622
G0 X34.741 Y101.327
G0 X35.539 Y113.059
G0 X34.994 Y114.683
G0 X34.665 Y116.362
G0 X34.559 Y118.072
G0 X34.677 Y119.78
G0 X35.016 Y121.457
G0 X35.572 Y123.077
G0 X36.257 Y124.455
G0 X37.602 Y126.513
G0 X37.678 Y126.449
;TYPE:WALL-INNER
G1 F1800 X38.056 Y126.876 E34.78766
G1 X38.451 Y127.287 E34.82019
G1 X38.864 Y127.678 E34.85264
G1 X39.293 Y128.052 E34.88511
G1 X39.739 Y128.407 E34.91764
G1 X40.197 Y128.741 E34.94998
G1 X40.673 Y129.058 E34.98261
G1 X41.161 Y129.35 E35.01506
G1 X41.66 Y129.622 E35.04749
G1 X42.172 Y129.873 E35.08002
G1 X42.695 Y130.101 E35.11258
G1 X43.225 Y130.305 E35.14498
G1 X43.764 Y130.487 E35.17744
G1 X44.313 Y130.644 E35.21002
G1 X44.866 Y130.778 E35.24249
G1 X45.426 Y130.887 E35.27504
G1 X45.987 Y130.971 E35.30741
G1 X46.553 Y131.032 E35.33989
G1 X47.122 Y131.068 E35.37242
G1 X47.692 Y131.077 E35.40495
G1 X48.261 Y131.063 E35.43743
G1 X48.829 Y131.023 E35.46992
G1 X49.395 Y130.959 E35.50242
G1 X49.957 Y130.872 E35.53487
G1 X50.515 Y130.758 E35.56736
G1 X51.067 Y130.622 E35.5998
G1 X51.613 Y130.46 E35.6323
G1 X52.151 Y130.276 E35.66474
G1 X52.682 Y130.068 E35.69728
G1 X53.202 Y129.836 E35.72977
G1 X53.712 Y129.583 E35.76225
G1 X54.21 Y129.307 E35.79474
G1 X54.695 Y129.011 E35.82716
G1 X55.169 Y128.692 E35.85976
G1 X55.625 Y128.355 E35.89211
G1 X56.069 Y127.998 E35.92462
G1 X56.496 Y127.619 E35.9572
G1 X56.906 Y127.224 E35.98968
G1 X57.298 Y126.812 E36.02213
G1 X57.671 Y126.384 E36.05453
G1 X58.027 Y125.938 E36.08709
G1 X58.363 Y125.477 E36.11964
G1 X58.677 Y125.003 E36.15208
G1 X58.97 Y124.515 E36.18456
G1 X59.244 Y124.014 E36.21714
G1 X59.492 Y123.504 E36.2495
G1 X59.721 Y122.982 E36.28202
G1 X59.925 Y122.449 E36.31458
G1 X60.106 Y121.912 E36.34692
G1 X60.264 Y121.363 E36.37952
G1 X60.397 Y120.809 E36.41202
G1 X60.506 Y120.251 E36.44446
G1 X60.591 Y119.689 E36.4769
G1 X60.652 Y119.123 E36.50938
G1 X60.687 Y118.554 E36.54191
G1 X60.697 Y117.984 E36.57443
G1 X60.682 Y117.415 E36.60691
G1 X60.643 Y116.847 E36.6394
G1 X60.579 Y116.281 E36.6719
G1 X60.491 Y115.719 E36.70436
G1 X60.378 Y115.161 E36.73684
G1 X60.241 Y114.608 E36.76935
G1 X60.079 Y114.062 E36.80185
G1 X59.895 Y113.525 E36.83424
G1 X59.687 Y112.994 E36.86677
G1 X59.455 Y112.475 E36.89921
G1 X59.203 Y111.964 E36.93172
G1 X58.927 Y111.465 E36.96426
G1 X58.63 Y110.981 E36.99666
G1 X58.313 Y110.509 E37.0291
G1 X57.975 Y110.05 E37.06163
G1 X57.616 Y109.607 E37.09416
G1 X57.239 Y109.18 E37.12666
G1 X56.844 Y108.77 E37.15915
G1 X56.431 Y108.378 E37.19164
G1 X56.003 Y108.005 E37.22403
G1 X55.558 Y107.649 E37.25655
G1 X55.097 Y107.314 E37.28906
G1 X54.622 Y106.998 E37.32162
G1 X54.135 Y106.706 E37.35402
G1 X53.635 Y106.433 E37.38652
G1 X53.123 Y106.183 E37.41903
G1 X52.602 Y105.956 E37.45146
G1 X52.069 Y105.75 E37.48406
G1 X51.53 Y105.57 E37.51649
G1 X50.984 Y105.413 E37.5489
G1 X50.431 Y105.279 E37.58137
G1 X49.87 Y105.169 E37.61399
G1 X49.308 Y105.085 E37.64641
G1 X48.743 Y105.024 E37.67884
G1 X48.173 Y104.989 E37.71142
G1 X47.604 Y104.979 E37.74389
G1 X47.034 Y104.994 E37.77643
G1 X46.467 Y105.033 E37.80886
G1 X45.9 Y105.097 E37.84142
G1 X45.339 Y105.184 E37.87381
G1 X44.78 Y105.298 E37.90636
G1 X44.228 Y105.435 E37.93881
G1 X43.681 Y105.597 E37.97136
G1 X43.145 Y105.781 E38.0037
G1 X42.615 Y105.989 E38.03619
G1 X42.094 Y106.22 E38.0687
G1 X41.584 Y106.473 E38.10119
G1 X41.087 Y106.749 E38.13363
G1 X40.6 Y107.045 E38.16614
G1 X40.127 Y107.364 E38.1987
G1 X39.671 Y107.701 E38.23105
G1 X39.226 Y108.059 E38.26364
G1 X38.8 Y108.437 E38.29613
G1 X38.389 Y108.831 E38.32862
G1 X37.997 Y109.245 E38.36115
G1 X37.623 Y109.674 E38.39363
G1 X37.269 Y110.119 E38.42607
G1 X36.934 Y110.579 E38.45854
G1 X36.619 Y111.053 E38.49101
G1 X36.325 Y111.541 E38.52352
G1 X36.052 Y112.042 E38.55608
G1 X35.803 Y112.553 E38.58851
G1 X35.575 Y113.074 E38.62096
G1 X35.369 Y113.607 E38.65357
G1 X35.189 Y114.146 E38.68599
G1 X35.032 Y114.693 E38.71846
G1 X34.898 Y115.247 E38.75098
G1 X34.789 Y115.805 E38.78342
G1 X34.704 Y116.367 E38.81585
G1 X34.643 Y116.933 E38.84834
G1 X34.608 Y117.504 E38.88098
G1 X34.599 Y118.072 E38.91339
G1 X34.613 Y118.64 E38.94581
G1 X34.652 Y119.209 E38.97835
G1 X34.716 Y119.775 E39.01085
G1 X34.804 Y120.337 E39.04331
G1 X34.918 Y120.895 E39.07581
G1 X35.054 Y121.447 E39.10825
G1 X35.216 Y121.994 E39.1408
G1 X35.4 Y122.531 E39.17319
G1 X35.608 Y123.062 E39.20573
G1 X35.84 Y123.583 E39.23827
G1 X36.093 Y124.092 E39.2707
G1 X36.368 Y124.589 E39.30311
G1 X36.665 Y125.076 E39.33566
G1 X36.984 Y125.549 E39.36821
G1 X37.321 Y126.005 E39.40057
G1 X37.678 Y126.449 E39.43307
G0 F3600 X38.175 Y126.03
;TYPE:WALL-OUTER
G1 F1800 X38.534 Y126.435 E39.46395
G1 X38.909 Y126.825 E39.49482
G1 X39.302 Y127.197 E39.5257
G1 X39.709 Y127.553 E39.55655
G1 X40.133 Y127.89 E39.58746
G1 X40.569 Y128.208 E39.61825
G1 X41.02 Y128.508 E39.64916
G1 X41.484 Y128.786 E39.68002
G1 X41.959 Y129.045 E39.71089
G1 X42.445 Y129.283 E39.74177
G1 X42.941 Y129.499 E39.77264
G1 X43.446 Y129.693 E39.8035
G1 X43.958 Y129.866 E39.83434
G1 X44.479 Y130.016 E39.86527
G1 X45.004 Y130.143 E39.89609
G1 X45.536 Y130.246 E39.92701
G1 X46.07 Y130.326 E39.95782
G1 X46.608 Y130.384 E39.9887
G1 X47.148 Y130.418 E40.01957
G1 X47.69 Y130.427 E40.0505
G1 X48.23 Y130.414 E40.08132
G1 X48.77 Y130.376 E40.11221
G1 X49.308 Y130.315 E40.1431
G1 X49.842 Y130.232 E40.17394
G1 X50.372 Y130.124 E40.2048
G1 X50.897 Y129.994 E40.23566
G1 X51.416 Y129.841 E40.26654
G1 X51.927 Y129.666 E40.29736
G1 X52.431 Y129.468 E40.32825
G1 X52.925 Y129.248 E40.35911
G1 X53.41 Y129.007 E40.39001
G1 X53.883 Y128.745 E40.42086
G1 X54.344 Y128.464 E40.45167
G1 X54.794 Y128.161 E40.48262
G1 X55.228 Y127.84 E40.51342
G1 X55.649 Y127.501 E40.54426
G1 X56.055 Y127.141 E40.57523
G1 X56.445 Y126.766 E40.6061
G1 X56.817 Y126.374 E40.63693
G1 X57.172 Y125.967 E40.66775
G1 X57.51 Y125.544 E40.69864
G1 X57.829 Y125.106 E40.72956
