;FLAVOR:Marlin
;TIME:8940
;Filament used: 4.81026m
;Layer height: 0.4
;MINX:49.839
;MINY:48.339
;MINZ:0.52
;MAXX:140.161
;MAXY:121.661
;MAXZ:23.72
;Generated with Cura_SteamEngine 4.1.0
M82 ;absolute extrusion mode
M98 P0:/sys/startprint.g

G92 E0
G92 E0
G10
;LAYER_COUNT:59
;LAYER:0
M107
G0 F3600 X54.757 Y50.002 Z0.52
;TYPE:SKIRT
M220 S50
G11
G1 F1800 X55.207 Y49.564 E0.03583
G1 X55.437 Y49.379 E0.05267
G1 X55.822 Y49.111 E0.07944
G1 X56.067 Y48.965 E0.09571
G1 X56.531 Y48.736 E0.12524
G1 X56.894 Y48.613 E0.14711
G1 X57.378 Y48.48 E0.17575
G1 X57.886 Y48.382 E0.20527
G1 X58.213 Y48.36 E0.22397
G1 X58.905 Y48.349 E0.26346
G1 X58.956 Y48.349 E0.26637
G1 X73.152 Y48.339 E1.07637
G1 X134.491 Y48.339 E4.57629
G1 X135.189 Y48.349 E4.61612
G1 X135.558 Y48.375 E4.63723
G1 X135.789 Y48.404 E4.65052
G1 X135.897 Y48.419 E4.65674
G1 X136.105 Y48.452 E4.66875
G1 X136.608 Y48.573 E4.69827
G1 X136.931 Y48.696 E4.71799
G1 X137.396 Y48.901 E4.74699
G1 X137.852 Y49.145 E4.7765
G1 X138.28 Y49.47 E4.80716
G1 X138.672 Y49.821 E4.83719
G1 X139.029 Y50.195 E4.86669
G1 X139.334 Y50.635 E4.89724
G1 X139.582 Y51.062 E4.92541
G1 X139.806 Y51.528 E4.95491
G1 X139.932 Y51.92 E4.97841
G1 X139.983 Y52.121 E4.99024
G1 X140.018 Y52.271 E4.99903
G1 X140.079 Y52.568 E5.01633
G1 X140.145 Y53.119 E5.04799
G1 X140.153 Y53.336 E5.06038
G1 X140.155 Y53.458 E5.06734
G1 X140.161 Y68.196 E5.90828
G1 X140.161 Y115.976 E8.63454
G1 X140.151 Y116.689 E8.67523
G1 X140.125 Y117.061 E8.6965
G1 X140.096 Y117.291 E8.70973
G1 X140.08 Y117.399 E8.71596
G1 X140.047 Y117.606 E8.72792
G1 X139.927 Y118.109 E8.75743
G1 X139.806 Y118.428 E8.77689
G1 X139.605 Y118.885 E8.80538
G1 X139.36 Y119.341 E8.83492
G1 X139.047 Y119.756 E8.86458
G1 X138.693 Y120.156 E8.89505
G1 X138.321 Y120.516 E8.92459
G1 X137.872 Y120.83 E8.95585
G1 X137.445 Y121.079 E8.98406
G1 X136.979 Y121.304 E9.01359
G1 X136.577 Y121.433 E9.03767
G1 X136.375 Y121.484 E9.04956
G1 X136.24 Y121.515 E9.05747
G1 X135.943 Y121.577 E9.07478
G1 X135.366 Y121.646 E9.10793
G1 X135.149 Y121.653 E9.12032
G1 X135.069 Y121.655 E9.12489
G1 X134.829 Y121.657 E9.13858
G1 X134.802 Y121.657 E9.14012
G1 X120.447 Y121.661 E9.9592
G1 X55.509 Y121.661 E13.66448
G1 X54.812 Y121.651 E13.70425
G1 X54.444 Y121.625 E13.7253
G1 X54.212 Y121.596 E13.73864
G1 X54.103 Y121.581 E13.74492
G1 X53.895 Y121.548 E13.75694
G1 X53.392 Y121.427 E13.78646
G1 X53.067 Y121.304 E13.80629
G1 X52.598 Y121.097 E13.83554
G1 X52.143 Y120.852 E13.86502
G1 X51.711 Y120.523 E13.89601
G1 X51.323 Y120.174 E13.92578
G1 X50.966 Y119.799 E13.95533
G1 X50.665 Y119.363 E13.98556
G1 X50.414 Y118.93 E14.01411
G1 X50.19 Y118.464 E14.04361
G1 X50.059 Y118.051 E14.06834
G1 X50.011 Y117.856 E14.0798
G1 X49.983 Y117.733 E14.08699
G1 X49.922 Y117.438 E14.10418
G1 X49.855 Y116.874 E14.13659
G1 X49.845 Y116.58 E14.15337
G1 X49.843 Y116.476 E14.15931
G1 X49.839 Y115.088 E14.23851
G1 X49.839 Y74.009 E16.58242
G1 X49.849 Y73.312 E16.6222
G1 X49.875 Y72.944 E16.64325
G1 X49.904 Y72.712 E16.65659
G1 X49.916 Y72.624 E16.66165
G1 X49.953 Y72.381 E16.67568
G1 X50.036 Y71.992 E16.69837
G1 X50.289 Y71.077 E16.75254
G1 X50.98 Y68.421 E16.90913
G1 X51.597 Y65.751 E17.0655
G1 X52.128 Y63.096 E17.21999
G1 X52.595 Y60.375 E17.37751
G1 X52.973 Y57.723 E17.53036
G1 X53.287 Y54.96 E17.68903
G1 X53.379 Y53.885 E17.75059
G1 X53.384 Y53.836 E17.7534
G1 X53.441 Y53.268 E17.78598
G1 X53.453 Y53.16 E17.79218
G1 X53.546 Y52.461 E17.83241
G1 X53.654 Y51.955 E17.86193
G1 X53.75 Y51.676 E17.87877
G1 X53.837 Y51.455 E17.89232
G1 X53.927 Y51.247 E17.90525
G1 X54.027 Y51.036 E17.91857
G1 X54.284 Y50.587 E17.94809
G1 X54.504 Y50.299 E17.96877
G1 X54.757 Y50.002 E17.99103
G10
;MESH:zmotorholder.stl
G0 F3600 X57.208 Y53.378
G0 X79.171 Y108.565
G0 X79.267 Y108.541
;TYPE:WALL-OUTER
G11
G1 F1800 X79.482 Y109.058 E18.02298
G1 X79.818 Y109.492 E18.0543
G1 X80.255 Y109.825 E18.08565
G1 X80.763 Y110.033 E18.11697
G1 X81.307 Y110.104 E18.14827
G1 X81.851 Y110.029 E18.17961
G1 X82.358 Y109.818 E18.21094
G1 X82.792 Y109.482 E18.24226
G1 X83.125 Y109.045 E18.27361
G1 X83.333 Y108.537 E18.30493
G1 X83.404 Y107.993 E18.33623
G1 X83.329 Y107.449 E18.36757
G1 X83.118 Y106.942 E18.3989
G1 X82.782 Y106.508 E18.43022
G1 X82.345 Y106.175 E18.46157
G1 X81.837 Y105.967 E18.49289
G1 X81.293 Y105.896 E18.52419
G1 X80.749 Y105.971 E18.55552
G1 X80.242 Y106.182 E18.58686
G1 X79.808 Y106.518 E18.61818
G1 X79.475 Y106.955 E18.64953
G1 X79.269 Y107.459 E18.68059
G1 X79.199 Y107.924 E18.70742
G1 X79.267 Y108.541 E18.74284
G0 F3600 X79.42 Y108.91
G0 X78.708 Y109.206
G0 X80.753 Y110.071
G0 X110.171 Y108.565
G0 X110.267 Y108.541
G1 F1800 X110.482 Y109.058 E18.77479
G1 X110.818 Y109.492 E18.80611
G1 X111.255 Y109.825 E18.83746
G1 X111.763 Y110.033 E18.86878
G1 X112.307 Y110.104 E18.90008
G1 X112.851 Y110.029 E18.93141
G1 X113.358 Y109.818 E18.96275
G1 X113.792 Y109.482 E18.99407
G1 X114.125 Y109.045 E19.02542
G1 X114.333 Y108.537 E19.05674
G1 X114.404 Y107.993 E19.08804
G1 X114.329 Y107.449 E19.11937
G1 X114.118 Y106.942 E19.15071
G1 X113.782 Y106.508 E19.18202
G1 X113.345 Y106.175 E19.21337
G1 X112.837 Y105.967 E19.2447
G1 X112.293 Y105.896 E19.276
G1 X111.749 Y105.971 E19.30733
G1 X111.242 Y106.182 E19.33867
G1 X110.808 Y106.518 E19.36998
G1 X110.475 Y106.955 E19.40133
G1 X110.269 Y107.459 E19.4324
G1 X110.199 Y107.924 E19.45923
G1 X110.267 Y108.541 E19.49465
G0 F3600 X110.42 Y108.91
G0 X109.708 Y109.206
G0 X110.171 Y77.565
G0 X110.267 Y77.541
G1 F1800 X110.482 Y78.058 E19.5266
G1 X110.818 Y78.492 E19.55791
G1 X111.255 Y78.825 E19.58926
G1 X111.763 Y79.033 E19.62059
G1 X112.307 Y79.104 E19.65189
G1 X112.851 Y79.029 E19.68322
G1 X113.358 Y78.818 E19.71456
G1 X113.792 Y78.482 E19.74587
G1 X114.125 Y78.045 E19.77722
G1 X114.333 Y77.537 E19.80854
G1 X114.404 Y76.993 E19.83985
G1 X114.329 Y76.449 E19.87118
G1 X114.118 Y75.942 E19.90251
G1 X113.782 Y75.508 E19.93383
G1 X113.345 Y75.175 E19.96518
G1 X112.837 Y74.967 E19.9965
G1 X112.293 Y74.896 E20.02781
G1 X111.749 Y74.971 E20.05914
G1 X111.242 Y75.182 E20.09047
G1 X110.808 Y75.518 E20.12179
G1 X110.475 Y75.955 E20.15314
G1 X110.269 Y76.459 E20.18421
G1 X110.199 Y76.924 E20.21104
G1 X110.267 Y77.541 E20.24646
G0 F3600 X110.42 Y77.91
G0 X109.708 Y78.206
G0 X109.677 Y63.187
G0 X109.758 Y63.13
G1 F1800 X110.204 Y63.638 E20.28503
G1 X110.749 Y64.036 E20.32353
G1 X111.367 Y64.309 E20.36208
G1 X112.03 Y64.441 E20.40066
G1 X112.705 Y64.426 E20.43918
G1 X113.361 Y64.265 E20.47772
G1 X113.967 Y63.966 E20.51628
G1 X114.494 Y63.544 E20.5548
G1 X114.916 Y63.017 E20.59332
G1 X115.215 Y62.411 E20.63188
G1 X115.376 Y61.755 E20.67042
G1 X115.391 Y61.08 E20.70895
G1 X115.259 Y60.417 E20.74752
G1 X114.986 Y59.799 E20.78607
G1 X114.588 Y59.254 E20.82458
G1 X114.08 Y58.808 E20.86315
G1 X113.487 Y58.484 E20.9017
G1 X112.839 Y58.295 E20.94022
G1 X112.164 Y58.251 E20.97882
G1 X111.497 Y58.353 E21.01732
G1 X110.867 Y58.598 E21.05589
G1 X110.305 Y58.974 E21.09447
G1 X109.839 Y59.461 E21.13293
G1 X109.488 Y60.039 E21.17151
G1 X109.272 Y60.675 E21.20984
G1 X109.201 Y61.229 E21.24171
G1 X109.245 Y61.889 E21.27945
G1 X109.434 Y62.537 E21.31796
G1 X109.758 Y63.13 E21.35652
G0 F3600 X110.021 Y63.43
G0 X109.442 Y63.937
G0 X81.027 Y64.48
G0 X79.73 Y64.07
G0 X78.677 Y63.187
G0 X78.758 Y63.13
G1 F1800 X79.204 Y63.638 E21.39509
G1 X79.749 Y64.036 E21.4336
G1 X80.367 Y64.309 E21.47215
G1 X81.03 Y64.441 E21.51072
G1 X81.705 Y64.426 E21.54924
G1 X82.361 Y64.265 E21.58779
G1 X82.967 Y63.966 E21.62634
G1 X83.494 Y63.544 E21.66486
G1 X83.916 Y63.017 E21.70339
G1 X84.215 Y62.411 E21.74194
G1 X84.376 Y61.755 E21.78049
G1 X84.391 Y61.08 E21.81901
G1 X84.259 Y60.417 E21.85758
G1 X83.986 Y59.799 E21.89613
G1 X83.588 Y59.254 E21.93464
G1 X83.08 Y58.808 E21.97321
G1 X82.487 Y58.484 E22.01177
G1 X81.839 Y58.295 E22.05028
G1 X81.164 Y58.251 E22.08888
G1 X80.497 Y58.353 E22.12738
G1 X79.867 Y58.598 E22.16595
G1 X79.305 Y58.974 E22.20453
G1 X78.839 Y59.461 E22.24299
G1 X78.488 Y60.039 E22.28157
G1 X78.272 Y60.675 E22.3199
G1 X78.201 Y61.229 E22.35177
G1 X78.245 Y61.889 E22.38951
G1 X78.434 Y62.537 E22.42803
G1 X78.758 Y63.13 E22.46658
G0 F3600 X79.021 Y63.43
G0 X78.442 Y63.937
G0 X88.735 Y82.951
G0 X88.799 Y83.027
G1 F1800 X88.393 Y83.387 E22.49754
G1 X88.003 Y83.762 E22.52841
G1 X87.631 Y84.154 E22.55925
G1 X87.275 Y84.562 E22.59015
G1 X86.938 Y84.985 E22.62101
G1 X86.62 Y85.421 E22.6518
G1 X86.32 Y85.872 E22.6827
G1 X86.042 Y86.336 E22.71357
G1 X85.783 Y86.811 E22.74444
G1 X85.545 Y87.298 E22.77537
G1 X85.329 Y87.793 E22.80618
G1 X85.135 Y88.298 E22.83705
G1 X84.962 Y88.811 E22.86794
G1 X84.812 Y89.331 E22.89882
G1 X84.685 Y89.857 E22.9297
G1 X84.582 Y90.388 E22.96056
G1 X84.502 Y90.923 E22.99142
G1 X84.444 Y91.46 E23.02224
G1 X84.41 Y92.001 E23.05317
G1 X84.401 Y92.542 E23.08405
G1 X84.414 Y93.082 E23.11487
G1 X84.452 Y93.622 E23.14575
G1 X84.513 Y94.16 E23.17665
G1 X84.596 Y94.694 E23.20748
G1 X84.704 Y95.224 E23.23835
G1 X84.834 Y95.749 E23.26921
G1 X84.987 Y96.268 E23.30008
G1 X85.162 Y96.779 E23.3309
G1 X85.36 Y97.283 E23.3618
G1 X85.58 Y97.777 E23.39265
G1 X85.821 Y98.262 E23.42355
G1 X86.083 Y98.735 E23.45441
G1 X86.364 Y99.197 E23.48526
G1 X86.667 Y99.646 E23.51617
G1 X86.988 Y100.08 E23.54697
G1 X87.327 Y100.501 E23.57781
G1 X87.687 Y100.907 E23.60877
G1 X88.062 Y101.297 E23.63964
G1 X88.454 Y101.669 E23.67048
G1 X88.862 Y102.025 E23.70137
G1 X89.285 Y102.362 E23.73223
G1 X89.721 Y102.68 E23.76302
G1 X90.172 Y102.98 E23.79393
G1 X90.636 Y103.258 E23.8248
G1 X91.111 Y103.517 E23.85567
G1 X91.598 Y103.755 E23.88659
G1 X92.093 Y103.971 E23.91741
G1 X92.598 Y104.165 E23.94828
G1 X93.111 Y104.338 E23.97917
G1 X93.631 Y104.488 E24.01005
G1 X94.157 Y104.615 E24.04092
G1 X94.688 Y104.718 E24.07179
G1 X95.223 Y104.798 E24.10265
G1 X95.76 Y104.856 E24.13347
G1 X96.301 Y104.89 E24.1644
G1 X96.842 Y104.899 E24.19527
G1 X97.382 Y104.886 E24.22609
G1 X97.922 Y104.848 E24.25698
G1 X98.46 Y104.787 E24.28788
G1 X98.994 Y104.704 E24.31871
G1 X99.524 Y104.596 E24.34957
G1 X100.049 Y104.466 E24.38043
G1 X100.568 Y104.313 E24.41131
G1 X101.079 Y104.138 E24.44213
G1 X101.583 Y103.94 E24.47302
G1 X102.077 Y103.72 E24.50388
G1 X102.562 Y103.479 E24.53478
G1 X103.035 Y103.217 E24.56563
G1 X103.497 Y102.936 E24.59649
G1 X103.946 Y102.633 E24.6274
G1 X104.38 Y102.312 E24.6582
G1 X104.801 Y101.973 E24.68904
G1 X105.207 Y101.613 E24.72
G1 X105.597 Y101.238 E24.75087
G1 X105.969 Y100.846 E24.78171
G1 X106.325 Y100.438 E24.8126
G1 X106.662 Y100.015 E24.84346
G1 X106.98 Y99.579 E24.87425
G1 X107.28 Y99.128 E24.90516
G1 X107.558 Y98.664 E24.93602
G1 X107.817 Y98.189 E24.96689
G1 X108.055 Y97.702 E24.99782
G1 X108.271 Y97.207 E25.02864
G1 X108.465 Y96.702 E25.0595
G1 X108.638 Y96.189 E25.0904
G1 X108.788 Y95.669 E25.12128
G1 X108.915 Y95.143 E25.15215
G1 X109.018 Y94.612 E25.18301
G1 X109.098 Y94.077 E25.21388
G1 X109.156 Y93.54 E25.2447
G1 X109.19 Y92.999 E25.27563
G1 X109.199 Y92.458 E25.3065
G1 X109.186 Y91.918 E25.33732
G1 X109.148 Y91.378 E25.36821
G1 X109.087 Y90.84 E25.3991
G1 X109.004 Y90.306 E25.42994
G1 X108.896 Y89.776 E25.4608
G1 X108.766 Y89.251 E25.49166
G1 X108.613 Y88.732 E25.52254
G1 X108.438 Y88.221 E25.55336
G1 X108.24 Y87.717 E25.58425
G1 X108.02 Y87.223 E25.61511
G1 X107.779 Y86.738 E25.64601
G1 X107.517 Y86.265 E25.67686
G1 X107.236 Y85.803 E25.70772
G1 X106.933 Y85.354 E25.73862
G1 X106.612 Y84.92 E25.76942
G1 X106.273 Y84.499 E25.80027
G1 X105.913 Y84.093 E25.83123
G1 X105.538 Y83.703 E25.8621
G1 X105.146 Y83.331 E25.89293
G1 X104.738 Y82.975 E25.92383
G1 X104.315 Y82.638 E25.95469
G1 X103.879 Y82.32 E25.98548
G1 X103.428 Y82.02 E26.01639
G1 X102.964 Y81.742 E26.04725
G1 X102.489 Y81.483 E26.07812
G1 X102.002 Y81.245 E26.10905
G1 X101.507 Y81.029 E26.13987
G1 X101.002 Y80.835 E26.17073
G1 X100.489 Y80.662 E26.20162
G1 X99.969 Y80.512 E26.2325
G1 X99.443 Y80.385 E26.26338
G1 X98.912 Y80.282 E26.29424
G1 X98.377 Y80.202 E26.32511
G1 X97.84 Y80.144 E26.35593
G1 X97.299 Y80.11 E26.38686
G1 X96.758 Y80.101 E26.41773
G1 X96.218 Y80.114 E26.44855
G1 X95.678 Y80.152 E26.47944
G1 X95.14 Y80.213 E26.51033
G1 X94.606 Y80.296 E26.54117
G1 X94.076 Y80.404 E26.57203
G1 X93.551 Y80.534 E26.60289
G1 X93.032 Y80.687 E26.63376
G1 X92.521 Y80.862 E26.66458
G1 X92.017 Y81.06 E26.69548
G1 X91.523 Y81.28 E26.72634
G1 X91.038 Y81.521 E26.75724
G1 X90.565 Y81.783 E26.78809
G1 X90.103 Y82.064 E26.81894
G1 X89.654 Y82.367 E26.84985
G1 X89.22 Y82.688 E26.88065
G1 X88.799 Y83.027 E26.91149
G0 F3600 X88.5 Y83.292
G0 X87.99 Y82.716
G0 X80.236 Y78.859
G0 X79.171 Y77.565
G0 X79.267 Y77.541
G1 F1800 X79.482 Y78.058 E26.94344
G1 X79.818 Y78.492 E26.97476
G1 X80.255 Y78.825 E27.00611
G1 X80.763 Y79.033 E27.03743
G1 X81.307 Y79.104 E27.06873
G1 X81.851 Y79.029 E27.10007
G1 X82.358 Y78.818 E27.1314
G1 X82.792 Y78.482 E27.16272
G1 X83.125 Y78.045 E27.19407
G1 X83.333 Y77.537 E27.22539
G1 X83.404 Y76.993 E27.25669
G1 X83.329 Y76.449 E27.28803
G1 X83.118 Y75.942 E27.31936
G1 X82.782 Y75.508 E27.35068
G1 X82.345 Y75.175 E27.38203
G1 X81.837 Y74.967 E27.41335
G1 X81.293 Y74.896 E27.44465
G1 X80.749 Y74.971 E27.47598
G1 X80.242 Y75.182 E27.50732
G1 X79.808 Y75.518 E27.53864
G1 X79.475 Y75.955 E27.56998
G1 X79.269 Y76.459 E27.60105
G1 X79.199 Y76.924 E27.62788
G1 X79.267 Y77.541 E27.6633
G0 F3600 X79.42 Y77.91
G0 X78.708 Y78.206
G0 X57.259 Y72.158
G0 X57.189 Y72.088
G1 F1800 X57.189 Y53.377 E28.73093
G1 X57.249 Y52.982 E28.75372
G1 X57.392 Y52.671 E28.77325
G1 X57.641 Y52.388 E28.79476
G1 X57.954 Y52.195 E28.81574
G1 X58.323 Y52.099 E28.8375
G1 X73.154 Y52.089 E29.68374
G1 X135.122 Y52.089 E33.21955
G1 X135.497 Y52.142 E33.24116
G1 X135.849 Y52.306 E33.26332
G1 X136.128 Y52.562 E33.28492
G1 X136.32 Y52.893 E33.30676
G1 X136.407 Y53.284 E33.32961
G1 X136.411 Y68.224 E34.18207
G1 X136.411 Y116.622 E36.9436
G1 X136.358 Y116.997 E36.9652
G1 X136.194 Y117.349 E36.98736
G1 X135.938 Y117.628 E37.00897
G1 X135.607 Y117.82 E37.0308
G1 X135.216 Y117.907 E37.05366
G1 X120.446 Y117.911 E37.89641
G1 X54.878 Y117.911 E41.63764
G1 X54.503 Y117.858 E41.65925
G1 X54.151 Y117.694 E41.68141
G1 X53.872 Y117.438 E41.70301
G1 X53.68 Y117.107 E41.72484
G1 X53.593 Y116.715 E41.74776
G1 X53.589 Y115.077 E41.84122
G1 X53.589 Y73.378 E44.22051
G1 X53.642 Y73.003 E44.24212
G1 X53.806 Y72.651 E44.26428
G1 X54.062 Y72.372 E44.28588
G1 X54.393 Y72.18 E44.30771
G1 X54.785 Y72.093 E44.33063
G1 X57.189 Y72.088 E44.4678
G0 F3600 X57.189 Y71.688
G0 X57.959 Y71.688
G0 X57.879 Y72.776
;TYPE:SKIN
G1 F1800 X57.879 Y53.429 E45.57171
G1 X57.917 Y53.18 E45.58608
G1 X57.975 Y53.052 E45.5941
G1 X58.092 Y52.92 E45.60416
G1 X58.226 Y52.838 E45.61313
G1 X58.413 Y52.789 E45.62416
G1 X73.154 Y52.779 E46.46526
G1 X135.067 Y52.779 E49.99794
G1 X135.301 Y52.812 E50.01142
G1 X135.459 Y52.885 E50.02135
G1 X135.584 Y53.001 E50.03108
G1 X135.669 Y53.147 E50.04072
G1 X135.717 Y53.362 E50.05329
G1 X135.721 Y68.224 E50.9013
G1 X135.721 Y116.567 E53.65968
G1 X135.688 Y116.801 E53.67317
G1 X135.615 Y116.959 E53.6831
G1 X135.499 Y117.084 E53.69283
G1 X135.353 Y117.169 E53.70247
G1 X135.138 Y117.217 E53.71504
G1 X120.446 Y117.221 E54.55335
G1 X54.933 Y117.221 E58.29143
G1 X54.699 Y117.188 E58.30491
G1 X54.541 Y117.115 E58.31485
G1 X54.416 Y116.999 E58.32458
G1 X54.33 Y116.853 E58.33424
G1 X54.283 Y116.638 E58.3468
G1 X54.279 Y115.075 E58.43598
G1 X54.279 Y73.433 E60.81202
G1 X54.312 Y73.199 E60.82551
G1 X54.385 Y73.041 E60.83544
G1 X54.501 Y72.916 E60.84517
G1 X54.647 Y72.83 E60.85484
G1 X54.862 Y72.783 E60.86739
G1 X57.879 Y72.776 E61.03954
G0 F3600 X78.599 Y76.274
G1 F1800 X78.503 Y76.91 E61.07624
G1 X78.592 Y77.715 E61.12245
G1 X78.88 Y78.407 E61.16522
G1 X79.327 Y78.986 E61.20696
G1 X79.91 Y79.429 E61.24874
G1 X80.585 Y79.705 E61.29035
G1 X81.309 Y79.8 E61.33201
G1 X82.034 Y79.701 E61.37376
G1 X82.707 Y79.419 E61.4154
G1 X83.286 Y78.973 E61.4571
G1 X83.729 Y78.39 E61.49888
G1 X84.005 Y77.715 E61.54049
G1 X84.1 Y76.991 E61.58215
G1 X84.001 Y76.266 E61.6239
G1 X83.719 Y75.593 E61.66554
G1 X83.273 Y75.014 E61.70724
G1 X82.69 Y74.571 E61.74902
G1 X82.015 Y74.295 E61.79063
G1 X81.291 Y74.2 E61.8323
G1 X80.566 Y74.299 E61.87405
