;FLAVOR:Marlin
;TIME:9949
;Filament used: 4.11429m
;Layer height: 0.4
;MINX:36.004
;MINY:50.71
;MINZ:0.52
;MAXX:141.127
;MAXY:98.419
;MAXZ:19.72
;Generated with Cura_SteamEngine 4.1.0
M82 ;absolute extrusion mode
M98 P0:/sys/startprint.g

G92 E0
G92 E0
G10
;LAYER_COUNT:49
;LAYER:0
M107
G0 F3600 X37.395 Y51.359 Z0.52
;TYPE:SKIRT
M220 S50
G11
G1 F1800 X37.835 Y51.088 E0.02949
G1 X38.312 Y50.888 E0.059
G1 X38.815 Y50.764 E0.08856
G1 X39.27 Y50.72 E0.11464
G1 X39.59 Y50.711 E0.13291
G1 X39.684 Y50.71 E0.13827
G1 X54.016 Y50.71 E0.95604
G1 X54.722 Y50.72 E0.99632
G1 X54.911 Y50.728 E1.00712
G1 X56.194 Y50.819 E1.08051
G1 X58.959 Y50.976 E1.23853
G1 X61.701 Y51.054 E1.39505
G1 X64.409 Y51.054 E1.54956
G1 X67.157 Y50.976 E1.70642
G1 X69.899 Y50.822 E1.86312
G1 X70.996 Y50.736 E1.92591
G1 X71.132 Y50.728 E1.93368
G1 X71.559 Y50.712 E1.95806
G1 X71.684 Y50.71 E1.9652
G1 X86.017 Y50.71 E2.78302
G1 X86.716 Y50.72 E2.82291
G1 X86.905 Y50.728 E2.8337
G1 X87.987 Y50.805 E2.89559
G1 X90.736 Y50.96 E3.0527
G1 X93.492 Y51.038 E3.21001
G1 X94.865 Y51.048 E3.28836
G1 X103.988 Y51.048 E3.8089
G1 X104.694 Y51.058 E3.84919
G1 X104.883 Y51.066 E3.85999
G1 X106.166 Y51.157 E3.93338
G1 X108.931 Y51.314 E4.0914
G1 X111.673 Y51.392 E4.24792
G1 X114.381 Y51.392 E4.40243
G1 X117.129 Y51.314 E4.55929
G1 X119.871 Y51.16 E4.71599
G1 X120.968 Y51.074 E4.77878
G1 X121.104 Y51.066 E4.78655
G1 X121.531 Y51.05 E4.81093
G1 X121.656 Y51.048 E4.81807
G1 X135.989 Y51.048 E5.63589
G1 X136.687 Y51.058 E5.67572
G1 X137.202 Y51.106 E5.70523
G1 X137.704 Y51.232 E5.73476
G1 X138.18 Y51.434 E5.76427
G1 X138.62 Y51.706 E5.79378
G1 X139.012 Y52.043 E5.82328
G1 X139.348 Y52.437 E5.85283
G1 X139.619 Y52.878 E5.88236
G1 X139.819 Y53.355 E5.91187
G1 X139.943 Y53.857 E5.94138
G1 X139.988 Y54.313 E5.96752
G1 X139.997 Y54.63 E5.98562
G1 X139.998 Y54.725 E5.99104
G1 X139.998 Y57.243 E6.13471
G1 X139.988 Y57.94 E6.17449
G1 X139.961 Y58.315 E6.19594
G1 X139.861 Y59.103 E6.24126
G1 X139.546 Y61.876 E6.4005
G1 X139.315 Y64.585 E6.55564
G1 X139.16 Y67.32 E6.71194
G1 X139.081 Y70.066 E6.86869
G1 X139.081 Y72.777 E7.02338
G1 X139.158 Y75.517 E7.17978
G1 X139.313 Y78.263 E7.33671
G1 X139.542 Y80.962 E7.49126
G1 X139.85 Y83.683 E7.64751
G1 X140.238 Y86.409 E7.80462
G1 X140.698 Y89.097 E7.96023
G1 X140.997 Y90.604 E8.04789
G1 X141.009 Y90.666 E8.05149
G1 X141.059 Y90.946 E8.06772
G1 X141.11 Y91.45 E8.09663
G1 X141.126 Y92.08 E8.13259
G1 X141.127 Y92.165 E8.13744
G1 X141.127 Y94.379 E8.26376
G1 X141.117 Y95.106 E8.30525
G1 X141.07 Y95.621 E8.33476
G1 X140.944 Y96.123 E8.36429
G1 X140.742 Y96.599 E8.39379
G1 X140.47 Y97.039 E8.42331
G1 X140.133 Y97.432 E8.45285
G1 X139.74 Y97.768 E8.48235
G1 X139.299 Y98.039 E8.51188
G1 X138.822 Y98.239 E8.5414
G1 X138.32 Y98.364 E8.57092
G1 X137.861 Y98.409 E8.59723
G1 X137.541 Y98.418 E8.6155
G1 X137.447 Y98.419 E8.62086
G1 X123.115 Y98.419 E9.43863
G1 X122.405 Y98.409 E9.47914
G1 X122.215 Y98.401 E9.48999
G1 X120.931 Y98.31 E9.56344
G1 X118.172 Y98.153 E9.72112
G1 X115.43 Y98.075 E9.87764
G1 X112.722 Y98.075 E10.03215
G1 X109.974 Y98.153 E10.18901
G1 X107.232 Y98.307 E10.34571
G1 X106.135 Y98.393 E10.4085
G1 X105.999 Y98.401 E10.41627
G1 X105.572 Y98.417 E10.44065
G1 X105.447 Y98.419 E10.44779
G1 X91.114 Y98.419 E11.26561
G1 X90.415 Y98.409 E11.3055
G1 X90.227 Y98.401 E11.31623
G1 X89.558 Y98.354 E11.3545
G1 X86.804 Y98.198 E11.51189
G1 X84.048 Y98.12 E11.66921
G1 X82.675 Y98.11 E11.74755
G1 X74.23 Y98.11 E12.22941
G1 X73.519 Y98.1 E12.26999
G1 X73.329 Y98.092 E12.28084
G1 X72.046 Y98.001 E12.35423
G1 X69.287 Y97.844 E12.51191
G1 X66.545 Y97.766 E12.66842
G1 X63.837 Y97.766 E12.82294
G1 X61.089 Y97.844 E12.9798
G1 X58.347 Y97.998 E13.1365
G1 X57.25 Y98.084 E13.19929
G1 X57.114 Y98.092 E13.20706
G1 X56.687 Y98.108 E13.23144
G1 X56.562 Y98.11 E13.23857
G1 X42.229 Y98.11 E14.0564
G1 X41.531 Y98.1 E14.09623
G1 X41.016 Y98.052 E14.12574
G1 X40.514 Y97.926 E14.15527
G1 X40.038 Y97.724 E14.18478
G1 X39.598 Y97.452 E14.21429
G1 X39.206 Y97.115 E14.24379
G1 X38.87 Y96.721 E14.27333
G1 X38.599 Y96.28 E14.30287
G1 X38.399 Y95.803 E14.33238
G1 X38.275 Y95.301 E14.36189
G1 X38.23 Y94.84 E14.38831
G1 X38.221 Y94.506 E14.40738
G1 X38.22 Y94.416 E14.41251
G1 X38.22 Y91.915 E14.55522
G1 X38.23 Y91.217 E14.59505
G1 X38.246 Y90.941 E14.61082
G1 X38.294 Y90.447 E14.63914
G1 X38.528 Y87.687 E14.79719
G1 X38.682 Y84.948 E14.95372
G1 X38.759 Y82.203 E15.11041
G1 X38.759 Y79.494 E15.26498
G1 X38.68 Y76.75 E15.42162
G1 X38.524 Y74.006 E15.57844
G1 X38.291 Y71.275 E15.73483
G1 X37.985 Y68.586 E15.88925
G1 X37.6 Y65.888 E16.04476
G1 X37.131 Y63.155 E16.20298
G1 X36.598 Y60.501 E16.35743
G1 X36.101 Y58.319 E16.48512
G1 X36.018 Y57.646 E16.52382
G1 X36.005 Y57.035 E16.55869
G1 X36.004 Y56.964 E16.56274
G1 X36.004 Y54.69 E16.69249
G1 X36.014 Y54.019 E16.73078
G1 X36.062 Y53.504 E16.76029
G1 X36.188 Y53.002 E16.78982
G1 X36.39 Y52.526 E16.81933
G1 X36.663 Y52.087 E16.84883
G1 X37.001 Y51.695 E16.87836
G1 X37.395 Y51.359 E16.90791
G10
;MESH:zrodholder_16mmdia_0p8mmgap.stl(1)
G0 F3600 X39.768 Y54.474
G0 X58.112 Y68.201
G0 X59.106 Y68.779
G0 X60.165 Y69.222
G0 X61.274 Y69.524
G0 X62.41 Y69.677
G0 X65.301 Y69.459
G0 X65.276 Y69.363
;TYPE:WALL-OUTER
G11
G1 F1800 X65.794 Y69.205 E16.93881
G1 X66.358 Y68.995 E16.97315
G1 X66.852 Y68.772 E17.00407
G1 X67.384 Y68.49 E17.03843
G1 X67.844 Y68.204 E17.06933
G1 X68.334 Y67.855 E17.10366
G1 X68.754 Y67.511 E17.13464
G1 X69.193 Y67.101 E17.16891
G1 X69.564 Y66.707 E17.19979
G1 X69.948 Y66.241 E17.23424
G1 X70.263 Y65.801 E17.26512
G1 X70.583 Y65.291 E17.29947
G1 X70.839 Y64.814 E17.33036
G1 X71.09 Y64.265 E17.36481
G1 X71.28 Y63.759 E17.39565
G1 X71.456 Y63.182 E17.43007
G1 X71.579 Y62.656 E17.46089
G1 X71.68 Y62.061 E17.49533
G1 X71.732 Y61.524 E17.52611
G1 X71.754 Y60.928 E17.56014
G1 X71.754 Y54.46 E17.92919
G1 X86.276 Y54.46 E18.7578
G1 X86.276 Y57.377 E18.92424
G1 X70.914 Y70.299 E20.06964
G1 X70.496 Y70.634 E20.10021
G1 X70.091 Y70.932 E20.1289
G1 X69.653 Y71.228 E20.15906
G1 X69.203 Y71.504 E20.18918
G1 X68.749 Y71.758 E20.21887
G1 X68.301 Y71.983 E20.24747
G1 X67.812 Y72.203 E20.27807
G1 X67.336 Y72.394 E20.30733
G1 X66.841 Y72.568 E20.33727
G1 X66.358 Y72.716 E20.36609
G1 X65.847 Y72.849 E20.39622
G1 X65.337 Y72.959 E20.42599
G1 X64.836 Y73.045 E20.455
G1 X64.316 Y73.111 E20.4849
G1 X63.792 Y73.155 E20.51491
G1 X63.267 Y73.178 E20.54489
G1 X62.764 Y73.178 E20.57359
G1 X62.238 Y73.155 E20.60363
G1 X61.714 Y73.111 E20.63364
G1 X61.195 Y73.045 E20.66349
G1 X60.694 Y72.959 E20.69249
G1 X60.184 Y72.849 E20.72226
G1 X59.672 Y72.716 E20.75245
G1 X59.19 Y72.568 E20.78122
G1 X58.693 Y72.394 E20.81126
G1 X58.218 Y72.203 E20.84048
G1 X57.729 Y71.983 E20.87107
G1 X57.273 Y71.754 E20.90019
G1 X56.824 Y71.502 E20.92956
G1 X56.384 Y71.232 E20.95902
G1 X55.939 Y70.932 E20.98964
G1 X55.521 Y70.624 E21.01927
G1 X55.117 Y70.298 E21.04889
G1 X39.754 Y57.377 E22.1943
G1 X39.754 Y54.46 E22.36074
G1 X54.276 Y54.46 E23.18934
G1 X54.276 Y60.928 E23.5584
G1 X54.294 Y61.462 E23.58889
G1 X54.351 Y62.06 E23.62316
G1 X54.439 Y62.594 E23.65404
G1 X54.573 Y63.181 E23.6884
G1 X54.731 Y63.7 E23.71935
G1 X54.941 Y64.263 E23.75364
G1 X55.164 Y64.757 E23.78456
G1 X55.446 Y65.289 E23.81892
G1 X55.732 Y65.75 E23.84988
G1 X56.081 Y66.24 E23.8842
G1 X56.425 Y66.659 E23.91513
G1 X56.835 Y67.099 E23.94945
G1 X57.229 Y67.469 E23.98029
G1 X57.695 Y67.854 E24.01478
G1 X58.134 Y68.168 E24.04558
G1 X58.645 Y68.489 E24.08001
G1 X59.123 Y68.744 E24.11092
G1 X59.671 Y68.995 E24.14531
G1 X60.177 Y69.185 E24.17615
G1 X60.754 Y69.362 E24.21059
G1 X61.281 Y69.485 E24.24147
G1 X61.875 Y69.585 E24.27584
G1 X62.412 Y69.638 E24.30663
G1 X63.014 Y69.66 E24.341
G1 X63.556 Y69.642 E24.37194
G1 X64.155 Y69.585 E24.40628
G1 X64.689 Y69.497 E24.43716
G1 X65.276 Y69.363 E24.47151
G0 F3600 X65.658 Y69.247
G0 X66.015 Y69.859
;TYPE:SKIN
G1 F1800 X66.621 Y69.634 E24.50839
G1 X67.156 Y69.391 E24.54192
G1 X67.729 Y69.089 E24.57888
G1 X68.227 Y68.778 E24.61238
G1 X68.753 Y68.403 E24.64924
G1 X69.209 Y68.031 E24.68282
G1 X69.68 Y67.59 E24.71963
G1 X70.082 Y67.164 E24.75306
G1 X70.496 Y66.661 E24.79023
G1 X70.836 Y66.186 E24.82356
G1 X71.18 Y65.638 E24.86048
G1 X71.458 Y65.121 E24.89397
G1 X71.727 Y64.53 E24.93102
G1 X71.934 Y63.982 E24.96445
G1 X72.123 Y63.361 E25.00148
G1 X72.255 Y62.792 E25.03481
G1 X72.364 Y62.152 E25.07186
G1 X72.42 Y61.57 E25.10522
G1 X72.444 Y60.94 E25.14119
G1 X72.444 Y55.15 E25.47156
G1 X85.586 Y55.15 E26.22142
G1 X85.586 Y57.056 E26.33018
G1 X70.482 Y69.761 E27.45634
G1 X70.07 Y70.092 E27.4865
G1 X69.705 Y70.36 E27.51234
G1 X69.285 Y70.644 E27.54127
G1 X68.854 Y70.909 E27.57013
G1 X68.439 Y71.141 E27.59726
G1 X67.994 Y71.365 E27.62569
G1 X67.541 Y71.568 E27.65401
G1 X67.095 Y71.747 E27.68144
G1 X66.625 Y71.912 E27.70986
G1 X66.171 Y72.051 E27.73695
G1 X65.672 Y72.181 E27.76637
G1 X65.215 Y72.28 E27.79305
G1 X64.723 Y72.365 E27.82154
G1 X64.259 Y72.423 E27.84822
G1 X63.756 Y72.465 E27.87702
G1 X63.237 Y72.488 E27.90667
G1 X62.794 Y72.488 E27.93194
G1 X62.274 Y72.465 E27.96164
G1 X61.771 Y72.423 E27.99044
G1 X61.308 Y72.365 E28.01707
G1 X60.816 Y72.28 E28.04556
G1 X60.359 Y72.181 E28.07224
G1 X59.865 Y72.053 E28.10135
G1 X59.398 Y71.909 E28.12924
G1 X58.936 Y71.748 E28.15715
G1 X58.481 Y71.565 E28.18514
G1 X58.036 Y71.365 E28.21297
G1 X57.583 Y71.137 E28.24191
G1 X57.177 Y70.91 E28.26845
G1 X56.752 Y70.648 E28.29694
G1 X56.349 Y70.376 E28.32468
G1 X55.931 Y70.068 E28.35431
G1 X55.55 Y69.761 E28.38223
G1 X40.444 Y57.056 E29.50848
G1 X40.444 Y55.15 E29.61723
G1 X53.586 Y55.15 E30.3671
G1 X53.586 Y60.94 E30.69747
G1 X53.606 Y61.507 E30.72984
G1 X53.667 Y62.149 E30.76664
G1 X53.761 Y62.727 E30.80005
G1 X53.906 Y63.358 E30.83699
G1 X54.077 Y63.921 E30.87057
G1 X54.302 Y64.526 E30.9074
G1 X54.545 Y65.061 E30.94092
G1 X54.847 Y65.632 E30.97778
G1 X55.157 Y66.132 E31.01135
G1 X55.533 Y66.66 E31.04833
G1 X55.905 Y67.114 E31.08182
G1 X56.346 Y67.586 E31.11868
G1 X56.773 Y67.987 E31.15211
G1 X57.274 Y68.402 E31.18923
G1 X57.75 Y68.742 E31.2226
G1 X58.298 Y69.086 E31.25952
G1 X58.817 Y69.363 E31.29309
G1 X59.405 Y69.632 E31.32998
G1 X59.954 Y69.838 E31.36344
G1 X60.574 Y70.028 E31.40044
G1 X61.145 Y70.162 E31.43391
G1 X61.784 Y70.269 E31.47087
G1 X62.365 Y70.326 E31.50418
G1 X63.012 Y70.35 E31.54113
G1 X63.6 Y70.33 E31.5747
G1 X64.244 Y70.269 E31.61161
G1 X64.822 Y70.175 E31.64502
G1 X65.454 Y70.03 E31.68202
G1 X66.015 Y69.859 E31.71548
G0 F3600 X85.27 Y55.572
G1 F1800 X85.163 Y55.465 E31.72412
G0 F3600 X84.173 Y55.465
G1 F1800 X85.27 Y56.562 E31.81264
G0 F3600 X84.92 Y57.202
G1 F1800 X83.184 Y55.465 E31.95276
G0 F3600 X82.194 Y55.465
G1 F1800 X84.383 Y57.654 E32.1294
G0 F3600 X83.845 Y58.107
G1 F1800 X81.204 Y55.465 E32.34255
G0 F3600 X80.214 Y55.465
G1 F1800 X83.307 Y58.559 E32.59217
G0 F3600 X82.77 Y59.011
G1 F1800 X79.224 Y55.465 E32.87831
G0 F3600 X78.234 Y55.465
G1 F1800 X82.232 Y59.464 E33.20096
G0 F3600 X81.694 Y59.915
G1 F1800 X77.244 Y55.465 E33.56005
G0 F3600 X76.254 Y55.465
G1 F1800 X81.157 Y60.368 E33.95569
G0 F3600 X80.62 Y60.821
G1 F1800 X75.264 Y55.465 E34.38788
G0 F3600 X74.274 Y55.465
G1 F1800 X80.081 Y61.272 E34.85646
G0 F3600 X79.544 Y61.725
G1 F1800 X73.284 Y55.465 E35.3616
G0 F3600 X72.758 Y55.929
G1 F1800 X79.006 Y62.177 E35.86577
G0 F3600 X78.469 Y62.629
G1 F1800 X72.758 Y56.919 E36.32657
G0 F3600 X72.758 Y57.909
G1 F1800 X77.931 Y63.082 E36.744
G0 F3600 X77.393 Y63.534
G1 F1800 X72.758 Y58.899 E37.11801
G0 F3600 X72.758 Y59.889
G1 F1800 X76.856 Y63.986 E37.44865
G0 F3600 X76.318 Y64.439
G1 F1800 X72.758 Y60.879 E37.73592
G0 F3600 X72.71 Y61.82
G1 F1800 X75.78 Y64.891 E37.98369
G0 F3600 X75.243 Y65.343
G1 F1800 X72.589 Y62.689 E38.19785
G0 F3600 X72.409 Y63.499
G1 F1800 X74.705 Y65.796 E38.38316
G0 F3600 X74.167 Y66.248
G1 F1800 X72.168 Y64.248 E38.54451
G0 F3600 X71.88 Y64.95
G1 F1800 X73.63 Y66.7 E38.68572
G0 F3600 X73.092 Y67.153
G1 F1800 X71.55 Y65.611 E38.81015
G0 F3600 X71.179 Y66.229
G1 F1800 X72.554 Y67.605 E38.92114
G0 F3600 X72.017 Y68.057
G1 F1800 X70.773 Y66.813 E39.02152
G0 F3600 X70.328 Y67.358
G1 F1800 X71.48 Y68.51 E39.11448
G0 F3600 X70.941 Y68.962
G1 F1800 X69.845 Y67.865 E39.20296
G0 F3600 X69.328 Y68.339
G1 F1800 X70.404 Y69.414 E39.28975
G0 F3600 X69.857 Y69.857
G1 F1800 X68.773 Y68.773 E39.37722
G0 F3600 X68.184 Y69.174
G1 F1800 X69.277 Y70.267 E39.46542
G0 F3600 X68.669 Y70.649
G1 F1800 X67.555 Y69.535 E39.55531
G0 F3600 X66.888 Y69.858
G1 F1800 X68.025 Y70.994 E39.64702
G0 F3600 X67.345 Y71.305
G1 F1800 X66.175 Y70.135 E39.74143
G0 F3600 X65.412 Y70.362
G1 F1800 X66.626 Y71.576 E39.83939
G0 F3600 X65.864 Y71.804
G1 F1800 X64.591 Y70.531 E39.94211
G0 F3600 X63.706 Y70.635
G1 F1800 X65.056 Y71.986 E40.05109
G0 F3600 X64.191 Y72.111
G1 F1800 X62.735 Y70.654 E40.16862
G0 F3600 X61.656 Y70.565
G1 F1800 X63.26 Y72.17 E40.29809
G0 F3600 X62.245 Y72.145
G1 F1800 X60.405 Y70.304 E40.4466
G1 X60.282 Y70.181
G0 F3600 X59.834 Y71.714
G1 F1800 X43.584 Y55.464 E41.75787
G0 F3600 X42.594 Y55.464
G1 F1800 X58.242 Y71.111 E43.02052
G1 X58.365 Y71.234
G0 F3600 X58.82 Y69.71
G1 F1800 X61.122 Y72.011 E43.20623
G1 X61.245 Y72.134
G0 F3600 X55.161 Y69.02
G1 F1800 X41.604 Y55.464 E44.30015
G0 F3600 X40.759 Y55.608
G1 F1800 X48.938 Y63.787 E44.96014
G1 X49.061 Y63.91
G0 F3600 X53.371 Y62.28
G1 F1800 X46.554 Y55.464 E45.51018
G0 F3600 X45.564 Y55.464
G1 F1800 X53.629 Y63.529 E46.16097
G1 X53.752 Y63.652
G0 F3600 X54.224 Y65.113
G1 F1800 X44.574 Y55.464 E46.93962
G1 X44.451 Y55.341
G0 F3600 X47.544 Y55.464
G1 F1800 X53.28 Y61.2 E47.40248
G0 F3600 X53.27 Y60.2
G1 F1800 X48.534 Y55.464 E47.78464
G0 F3600 X49.524 Y55.464
G1 F1800 X53.27 Y59.21 E48.08692
G0 F3600 X53.27 Y58.22
G1 F1800 X50.514 Y55.464 E48.30931
G0 F3600 X51.504 Y55.464
G1 F1800 X53.27 Y57.23 E48.45181
G0 F3600 X53.27 Y56.24
G1 F1800 X52.494 Y55.464 E48.51443
G0 F3600 X42.714 Y58.554
G1 F1800 X40.759 Y56.598 E48.67222
G1 X40.636 Y56.475
G10
;MESH:zrodholder_16mmdia_0p8mmgap.stl
G0 F3600 X63.267 Y73.159
G0 X63.933 Y75.727
G0 X71.482 Y81.65
G0 X71.412 Y81.72
;TYPE:WALL-OUTER
G11
G1 F1800 X71.017 Y81.35 E48.70311
G1 X70.552 Y80.966 E48.73752
G1 X70.112 Y80.651 E48.76839
G1 X69.601 Y80.331 E48.80279
G1 X69.124 Y80.075 E48.83368
G1 X68.576 Y79.825 E48.86805
G1 X68.07 Y79.634 E48.89891
G1 X67.494 Y79.458 E48.93328
G1 X66.967 Y79.334 E48.96417
G1 X66.372 Y79.234 E48.99859
G1 X65.834 Y79.181 E49.02944
G1 X65.231 Y79.16 E49.06387
G1 X64.691 Y79.178 E49.0947
G1 X64.093 Y79.234 E49.12897
G1 X63.558 Y79.322 E49.1599
G1 X62.971 Y79.457 E49.19427
G1 X62.452 Y79.614 E49.22521
G1 X61.889 Y79.824 E49.2595
G1 X61.395 Y80.047 E49.29042
G1 X60.862 Y80.33 E49.32486
G1 X60.403 Y80.615 E49.35568
G1 X59.912 Y80.965 E49.39009
G1 X59.494 Y81.309 E49.42098
G1 X59.053 Y81.718 E49.4553
G1 X58.683 Y82.113 E49.48618
G1 X58.299 Y82.578 E49.52059
G1 X57.984 Y83.018 E49.55146
G1 X57.664 Y83.529 E49.58587
G1 X57.408 Y84.005 E49.61671
G1 X57.157 Y84.554 E49.65115
G1 X56.967 Y85.06 E49.68199
G1 X56.791 Y85.636 E49.71635
G1 X56.667 Y86.163 E49.74725
G1 X56.567 Y86.758 E49.78167
G1 X56.514 Y87.296 E49.81252
G1 X56.492 Y87.892 E49.84655
G1 X56.492 Y94.36 E50.2156
G1 X41.97 Y94.36 E51.04421
G1 X41.97 Y91.442 E51.21071
G1 X57.331 Y78.521 E52.35603
G1 X57.743 Y78.19 E52.38618
G1 X58.169 Y77.877 E52.41635
G1 X58.585 Y77.596 E52.44499
G1 X59.043 Y77.315 E52.47565
G1 X59.489 Y77.067 E52.50477
G1 X59.945 Y76.837 E52.53391
G1 X60.435 Y76.616 E52.56458
G1 X60.911 Y76.425 E52.59384
G1 X61.408 Y76.25 E52.62391
G1 X61.888 Y76.103 E52.65255
G1 X62.4 Y75.97 E52.68274
G1 X62.914 Y75.859 E52.71274
G1 X63.411 Y75.775 E52.7415
G1 X63.931 Y75.708 E52.77142
G1 X64.455 Y75.664 E52.80142
G1 X64.98 Y75.641 E52.83141
G1 X65.483 Y75.641 E52.86011
G1 X66.008 Y75.664 E52.89009
G1 X66.532 Y75.708 E52.92009
G1 X67.052 Y75.775 E52.95001
G1 X67.549 Y75.859 E52.97877
G1 X68.063 Y75.97 E53.00877
G1 X68.575 Y76.103 E53.03896
G1 X69.055 Y76.25 E53.0676
G1 X69.552 Y76.425 E53.09767
G1 X70.027 Y76.616 E53.12688
G1 X70.516 Y76.837 E53.1575
G1 X70.966 Y77.062 E53.1862
G1 X71.419 Y77.315 E53.21581
G1 X71.869 Y77.591 E53.24593
G1 X72.307 Y77.887 E53.2761
