;FLAVOR:Marlin
;TIME:2322
;Filament used: 1.03986m
;Layer height: 0.4
;MINX:67.289
;MINY:71.201
;MINZ:0.52
;MAXX:122.711
;MAXY:98.81
;MAXZ:19.72
;Generated with Cura_SteamEngine 4.1.0
M82 ;absolute extrusion mode
M98 P0:/sys/startprint.g

G92 E0
G92 E0
G10
;LAYER_COUNT:49
;LAYER:0
M107
G0 F3600 X69.169 Y87.789 Z0.52
;TYPE:SKIRT
M220 S50
G11
G1 F1800 X83.82 Y75.466 E1.09235
G1 X83.853 Y75.438 E1.09482
G1 X84.413 Y74.977 E1.13621
G1 X84.498 Y74.909 E1.14242
G1 X84.765 Y74.701 E1.16173
G1 X84.923 Y74.584 E1.17295
G1 X85.595 Y74.111 E1.21984
G1 X85.73 Y74.02 E1.22913
G1 X86.421 Y73.574 E1.27606
G1 X86.724 Y73.397 E1.29608
G1 X87.422 Y73.028 E1.34113
G1 X87.572 Y72.952 E1.35072
G1 X88.306 Y72.602 E1.39712
G1 X88.534 Y72.502 E1.41133
G1 X89.01 Y72.31 E1.44062
G1 X89.261 Y72.218 E1.45587
G1 X90.293 Y71.879 E1.51785
G1 X90.616 Y71.788 E1.537
G1 X91.675 Y71.535 E1.59912
G1 X92.019 Y71.468 E1.61912
G1 X93.018 Y71.319 E1.67675
G1 X93.346 Y71.284 E1.69557
G1 X94.458 Y71.21 E1.75916
G1 X94.727 Y71.201 E1.77452
G1 X95.267 Y71.201 E1.80533
G1 X95.524 Y71.209 E1.82
G1 X96.592 Y71.277 E1.88106
G1 X96.928 Y71.313 E1.90035
G1 X97.961 Y71.466 E1.95993
G1 X98.303 Y71.531 E1.97979
G1 X99.378 Y71.786 E2.04283
G1 X99.709 Y71.88 E2.06247
G1 X100.736 Y72.218 E2.12416
G1 X100.975 Y72.305 E2.13867
G1 X101.457 Y72.498 E2.1683
G1 X101.697 Y72.603 E2.18324
G1 X102.43 Y72.953 E2.22959
G1 X102.578 Y73.028 E2.23906
G1 X103.274 Y73.396 E2.28398
G1 X103.576 Y73.573 E2.30395
G1 X104.269 Y74.02 E2.35101
G1 X104.406 Y74.112 E2.36042
G1 X105.076 Y74.584 E2.40719
G1 X105.185 Y74.663 E2.41487
G1 X105.377 Y74.808 E2.4286
G1 X105.512 Y74.915 E2.43843
G1 X106.064 Y75.37 E2.47924
G1 X106.095 Y75.395 E2.48151
G1 X120.706 Y87.683 E3.57084
G1 X120.747 Y87.718 E3.57391
G1 X121.298 Y88.194 E3.61546
G1 X121.701 Y88.595 E3.6479
G1 X122.044 Y89.049 E3.68036
G1 X122.32 Y89.547 E3.71285
G1 X122.524 Y90.078 E3.74531
G1 X122.651 Y90.632 E3.77774
G1 X122.699 Y91.184 E3.80935
G1 X122.71 Y91.78 E3.84337
G1 X122.711 Y91.855 E3.84765
G1 X122.711 Y94.074 E3.97426
G1 X122.702 Y94.801 E4.01575
G1 X122.655 Y95.368 E4.04821
G1 X122.529 Y95.923 E4.08068
G1 X122.326 Y96.454 E4.11312
G1 X122.051 Y96.952 E4.14558
G1 X121.709 Y97.407 E4.17806
G1 X121.307 Y97.809 E4.21049
G1 X120.852 Y98.151 E4.24297
G1 X120.354 Y98.426 E4.27543
G1 X119.823 Y98.628 E4.30785
G1 X119.268 Y98.754 E4.34032
G1 X118.766 Y98.799 E4.36908
G1 X118.445 Y98.808 E4.3874
G1 X118.331 Y98.81 E4.39391
G1 X103.989 Y98.81 E5.21225
G1 X103.279 Y98.8 E5.25276
G1 X103.049 Y98.79 E5.2659
G1 X101.738 Y98.697 E5.34089
G1 X99.031 Y98.542 E5.4956
G1 X96.33 Y98.466 E5.64978
G1 X93.59 Y98.466 E5.80612
G1 X90.918 Y98.542 E5.95864
G1 X88.163 Y98.697 E6.11608
G1 X87.074 Y98.782 E6.17841
G1 X86.91 Y98.791 E6.18778
G1 X86.483 Y98.807 E6.21216
G1 X86.331 Y98.81 E6.22084
G1 X71.988 Y98.81 E7.03923
G1 X71.29 Y98.8 E7.07906
G1 X70.723 Y98.752 E7.11153
G1 X70.169 Y98.624 E7.14397
G1 X69.637 Y98.421 E7.17646
G1 X69.14 Y98.145 E7.2089
G1 X68.686 Y97.802 E7.24137
G1 X68.285 Y97.399 E7.27381
G1 X67.944 Y96.944 E7.30625
G1 X67.67 Y96.445 E7.33873
G1 X67.469 Y95.913 E7.37118
G1 X67.344 Y95.358 E7.40364
G1 X67.299 Y94.859 E7.43223
G1 X67.29 Y94.525 E7.45129
G1 X67.289 Y94.416 E7.45751
G1 X67.289 Y91.905 E7.60079
G1 X67.299 Y91.207 E7.64062
G1 X67.347 Y90.64 E7.67309
G1 X67.475 Y90.086 E7.70553
G1 X67.678 Y89.554 E7.73802
G1 X67.954 Y89.057 E7.77046
G1 X68.297 Y88.603 E7.80292
G1 X68.668 Y88.229 E7.83298
G1 X69.095 Y87.852 E7.86548
G1 X69.169 Y87.789 E7.87103
G0 F3600 X69.62 Y88.324
G1 F1800 X84.271 Y76.001 E8.96338
G1 X84.298 Y75.979 E8.96537
G1 X84.858 Y75.518 E9.00676
G1 X84.928 Y75.461 E9.01191
G1 X85.195 Y75.253 E9.03122
G1 X85.326 Y75.157 E9.04049
G1 X85.998 Y74.684 E9.08738
G1 X86.109 Y74.608 E9.09505
G1 X86.8 Y74.162 E9.14198
G1 X87.051 Y74.015 E9.15858
G1 X87.749 Y73.646 E9.20363
G1 X87.873 Y73.584 E9.21154
G1 X88.607 Y73.234 E9.25794
G1 X88.796 Y73.151 E9.26971
G1 X89.272 Y72.959 E9.299
G1 X89.48 Y72.883 E9.31164
G1 X90.512 Y72.544 E9.37362
G1 X90.779 Y72.469 E9.38944
G1 X91.838 Y72.216 E9.45157
G1 X92.122 Y72.161 E9.46807
G1 X93.121 Y72.012 E9.5257
G1 X93.393 Y71.982 E9.54132
G1 X94.505 Y71.908 E9.60491
G1 X94.727 Y71.901 E9.61758
G1 X95.267 Y71.901 E9.64839
G1 X95.48 Y71.908 E9.66055
G1 X96.548 Y71.976 E9.72162
G1 X96.826 Y72.005 E9.73756
G1 X97.859 Y72.158 E9.79715
G1 X98.141 Y72.212 E9.81353
G1 X99.216 Y72.467 E9.87657
G1 X99.49 Y72.545 E9.89283
G1 X100.517 Y72.883 E9.95452
G1 X100.715 Y72.955 E9.96654
G1 X101.197 Y73.148 E9.99616
G1 X101.395 Y73.235 E10.0085
G1 X102.128 Y73.585 E10.05485
G1 X102.251 Y73.646 E10.06269
G1 X102.947 Y74.014 E10.10761
G1 X103.197 Y74.161 E10.12416
G1 X103.89 Y74.608 E10.17121
G1 X104.003 Y74.684 E10.17898
G1 X104.673 Y75.156 E10.22574
G1 X104.763 Y75.222 E10.23211
G1 X104.955 Y75.367 E10.24584
G1 X105.067 Y75.455 E10.25397
G1 X105.619 Y75.91 E10.29478
G1 X105.644 Y75.931 E10.29665
G1 X120.255 Y88.219 E11.38597
G1 X120.289 Y88.248 E11.38852
G1 X120.84 Y88.724 E11.43007
G1 X121.204 Y89.091 E11.45956
G1 X121.507 Y89.51 E11.48906
G1 X121.743 Y89.971 E11.51861
G1 X121.904 Y90.463 E11.54815
G1 X121.999 Y91.197 E11.59038
G1 X122.01 Y91.793 E11.62439
G1 X122.011 Y91.855 E11.62793
G1 X122.011 Y94.065 E11.75403
G1 X122.002 Y94.792 E11.79552
G1 X121.955 Y95.308 E11.82508
G1 X121.83 Y95.81 E11.8546
G1 X121.629 Y96.286 E11.88408
G1 X121.358 Y96.726 E11.91357
G1 X121.021 Y97.119 E11.94311
G1 X120.628 Y97.456 E11.97265
G1 X120.188 Y97.728 E12.00216
G1 X119.712 Y97.929 E12.03164
G1 X119.21 Y98.054 E12.06116
G1 X118.746 Y98.1 E12.08777
G1 X118.425 Y98.109 E12.10609
G1 X118.331 Y98.11 E12.11145
G1 X103.999 Y98.11 E12.92922
G1 X103.289 Y98.1 E12.96973
G1 X103.099 Y98.092 E12.98059
G1 X101.815 Y98.001 E13.05403
G1 X99.056 Y97.844 E13.21171
G1 X96.314 Y97.766 E13.36823
G1 X93.606 Y97.766 E13.52275
G1 X90.858 Y97.844 E13.67961
G1 X88.116 Y97.998 E13.83631
G1 X87.019 Y98.084 E13.89909
G1 X86.883 Y98.092 E13.90687
G1 X86.456 Y98.108 E13.93125
G1 X86.331 Y98.11 E13.93838
G1 X71.998 Y98.11 E14.7562
G1 X71.3 Y98.1 E14.79603
G1 X70.785 Y98.052 E14.82555
G1 X70.283 Y97.926 E14.85508
G1 X69.807 Y97.724 E14.88458
G1 X69.367 Y97.452 E14.9141
G1 X68.975 Y97.115 E14.94359
G1 X68.639 Y96.721 E14.97314
G1 X68.368 Y96.28 E15.00267
G1 X68.168 Y95.803 E15.03219
G1 X68.044 Y95.301 E15.06169
G1 X67.999 Y94.84 E15.08812
G1 X67.99 Y94.506 E15.10718
G1 X67.989 Y94.416 E15.11232
G1 X67.989 Y91.915 E15.25502
G1 X67.999 Y91.217 E15.29486
G1 X68.047 Y90.702 E15.32437
G1 X68.173 Y90.2 E15.3539
G1 X68.375 Y89.724 E15.3834
G1 X68.647 Y89.284 E15.41292
G1 X69.132 Y88.754 E15.45391
G1 X69.559 Y88.377 E15.48641
G1 X69.62 Y88.324 E15.49102
G10
;MESH:zrodholder_16mmdia_0p8mmgap.stl
G0 F3600 X72.033 Y91.195
G0 X103.764 Y86.747
G0 X103.665 Y86.759
;TYPE:WALL-OUTER
G11
G1 F1800 X103.576 Y86.225 E15.52191
G1 X103.442 Y85.639 E15.55621
G1 X103.285 Y85.119 E15.58721
G1 X103.074 Y84.555 E15.62157
G1 X102.851 Y84.062 E15.65244
G1 X102.569 Y83.53 E15.6868
G1 X102.283 Y83.07 E15.7177
G1 X101.934 Y82.579 E15.75207
G1 X101.59 Y82.16 E15.78301
G1 X101.18 Y81.72 E15.81732
G1 X100.785 Y81.35 E15.8482
G1 X100.32 Y80.966 E15.88261
G1 X99.881 Y80.651 E15.91344
G1 X99.37 Y80.331 E15.94785
G1 X98.893 Y80.075 E15.97874
G1 X98.344 Y79.824 E16.01318
G1 X97.838 Y79.634 E16.04402
G1 X97.263 Y79.458 E16.07833
G1 X96.735 Y79.334 E16.10928
G1 X96.141 Y79.234 E16.14365
G1 X95.603 Y79.181 E16.17449
G1 X95 Y79.16 E16.20892
G1 X94.46 Y79.178 E16.23975
G1 X93.861 Y79.234 E16.27408
G1 X93.326 Y79.322 E16.30501
G1 X92.739 Y79.457 E16.33938
G1 X92.221 Y79.614 E16.37027
G1 X91.658 Y79.824 E16.40455
G1 X91.163 Y80.047 E16.43553
G1 X90.631 Y80.33 E16.46991
G1 X90.171 Y80.615 E16.50079
G1 X89.681 Y80.965 E16.53515
G1 X89.262 Y81.309 E16.56608
G1 X88.822 Y81.718 E16.60036
G1 X88.451 Y82.112 E16.63124
G1 X88.067 Y82.578 E16.66569
G1 X87.752 Y83.018 E16.69657
G1 X87.432 Y83.529 E16.73097
G1 X87.177 Y84.005 E16.76178
G1 X86.927 Y84.554 E16.7962
G1 X86.735 Y85.06 E16.82708
G1 X86.559 Y85.637 E16.8615
G1 X86.436 Y86.163 E16.89232
G1 X86.335 Y86.758 E16.92676
G1 X86.283 Y87.296 E16.9576
G1 X86.261 Y87.892 E16.99163
G1 X86.261 Y94.36 E17.36069
G1 X71.739 Y94.36 E18.18929
G1 X71.739 Y91.442 E18.35579
G1 X87.101 Y78.52 E19.50119
G1 X87.519 Y78.185 E19.53176
G1 X87.924 Y77.887 E19.56045
G1 X88.362 Y77.591 E19.59061
G1 X88.797 Y77.324 E19.61973
G1 X89.266 Y77.063 E19.65036
G1 X89.715 Y76.837 E19.67904
G1 X90.204 Y76.616 E19.70966
G1 X90.679 Y76.425 E19.73887
G1 X91.176 Y76.25 E19.76893
G1 X91.657 Y76.103 E19.79763
G1 X92.169 Y75.97 E19.82782
G1 X92.682 Y75.86 E19.85775
G1 X93.18 Y75.775 E19.88658
G1 X93.699 Y75.708 E19.91644
G1 X94.223 Y75.664 E19.94644
G1 X94.749 Y75.641 E19.97648
G1 X95.251 Y75.641 E20.00513
G1 X95.777 Y75.664 E20.03517
G1 X96.301 Y75.708 E20.06517
G1 X96.82 Y75.775 E20.09503
G1 X97.318 Y75.86 E20.12386
G1 X97.831 Y75.97 E20.15379
G1 X98.343 Y76.103 E20.18398
G1 X98.824 Y76.25 E20.21268
G1 X99.321 Y76.425 E20.24274
G1 X99.796 Y76.616 E20.27195
G1 X100.285 Y76.837 E20.30257
G1 X100.734 Y77.063 E20.33125
G1 X101.203 Y77.324 E20.36188
G1 X101.638 Y77.591 E20.391
G1 X102.076 Y77.887 E20.42117
G1 X102.495 Y78.195 E20.45084
G1 X102.892 Y78.516 E20.47997
G1 X118.261 Y91.442 E21.62582
G1 X118.261 Y94.36 E21.79232
G1 X103.739 Y94.36 E22.62093
G1 X103.739 Y87.892 E22.98998
G1 X103.721 Y87.358 E23.02047
G1 X103.665 Y86.759 E23.05479
G0 F3600 X103.6 Y86.365
G0 X104.254 Y86.091
;TYPE:SKIN
G1 F1800 X104.11 Y85.462 E23.09161
G1 X103.939 Y84.898 E23.12524
G1 X103.712 Y84.291 E23.16222
G1 X103.47 Y83.758 E23.19562
G1 X103.168 Y83.186 E23.23253
G1 X102.858 Y82.687 E23.26605
G1 X102.482 Y82.159 E23.30303
G1 X102.11 Y81.705 E23.33652
G1 X101.669 Y81.233 E23.37338
G1 X101.241 Y80.832 E23.40684
G1 X100.742 Y80.42 E23.44377
G1 X100.266 Y80.078 E23.47721
G1 X99.717 Y79.734 E23.51418
G1 X99.2 Y79.456 E23.54767
G1 X98.608 Y79.187 E23.58477
G1 X98.061 Y78.981 E23.61812
G1 X97.443 Y78.792 E23.655
G1 X96.871 Y78.658 E23.68852
G1 X96.232 Y78.55 E23.7255
G1 X95.649 Y78.493 E23.75892
G1 X95 Y78.47 E23.79597
G1 X94.416 Y78.49 E23.82932
G1 X93.773 Y78.55 E23.86616
G1 X93.192 Y78.644 E23.89975
G1 X92.561 Y78.79 E23.9367
G1 X92 Y78.96 E23.97015
G1 X91.395 Y79.185 E24.00698
G1 X90.859 Y79.428 E24.04056
G1 X90.286 Y79.731 E24.07754
G1 X89.788 Y80.041 E24.11101
G1 X89.261 Y80.417 E24.14795
G1 X88.808 Y80.789 E24.1814
G1 X88.335 Y81.229 E24.21826
G1 X87.933 Y81.655 E24.25168
G1 X87.519 Y82.158 E24.28885
G1 X87.178 Y82.634 E24.32226
G1 X86.835 Y83.182 E24.35915
G1 X86.558 Y83.699 E24.39262
G1 X86.29 Y84.288 E24.42954
G1 X86.082 Y84.837 E24.46304
G1 X85.893 Y85.458 E24.50008
G1 X85.76 Y86.027 E24.53342
G1 X85.651 Y86.667 E24.57046
G1 X85.595 Y87.25 E24.60388
G1 X85.571 Y87.88 E24.63985
G1 X85.571 Y93.67 E24.97022
G1 X72.429 Y93.67 E25.72009
G1 X72.429 Y91.763 E25.8289
G1 X87.533 Y79.058 E26.95506
G1 X87.951 Y78.723 E26.98563
G1 X88.31 Y78.459 E27.01106
G1 X88.736 Y78.171 E27.0404
G1 X89.145 Y77.92 E27.06778
G1 X89.576 Y77.68 E27.09593
G1 X90.025 Y77.454 E27.12461
G1 X90.475 Y77.251 E27.15278
G1 X90.923 Y77.071 E27.18032
G1 X91.391 Y76.906 E27.20864
G1 X91.851 Y76.765 E27.23609
G1 X92.342 Y76.638 E27.26503
G1 X92.798 Y76.54 E27.29164
G1 X93.283 Y76.457 E27.31972
G1 X93.759 Y76.396 E27.3471
G1 X94.259 Y76.354 E27.37573
G1 X94.779 Y76.331 E27.40543
G1 X95.221 Y76.331 E27.43065
G1 X95.741 Y76.354 E27.46035
G1 X96.241 Y76.396 E27.48898
G1 X96.717 Y76.457 E27.51636
G1 X97.202 Y76.54 E27.54444
G1 X97.658 Y76.638 E27.57105
G1 X98.149 Y76.765 E27.59999
G1 X98.609 Y76.906 E27.62744
G1 X99.077 Y77.071 E27.65575
G1 X99.525 Y77.251 E27.6833
G1 X99.975 Y77.454 E27.71147
G1 X100.424 Y77.68 E27.74015
G1 X100.855 Y77.92 E27.7683
G1 X101.264 Y78.171 E27.79568
G1 X101.69 Y78.459 E27.82502
G1 X102.073 Y78.741 E27.85216
G1 X102.448 Y79.044 E27.87967
G1 X117.571 Y91.763 E29.00718
G1 X117.571 Y93.67 E29.11599
G1 X104.429 Y93.67 E29.86585
G1 X104.429 Y87.88 E30.19622
G1 X104.409 Y87.314 E30.22854
G1 X104.349 Y86.67 E30.26544
G1 X104.254 Y86.091 E30.29892
G0 F3600 X117.255 Y92.506
G1 F1800 X113.494 Y88.745 E30.60241
G1 X113.371 Y88.622
G0 F3600 X113.154 Y93.355
G1 F1800 X104.021 Y84.222 E31.33938
G1 X103.898 Y84.099
G0 F3600 X104.479 Y85.67
G1 F1800 X112.164 Y93.355 E31.95951
G0 F3600 X111.174 Y93.355
G1 F1800 X104.681 Y86.862 E32.48345
G0 F3600 X104.743 Y87.913
G1 F1800 X110.184 Y93.355 E32.92254
G0 F3600 X109.194 Y93.355
G1 F1800 X104.743 Y88.903 E33.28175
G0 F3600 X104.743 Y89.893
G1 F1800 X108.204 Y93.355 E33.56106
G0 F3600 X107.214 Y93.355
G1 F1800 X104.743 Y90.883 E33.7605
G0 F3600 X104.743 Y91.873
G1 F1800 X106.224 Y93.355 E33.88004
G0 F3600 X105.234 Y93.355
G1 F1800 X104.743 Y92.863 E33.91971
G0 F3600 X114.144 Y93.355
G1 F1800 X102.621 Y81.832 E34.84953
G1 X102.498 Y81.709
G0 F3600 X101.079 Y80.29
G1 F1800 X97.785 Y76.996 E35.11534
G0 F3600 X96.551 Y76.752
G1 F1800 X98.675 Y78.876 E35.28673
G1 X98.798 Y78.999
G0 F3600 X99.265 Y77.486
G1 F1800 X115.133 Y93.355 E36.56721
G0 F3600 X116.123 Y93.355
G1 F1800 X101.44 Y78.671 E37.75207
G1 X101.317 Y78.548
G0 F3600 X97.226 Y78.417
G1 F1800 X95.467 Y76.658 E37.89401
G0 F3600 X94.479 Y76.66
G1 F1800 X96.033 Y78.214 E38.0194
G0 F3600 X94.984 Y78.155
G1 F1800 X93.567 Y76.738 E38.13375
G0 F3600 X92.718 Y76.879
G1 F1800 X94.047 Y78.208 E38.24099
G0 F3600 X93.176 Y78.326
G1 F1800 X91.922 Y77.073 E38.34214
G0 F3600 X91.175 Y77.316
G1 F1800 X92.376 Y78.517 E38.43905
G0 F3600 X91.63 Y78.761
G1 F1800 X90.468 Y77.599 E38.53281
G0 F3600 X89.799 Y77.92
G1 F1800 X90.928 Y79.049 E38.62392
G0 F3600 X90.271 Y79.381
G1 F1800 X89.166 Y78.276 E38.71308
G0 F3600 X88.565 Y78.666
G1 F1800 X89.653 Y79.753 E38.80084
G0 F3600 X89.072 Y80.163
G1 F1800 X87.998 Y79.088 E38.88754
G0 F3600 X87.454 Y79.535
G1 F1800 X88.533 Y80.613 E38.97457
G0 F3600 X88.026 Y81.096
G1 F1800 X86.916 Y79.987 E39.0641
G0 F3600 X86.379 Y80.439
G1 F1800 X87.556 Y81.616 E39.15907
G0 F3600 X87.121 Y82.171
G1 F1800 X85.842 Y80.892 E39.26228
G0 F3600 X85.303 Y81.344
G1 F1800 X86.725 Y82.765 E39.37698
G0 F3600 X86.364 Y83.394
G1 F1800 X84.766 Y81.796 E39.50593
G0 F3600 X84.228 Y82.248
G1 F1800 X86.044 Y84.065 E39.65251
G0 F3600 X85.769 Y84.779
G1 F1800 X83.691 Y82.701 E39.82019
G0 F3600 X83.153 Y83.153
G1 F1800 X85.547 Y85.547 E40.01337
G0 F3600 X85.382 Y86.372
G1 F1800 X82.615 Y83.605 E40.23665
G0 F3600 X82.078 Y84.058
G1 F1800 X85.279 Y87.259 E40.49495
G0 F3600 X85.256 Y88.226
G1 F1800 X81.54 Y84.509 E40.79484
G0 F3600 X81.002 Y84.962
G1 F1800 X85.256 Y89.216 E41.13811
G0 F3600 X85.256 Y90.206
G1 F1800 X80.465 Y85.414 E41.52475
G0 F3600 X79.927 Y85.866
G1 F1800 X85.256 Y91.196 E41.95481
G0 F3600 X85.256 Y92.186
G1 F1800 X79.389 Y86.319 E42.42824
G0 F3600 X78.852 Y86.771
G1 F1800 X85.256 Y93.176 E42.94504
G0 F3600 X84.444 Y93.354
G1 F1800 X78.314 Y87.223 E43.43972
G0 F3600 X77.776 Y87.676
G1 F1800 X83.454 Y93.354 E43.8979
G0 F3600 X82.464 Y93.354
G1 F1800 X77.238 Y88.128 E44.3196
G0 F3600 X76.701 Y88.58
G1 F1800 X81.474 Y93.354 E44.70479
G0 F3600 X80.485 Y93.354
G1 F1800 X76.163 Y89.033 E45.05351
G0 F3600 X75.625 Y89.485
G1 F1800 X79.495 Y93.354 E45.36575
G0 F3600 X78.505 Y93.354
G1 F1800 X75.088 Y89.937 E45.64148
G0 F3600 X74.55 Y90.389
G1 F1800 X77.515 Y93.354 E45.88073
G0 F3600 X76.525 Y93.354
G1 F1800 X74.012 Y90.842 E46.08348
G0 F3600 X73.475 Y91.294
G1 F1800 X75.535 Y93.354 E46.2497
G0 F3600 X74.545 Y93.354
G1 F1800 X72.937 Y91.746 E46.37946
G0 F3600 X72.743 Y92.542
G1 F1800 X73.555 Y93.354 E46.44498
G0 F3600 X90.149 Y80.582
G0 X91.643 Y79.788
G0 X92.729 Y79.419
G0 X93.856 Y79.195
G0 X95 Y79.12
G0 X96.146 Y79.195
G0 X97.273 Y79.42
G0 X107.269 Y83.51
G1 F1800 X117.113 Y93.355 E47.23936
G1 X117.236 Y93.478
;MESH:NONMESH
G0 F3600 X104.017 Y87.109
;TIME_ELAPSED:69.102301
;LAYER:1
M220 S100
M106 S255
;MESH:zrodholder_16mmdia_0p8mmgap.stl
G0 F5400 X104.017 Y87.109 Z0.92
;TYPE:WALL-INNER
G1 F2700 X103.913 Y86.326 E47.27403
G1 X103.743 Y85.557 E47.3086
G1 X103.505 Y84.802 E47.34335
G1 X103.203 Y84.074 E47.37794
G1 X102.839 Y83.374 E47.41257
G1 X102.414 Y82.707 E47.44728
G1 X101.933 Y82.081 E47.48193
G1 X101.4 Y81.499 E47.51657
