;FLAVOR:Marlin
;TIME:4982
;Filament used: 2.07171m
;Layer height: 0.4
;MINX:67.289
;MINY:50.01
;MINZ:0.52
;MAXX:122.711
;MAXY:98.81
;MAXZ:19.72
;Generated with Cura_SteamEngine 4.1.0
M82 ;absolute extrusion mode
M98 P0:/sys/startprint.g

G92 E0
G92 E0
G10
;LAYER_COUNT:49
;LAYER:0
M107
G0 F3600 X68.299 Y51.405 Z0.52
;TYPE:SKIRT
M220 S50
G11
G1 F1800 X68.702 Y51.004 E0.03244
G1 X69.158 Y50.663 E0.06493
G1 X69.656 Y50.39 E0.09733
G1 X70.189 Y50.189 E0.12984
G1 X70.744 Y50.064 E0.1623
G1 X71.235 Y50.021 E0.19042
G1 X71.555 Y50.012 E0.20869
G1 X71.669 Y50.01 E0.21519
G1 X86.011 Y50.01 E1.03353
G1 X86.717 Y50.02 E1.07381
G1 X86.946 Y50.03 E1.08689
G1 X88.261 Y50.123 E1.16211
G1 X90.969 Y50.278 E1.31688
G1 X93.67 Y50.354 E1.47106
G1 X96.41 Y50.354 E1.6274
G1 X99.082 Y50.278 E1.77992
G1 X101.837 Y50.123 E1.93737
G1 X102.926 Y50.038 E1.99969
G1 X103.09 Y50.029 E2.00906
G1 X103.517 Y50.013 E2.03344
G1 X103.669 Y50.01 E2.04212
G1 X118.012 Y50.01 E2.86051
G1 X118.71 Y50.02 E2.90034
G1 X119.277 Y50.068 E2.93281
G1 X119.831 Y50.196 E2.96525
G1 X120.363 Y50.399 E2.99774
G1 X120.86 Y50.675 E3.03018
G1 X121.314 Y51.018 E3.06265
G1 X121.715 Y51.421 E3.09509
G1 X122.056 Y51.876 E3.12753
G1 X122.33 Y52.375 E3.16001
G1 X122.531 Y52.907 E3.19246
G1 X122.656 Y53.462 E3.22492
G1 X122.7 Y53.956 E3.25322
G1 X122.709 Y54.276 E3.27149
G1 X122.711 Y54.39 E3.27799
G1 X122.711 Y56.914 E3.42201
G1 X122.701 Y57.612 E3.46184
G1 X122.652 Y58.181 E3.49443
G1 X122.443 Y59.515 E3.57147
G1 X122.06 Y62.195 E3.72594
G1 X121.753 Y64.894 E3.88094
G1 X121.521 Y67.6 E4.0359
G1 X121.367 Y70.308 E4.19067
G1 X121.289 Y73.014 E4.34513
G1 X121.287 Y75.757 E4.50165
G1 X121.362 Y78.423 E4.65382
G1 X121.516 Y81.163 E4.81041
G1 X121.746 Y83.884 E4.96622
G1 X122.049 Y86.557 E5.11972
G1 X122.432 Y89.258 E5.27537
G1 X122.545 Y89.931 E5.31431
G1 X122.554 Y89.989 E5.31766
G1 X122.654 Y90.642 E5.35536
G1 X122.7 Y91.188 E5.38662
G1 X122.71 Y91.788 E5.42086
G1 X122.711 Y91.855 E5.42468
G1 X122.711 Y94.08 E5.55164
G1 X122.701 Y94.807 E5.59312
G1 X122.653 Y95.374 E5.62559
G1 X122.526 Y95.928 E5.65802
G1 X122.323 Y96.459 E5.69046
G1 X122.047 Y96.957 E5.72295
G1 X121.705 Y97.411 E5.75538
G1 X121.302 Y97.813 E5.78786
G1 X120.847 Y98.154 E5.8203
G1 X120.348 Y98.428 E5.85278
G1 X119.816 Y98.63 E5.88525
G1 X119.261 Y98.755 E5.91771
G1 X118.765 Y98.799 E5.94613
G1 X118.445 Y98.808 E5.96439
G1 X118.331 Y98.81 E5.9709
G1 X103.989 Y98.81 E6.78923
G1 X103.279 Y98.8 E6.82975
G1 X103.049 Y98.79 E6.84289
G1 X101.738 Y98.697 E6.91788
G1 X99.031 Y98.542 E7.07259
G1 X96.33 Y98.466 E7.22677
G1 X93.59 Y98.466 E7.38311
G1 X90.918 Y98.542 E7.53563
G1 X88.163 Y98.697 E7.69307
G1 X87.074 Y98.782 E7.7554
G1 X86.91 Y98.791 E7.76477
G1 X86.483 Y98.807 E7.78915
G1 X86.331 Y98.81 E7.79783
G1 X71.988 Y98.81 E8.61622
G1 X71.29 Y98.8 E8.65605
G1 X70.723 Y98.752 E8.68852
G1 X70.169 Y98.624 E8.72096
G1 X69.637 Y98.421 E8.75345
G1 X69.14 Y98.145 E8.78589
G1 X68.686 Y97.802 E8.81836
G1 X68.285 Y97.399 E8.8508
G1 X67.944 Y96.944 E8.88324
G1 X67.67 Y96.445 E8.91572
G1 X67.469 Y95.913 E8.94817
G1 X67.344 Y95.358 E8.98063
G1 X67.299 Y94.859 E9.00922
G1 X67.29 Y94.525 E9.02828
G1 X67.289 Y94.416 E9.0345
G1 X67.289 Y91.905 E9.17778
G1 X67.299 Y91.208 E9.21755
G1 X67.348 Y90.639 E9.25014
G1 X67.554 Y89.326 E9.32597
G1 X67.94 Y86.625 E9.48165
G1 X68.249 Y83.91 E9.63757
G1 X68.479 Y81.211 E9.79213
G1 X68.634 Y78.508 E9.94661
G1 X68.711 Y75.797 E10.10136
G1 X68.713 Y73.063 E10.25736
G1 X68.638 Y70.395 E10.40965
G1 X68.484 Y67.655 E10.56624
G1 X68.254 Y64.934 E10.72205
G1 X67.951 Y62.261 E10.87554
G1 X67.569 Y59.567 E11.0308
G1 X67.455 Y58.889 E11.07003
G1 X67.446 Y58.83 E11.07343
G1 X67.345 Y58.17 E11.11153
G1 X67.298 Y57.618 E11.14314
G1 X67.289 Y57.025 E11.17698
G1 X67.289 Y54.673 E11.31118
G1 X67.299 Y54.008 E11.34913
G1 X67.348 Y53.441 E11.3816
G1 X67.475 Y52.887 E11.41403
G1 X67.679 Y52.356 E11.44649
G1 X67.955 Y51.859 E11.47893
G1 X68.299 Y51.405 E11.51143
G0 F3600 X68.986 Y51.694
G1 F1800 X69.38 Y51.359 E11.54094
G1 X69.821 Y51.088 E11.57047
G1 X70.298 Y50.888 E11.59998
G1 X70.8 Y50.764 E11.62949
G1 X71.255 Y50.72 E11.65557
G1 X71.575 Y50.711 E11.67384
G1 X71.669 Y50.71 E11.6792
G1 X86.001 Y50.71 E12.49697
G1 X86.707 Y50.72 E12.53725
G1 X86.896 Y50.728 E12.54805
G1 X88.179 Y50.819 E12.62144
G1 X90.944 Y50.976 E12.77946
G1 X93.686 Y51.054 E12.93598
G1 X96.394 Y51.054 E13.09049
G1 X99.142 Y50.976 E13.24735
G1 X101.884 Y50.822 E13.40405
G1 X102.981 Y50.736 E13.46684
G1 X103.117 Y50.728 E13.47461
G1 X103.544 Y50.712 E13.49899
G1 X103.669 Y50.71 E13.50613
G1 X118.002 Y50.71 E14.32395
G1 X118.7 Y50.72 E14.36378
G1 X119.215 Y50.768 E14.39329
G1 X119.717 Y50.894 E14.42282
G1 X120.193 Y51.096 E14.45233
G1 X120.633 Y51.368 E14.48184
G1 X121.025 Y51.705 E14.51134
G1 X121.361 Y52.099 E14.54089
G1 X121.632 Y52.54 E14.57042
G1 X121.832 Y53.017 E14.59993
G1 X121.956 Y53.519 E14.62944
G1 X122.001 Y53.976 E14.65564
G1 X122.01 Y54.296 E14.67391
G1 X122.011 Y54.39 E14.67927
G1 X122.011 Y56.904 E14.82271
G1 X122.001 Y57.602 E14.86255
G1 X121.961 Y58.073 E14.88952
G1 X121.752 Y59.407 E14.96656
G1 X121.369 Y62.087 E15.12103
G1 X121.056 Y64.835 E15.27884
G1 X120.824 Y67.546 E15.4341
G1 X120.668 Y70.287 E15.59075
G1 X120.589 Y73.021 E15.74681
G1 X120.587 Y75.74 E15.90195
G1 X120.664 Y78.483 E16.05853
G1 X120.818 Y81.218 E16.21483
G1 X121.045 Y83.918 E16.36943
G1 X121.357 Y86.658 E16.52678
G1 X121.739 Y89.357 E16.68232
G1 X121.855 Y90.047 E16.72224
G1 X121.862 Y90.095 E16.72501
G1 X121.962 Y90.748 E16.7627
G1 X122.001 Y91.199 E16.78853
G1 X122.011 Y91.799 E16.82277
G1 X122.011 Y94.07 E16.95235
G1 X122.001 Y94.797 E16.99384
G1 X121.954 Y95.312 E17.02335
G1 X121.828 Y95.814 E17.05288
G1 X121.626 Y96.29 E17.08238
G1 X121.354 Y96.73 E17.1119
G1 X121.017 Y97.123 E17.14144
G1 X120.624 Y97.459 E17.17094
G1 X120.183 Y97.73 E17.20047
G1 X119.706 Y97.93 E17.22999
G1 X119.204 Y98.055 E17.2595
G1 X118.745 Y98.1 E17.28582
G1 X118.425 Y98.109 E17.30409
G1 X118.331 Y98.11 E17.30945
G1 X103.999 Y98.11 E18.12721
G1 X103.289 Y98.1 E18.16773
G1 X103.099 Y98.092 E18.17858
G1 X101.815 Y98.001 E18.25203
G1 X99.056 Y97.844 E18.40971
G1 X96.314 Y97.766 E18.56623
G1 X93.606 Y97.766 E18.72074
G1 X90.858 Y97.844 E18.8776
G1 X88.116 Y97.998 E19.0343
G1 X87.019 Y98.084 E19.09709
G1 X86.883 Y98.092 E19.10486
G1 X86.456 Y98.108 E19.12924
G1 X86.331 Y98.11 E19.13638
G1 X71.998 Y98.11 E19.9542
G1 X71.3 Y98.1 E19.99403
G1 X70.785 Y98.052 E20.02354
G1 X70.283 Y97.926 E20.05307
G1 X69.807 Y97.724 E20.08258
G1 X69.367 Y97.452 E20.11209
G1 X68.975 Y97.115 E20.14159
G1 X68.639 Y96.721 E20.17114
G1 X68.368 Y96.28 E20.20067
G1 X68.168 Y95.803 E20.23018
G1 X68.044 Y95.301 E20.25969
G1 X67.999 Y94.84 E20.28612
G1 X67.99 Y94.506 E20.30518
G1 X67.989 Y94.416 E20.31032
G1 X67.989 Y91.915 E20.45302
G1 X67.999 Y91.218 E20.49279
G1 X68.039 Y90.747 E20.51977
G1 X68.248 Y89.413 E20.59681
G1 X68.631 Y86.733 E20.75128
G1 X68.945 Y83.976 E20.90961
G1 X69.176 Y81.276 E21.06423
G1 X69.333 Y78.529 E21.22123
G1 X69.411 Y75.789 E21.37763
G1 X69.413 Y73.08 E21.5322
G1 X69.336 Y70.332 E21.68906
G1 X69.182 Y67.593 E21.84559
G1 X68.955 Y64.9 E21.9998
G1 X68.643 Y62.158 E22.15726
G1 X68.262 Y59.467 E22.31234
G1 X68.145 Y58.773 E22.35249
G1 X68.138 Y58.724 E22.35532
G1 X68.037 Y58.064 E22.39342
G1 X67.998 Y57.608 E22.41953
G1 X67.989 Y57.015 E22.45337
G1 X67.989 Y54.684 E22.58637
G1 X67.999 Y54.019 E22.62432
G1 X68.047 Y53.504 E22.65383
G1 X68.173 Y53.002 E22.68337
G1 X68.376 Y52.526 E22.71289
G1 X68.649 Y52.086 E22.74244
G1 X68.986 Y51.694 E22.77193
G10
;MESH:zrodholder_16mmdia_0p8mmgap.stl(1)
G0 F3600 X71.753 Y54.474
G0 X86.236 Y62.072
G0 X86.335 Y62.06
;TYPE:WALL-OUTER
G11
G1 F1800 X86.424 Y62.594 E22.80282
G1 X86.558 Y63.18 E22.83712
G1 X86.715 Y63.7 E22.86812
G1 X86.926 Y64.264 E22.90248
G1 X87.149 Y64.757 E22.93335
G1 X87.431 Y65.289 E22.96771
G1 X87.717 Y65.75 E22.99866
G1 X88.066 Y66.24 E23.03299
G1 X88.41 Y66.659 E23.06392
G1 X88.82 Y67.099 E23.09824
G1 X89.214 Y67.469 E23.12908
G1 X89.68 Y67.854 E23.16357
G1 X90.119 Y68.168 E23.19436
G1 X90.63 Y68.489 E23.22879
G1 X91.108 Y68.744 E23.25971
G1 X91.656 Y68.995 E23.2941
G1 X92.161 Y69.185 E23.32489
G1 X92.738 Y69.362 E23.35932
G1 X93.266 Y69.485 E23.39026
G1 X93.859 Y69.585 E23.42457
G1 X94.397 Y69.638 E23.45542
G1 X94.999 Y69.66 E23.48979
G1 X95.541 Y69.642 E23.52073
G1 X96.14 Y69.585 E23.55506
G1 X96.674 Y69.497 E23.58594
G1 X97.261 Y69.363 E23.6203
G1 X97.779 Y69.205 E23.6512
G1 X98.342 Y68.995 E23.68549
G1 X98.837 Y68.772 E23.71646
G1 X99.369 Y68.49 E23.75082
G1 X99.829 Y68.204 E23.78173
G1 X100.319 Y67.855 E23.81605
G1 X100.739 Y67.511 E23.84703
G1 X101.178 Y67.101 E23.8813
G1 X101.549 Y66.707 E23.91218
G1 X101.933 Y66.241 E23.94664
G1 X102.248 Y65.801 E23.97751
G1 X102.568 Y65.291 E24.01187
G1 X102.823 Y64.813 E24.04278
G1 X103.073 Y64.265 E24.07715
G1 X103.265 Y63.759 E24.10803
G1 X103.441 Y63.182 E24.14245
G1 X103.564 Y62.656 E24.17327
G1 X103.665 Y62.061 E24.20771
G1 X103.717 Y61.524 E24.23849
G1 X103.739 Y60.928 E24.27252
G1 X103.739 Y54.46 E24.64158
G1 X118.261 Y54.46 E25.47018
G1 X118.261 Y57.377 E25.63662
G1 X102.899 Y70.299 E26.78202
G1 X102.481 Y70.634 E26.81259
G1 X102.076 Y70.932 E26.84128
G1 X101.638 Y71.228 E26.87144
G1 X101.188 Y71.504 E26.90156
G1 X100.742 Y71.753 E26.93071
G1 X100.286 Y71.983 E26.95985
G1 X99.797 Y72.203 E26.99045
G1 X99.321 Y72.394 E27.01971
G1 X98.841 Y72.564 E27.04877
G1 X98.33 Y72.719 E27.07923
G1 X97.831 Y72.849 E27.10866
G1 X97.322 Y72.959 E27.13837
G1 X96.82 Y73.045 E27.16743
G1 X96.301 Y73.111 E27.19728
G1 X95.777 Y73.155 E27.22729
G1 X95.251 Y73.178 E27.25733
G1 X94.749 Y73.178 E27.28597
G1 X94.223 Y73.155 E27.31601
G1 X93.699 Y73.111 E27.34602
G1 X93.18 Y73.045 E27.37587
G1 X92.678 Y72.959 E27.40493
G1 X92.169 Y72.849 E27.43464
G1 X91.67 Y72.719 E27.46407
G1 X91.159 Y72.564 E27.49453
G1 X90.679 Y72.394 E27.52359
G1 X90.203 Y72.203 E27.55285
G1 X89.714 Y71.983 E27.58345
G1 X89.258 Y71.753 E27.61259
G1 X88.812 Y71.504 E27.64174
G1 X88.362 Y71.228 E27.67186
G1 X87.924 Y70.932 E27.70202
G1 X87.505 Y70.624 E27.73169
G1 X87.102 Y70.298 E27.76127
G1 X71.739 Y57.377 E28.90668
G1 X71.739 Y54.46 E29.07312
G1 X86.261 Y54.46 E29.90172
G1 X86.261 Y60.928 E30.27078
G1 X86.279 Y61.461 E30.30121
G1 X86.335 Y62.06 E30.33554
G0 F3600 X86.4 Y62.454
G0 X85.746 Y62.728
;TYPE:SKIN
G1 F1800 X85.89 Y63.357 E30.37235
G1 X86.061 Y63.921 E30.40598
G1 X86.288 Y64.528 E30.44296
G1 X86.53 Y65.061 E30.47636
G1 X86.832 Y65.632 E30.51322
G1 X87.142 Y66.132 E30.54678
G1 X87.518 Y66.66 E30.58377
G1 X87.89 Y67.114 E30.61726
G1 X88.331 Y67.586 E30.65412
G1 X88.758 Y67.987 E30.68754
G1 X89.259 Y68.402 E30.72466
G1 X89.735 Y68.742 E30.75804
G1 X90.283 Y69.086 E30.79496
G1 X90.802 Y69.363 E30.82852
G1 X91.39 Y69.632 E30.86542
G1 X91.938 Y69.838 E30.89882
G1 X92.558 Y70.028 E30.93582
G1 X93.13 Y70.162 E30.96934
G1 X93.768 Y70.269 E31.00626
G1 X94.35 Y70.326 E31.03962
G1 X94.997 Y70.35 E31.07657
G1 X95.585 Y70.33 E31.11014
G1 X96.229 Y70.269 E31.14705
G1 X96.807 Y70.175 E31.18046
G1 X97.439 Y70.03 E31.21746
G1 X98 Y69.859 E31.25092
G1 X98.605 Y69.634 E31.28775
G1 X99.14 Y69.392 E31.32126
G1 X99.714 Y69.089 E31.35829
G1 X100.212 Y68.778 E31.39179
G1 X100.738 Y68.403 E31.42865
G1 X101.194 Y68.031 E31.46223
G1 X101.665 Y67.59 E31.49905
G1 X102.067 Y67.164 E31.53247
G1 X102.481 Y66.661 E31.56964
G1 X102.821 Y66.186 E31.60297
G1 X103.165 Y65.638 E31.63989
G1 X103.442 Y65.119 E31.67345
G1 X103.71 Y64.531 E31.71032
G1 X103.918 Y63.982 E31.74382
G1 X104.107 Y63.361 E31.78086
G1 X104.24 Y62.792 E31.8142
G1 X104.349 Y62.152 E31.85125
G1 X104.405 Y61.57 E31.88461
G1 X104.429 Y60.94 E31.92058
G1 X104.429 Y55.15 E32.25095
G1 X117.571 Y55.15 E33.00082
G1 X117.571 Y57.056 E33.10957
G1 X102.467 Y69.761 E34.23574
G1 X102.055 Y70.092 E34.26589
G1 X101.69 Y70.36 E34.29173
G1 X101.253 Y70.656 E34.32184
G1 X100.851 Y70.901 E34.34871
G1 X100.405 Y71.15 E34.37785
G1 X100.003 Y71.354 E34.40357
G1 X99.526 Y71.568 E34.4334
G1 X99.086 Y71.745 E34.46046
G1 X98.62 Y71.91 E34.48867
G1 X98.145 Y72.054 E34.51699
G1 X97.661 Y72.18 E34.54553
G1 X97.2 Y72.28 E34.57245
G1 X96.707 Y72.365 E34.60099
G1 X96.244 Y72.423 E34.62762
G1 X95.741 Y72.465 E34.65642
G1 X95.221 Y72.488 E34.68612
G1 X94.779 Y72.488 E34.71134
G1 X94.259 Y72.465 E34.74103
G1 X93.756 Y72.423 E34.76983
G1 X93.293 Y72.365 E34.79646
G1 X92.8 Y72.28 E34.825
G1 X92.339 Y72.18 E34.85192
G1 X91.855 Y72.054 E34.88046
G1 X91.38 Y71.91 E34.90878
G1 X90.914 Y71.745 E34.93699
G1 X90.474 Y71.568 E34.96405
G1 X89.997 Y71.354 E34.99388
G1 X89.595 Y71.15 E35.0196
G1 X89.149 Y70.901 E35.04874
G1 X88.747 Y70.656 E35.07561
G1 X88.31 Y70.36 E35.10572
G1 X87.927 Y70.078 E35.13286
G1 X87.536 Y69.762 E35.16155
G1 X72.429 Y57.056 E36.28788
G1 X72.429 Y55.15 E36.39663
G1 X85.571 Y55.15 E37.1465
G1 X85.571 Y60.94 E37.47687
G1 X85.591 Y61.505 E37.50913
G1 X85.651 Y62.149 E37.54603
G1 X85.746 Y62.728 E37.57951
G0 F3600 X72.743 Y55.914
G1 F1800 X79.006 Y62.177 E38.08489
G1 X79.129 Y62.3
G0 F3600 X85.275 Y61.516
G1 F1800 X79.223 Y55.464 E38.57325
G0 F3600 X78.233 Y55.464
G1 F1800 X85.412 Y62.644 E39.15258
G0 F3600 X85.745 Y63.966
G1 F1800 X77.243 Y55.464 E39.83864
G0 F3600 X76.253 Y55.464
G1 F1800 X86.535 Y65.746 E40.66832
G1 X86.658 Y65.869
G0 F3600 X85.233 Y67.414
G1 F1800 X73.283 Y55.464 E41.63261
G0 F3600 X74.273 Y55.464
G1 F1800 X89.601 Y70.792 E42.86947
G1 X89.724 Y70.915
G0 F3600 X90.173 Y69.384
G1 F1800 X92.73 Y71.941 E43.0758
G0 F3600 X93.896 Y72.117
G1 F1800 X91.95 Y70.171 E43.23283
G0 F3600 X93.274 Y70.505
G1 F1800 X94.941 Y72.172 E43.36735
G0 F3600 X95.893 Y72.134
G1 F1800 X94.401 Y70.642 E43.48774
G0 F3600 X95.4 Y70.651
G1 F1800 X96.78 Y72.032 E43.59914
G0 F3600 X97.606 Y71.867
G1 F1800 X96.312 Y70.574 E43.70352
G0 F3600 X97.148 Y70.42
G1 F1800 X98.381 Y71.652 E43.80297
G0 F3600 X99.112 Y71.393
G1 F1800 X97.929 Y70.21 E43.89843
G0 F3600 X98.659 Y69.95
G1 F1800 X99.806 Y71.097 E43.99099
G0 F3600 X100.457 Y70.758
G1 F1800 X99.34 Y69.642 E44.08108
G0 F3600 X99.981 Y69.292
G1 F1800 X101.079 Y70.391 E44.16972
G0 F3600 X101.665 Y69.987
G1 F1800 X100.58 Y68.901 E44.25731
G0 F3600 X101.145 Y68.476
G1 F1800 X102.222 Y69.553 E44.34422
G0 F3600 X102.761 Y69.102
G1 F1800 X101.672 Y68.014 E44.43205
G0 F3600 X102.165 Y67.517
G1 F1800 X103.298 Y68.65 E44.52348
G0 F3600 X103.835 Y68.197
G1 F1800 X102.621 Y66.983 E44.62144
G0 F3600 X103.043 Y66.415
G1 F1800 X104.373 Y67.745 E44.72876
G0 F3600 X104.911 Y67.293
G1 F1800 X103.427 Y65.809 E44.84851
G0 F3600 X103.767 Y65.159
G1 F1800 X105.448 Y66.84 E44.98416
G0 F3600 X105.986 Y66.388
G1 F1800 X104.067 Y64.469 E45.13901
G0 F3600 X104.322 Y63.734
G1 F1800 X106.524 Y65.936 E45.31669
G0 F3600 X107.061 Y65.483
G1 F1800 X104.525 Y62.948 E45.52129
G0 F3600 X104.668 Y62.1
G1 F1800 X107.599 Y65.031 E45.7578
G0 F3600 X108.137 Y64.579
G1 F1800 X104.733 Y61.176 E46.03244
G0 F3600 X104.743 Y60.195
G1 F1800 X108.674 Y64.126 E46.34965
G0 F3600 X109.212 Y63.674
G1 F1800 X104.743 Y59.205 E46.71026
G0 F3600 X104.743 Y58.215
G1 F1800 X109.75 Y63.222 E47.1143
G0 F3600 X110.287 Y62.769
G1 F1800 X104.743 Y57.225 E47.56166
G0 F3600 X104.743 Y56.235
G1 F1800 X110.825 Y62.318 E48.05247
G0 F3600 X111.362 Y61.865
G1 F1800 X104.962 Y55.465 E48.56891
G0 F3600 X105.952 Y55.465
G1 F1800 X111.901 Y61.413 E49.04891
G0 F3600 X112.438 Y60.961
G1 F1800 X106.942 Y55.465 E49.4924
G0 F3600 X107.932 Y55.465
G1 F1800 X112.975 Y60.508 E49.89934
G0 F3600 X113.513 Y60.056
G1 F1800 X108.922 Y55.465 E50.2698
G0 F3600 X109.912 Y55.465
G1 F1800 X114.051 Y59.604 E50.60379
G0 F3600 X114.588 Y59.151
G1 F1800 X110.902 Y55.465 E50.90123
G0 F3600 X111.892 Y55.465
G1 F1800 X115.126 Y58.699 E51.16219
G0 F3600 X115.664 Y58.247
G1 F1800 X112.882 Y55.465 E51.38668
G0 F3600 X113.872 Y55.465
G1 F1800 X116.201 Y57.794 E51.57461
G0 F3600 X116.739 Y57.342
G1 F1800 X114.862 Y55.465 E51.72607
G0 F3600 X115.852 Y55.465
G1 F1800 X117.255 Y56.868 E51.83928
G0 F3600 X117.255 Y55.878
G1 F1800 X116.842 Y55.465 E51.87261
G0 F3600 X99.851 Y68.237
G0 X98.507 Y68.951
G0 X91.371 Y71.572
G1 F1800 X75.263 Y55.464 E53.17242
G1 X75.14 Y55.341
